; generated by Slic3r 1.3.0-dev on 2016-08-21 at 20:20:19

; external perimeters extrusion width = 0.45mm
; perimeters extrusion width = 0.45mm
; infill extrusion width = 0.45mm
; solid infill extrusion width = 0.45mm
; top infill extrusion width = 0.40mm

M107
M83  ; extruder relative mode
M104 S210 ; set extruder temp
M140 S55 ; set bed temp
M190 S55 ; wait for bed temp
M109 S210 ; wait for extruder temp
G28 W ; home all without mesh bed level
G80 ; mesh bed leveling
G1 Y-3.0 F1000.0 ; go outside pritn area
G1 X60.0 E9.0  F1000.0 ; intro line
G1 X100.0 E12.5  F1000.0 ; intro line
G21 ; set units to millimeters
G90 ; use absolute coordinates
M83 ; use relative distances for extrusion
G1 E-0.80000 F2100.00000
G1 Z0.150 F7200.000
G1 X121.092 Y99.490 F7200.000
G1 E0.80000 F2100.00000
M204 S1000
G1 F1800
G1 X122.753 Y98.503 E0.04672
G1 X124.281 Y98.249 E0.03748
G1 X125.096 Y98.249 E0.01970
G1 X126.987 Y98.645 E0.04672
G1 X128.560 Y99.766 E0.04672
G1 X129.551 Y101.424 E0.04672
G1 X129.809 Y102.952 E0.03748
G1 X129.811 Y103.522 E0.01379
G1 X129.419 Y105.414 E0.04672
G1 X128.302 Y106.990 E0.04672
G1 X126.647 Y107.986 E0.04672
G1 X125.095 Y108.248 E0.03807
G1 X124.277 Y108.248 E0.01978
G1 X122.386 Y107.852 E0.04672
G1 X120.813 Y106.731 E0.04672
G1 X119.822 Y105.073 E0.04672
G1 X119.564 Y103.520 E0.03807
G1 X119.565 Y102.950 E0.01379
G1 X119.967 Y101.060 E0.04672
G1 X121.057 Y99.539 E0.04527
G1 X121.472 Y99.671 F7200.000
G1 F1800
G1 X123.103 Y98.800 E0.04474
G1 X124.281 Y98.636 E0.02876
G1 X125.096 Y98.637 E0.01970
G1 X126.903 Y99.033 E0.04474
G1 X128.379 Y100.147 E0.04474
G1 X129.255 Y101.776 E0.04474
G1 X129.421 Y102.953 E0.02876
G1 X129.423 Y103.523 E0.01379
G1 X129.032 Y105.331 E0.04474
G1 X127.921 Y106.810 E0.04474
G1 X126.295 Y107.691 E0.04474
G1 X125.095 Y107.860 E0.02930
G1 X124.277 Y107.860 E0.01978
G1 X122.470 Y107.464 E0.04474
G1 X120.994 Y106.350 E0.04474
G1 X120.118 Y104.721 E0.04474
G1 X119.951 Y103.521 E0.02931
G1 X119.953 Y102.951 E0.01379
G1 X120.354 Y101.145 E0.04474
G1 X121.436 Y99.719 E0.04328
G1 X121.850 Y99.863 F7200.000
G1 F1800
G1 X124.281 Y99.024 E0.06218
G1 X125.096 Y99.024 E0.01970
G1 X126.815 Y99.420 E0.04266
G1 X128.189 Y100.526 E0.04266
G1 X129.034 Y102.954 E0.06218
G1 X129.035 Y103.524 E0.01379
G1 X128.644 Y105.244 E0.04266
G1 X127.542 Y106.621 E0.04266
G1 X125.095 Y107.473 E0.06266
G1 X124.277 Y107.472 E0.01978
G1 X122.558 Y107.077 E0.04266
G1 X121.184 Y105.971 E0.04266
G1 X120.339 Y103.522 E0.06266
G1 X120.341 Y102.952 E0.01379
G1 X120.741 Y101.234 E0.04266
G1 X121.813 Y99.909 E0.04121
G1 X122.227 Y100.066 F7200.000
G1 F1800
G1 X124.281 Y99.412 E0.05213
G1 X125.096 Y99.412 E0.01970
G1 X126.722 Y99.807 E0.04048
G1 X127.987 Y100.903 E0.04048
G1 X128.646 Y102.955 E0.05213
G1 X128.647 Y103.525 E0.01379
G1 X128.257 Y105.152 E0.04048
G1 X127.164 Y106.420 E0.04048
G1 X125.095 Y107.085 E0.05256
G1 X124.277 Y107.085 E0.01978
G1 X122.651 Y106.690 E0.04048
G1 X121.386 Y105.594 E0.04048
G1 X120.727 Y103.523 E0.05256
G1 X120.729 Y102.953 E0.01379
G1 X121.128 Y101.328 E0.04048
G1 X122.188 Y100.111 E0.03903
G1 X122.601 Y100.282 F7200.000
G1 F1800
G1 X124.281 Y99.800 E0.04227
G1 X125.095 Y99.800 E0.01970
G1 X126.624 Y100.194 E0.03817
G1 X127.771 Y101.278 E0.03817
G1 X128.258 Y102.956 E0.04227
G1 X128.259 Y103.526 E0.01379
G1 X127.869 Y105.055 E0.03817
G1 X126.789 Y106.206 E0.03817
G1 X125.095 Y106.697 E0.04265
G1 X124.278 Y106.697 E0.01978
G1 X122.749 Y106.303 E0.03817
G1 X121.602 Y105.219 E0.03817
G1 X121.115 Y103.524 E0.04265
G1 X121.117 Y102.954 E0.01379
G1 X121.515 Y101.427 E0.03817
G1 X122.560 Y100.326 E0.03672
G1 X122.971 Y100.515 F7200.000
G1 F1800
G1 X124.281 Y100.188 E0.03264
G1 X125.095 Y100.188 E0.01970
G1 X126.519 Y100.581 E0.03571
G1 X127.539 Y101.649 E0.03571
G1 X127.870 Y102.957 E0.03264
G1 X127.872 Y103.527 E0.01379
G1 X127.482 Y104.951 E0.03571
G1 X126.417 Y105.974 E0.03571
G1 X125.095 Y106.309 E0.03298
G1 X124.278 Y106.309 E0.01978
G1 X122.854 Y105.916 E0.03571
G1 X121.834 Y104.848 E0.03571
G1 X121.503 Y103.525 E0.03299
G1 X121.504 Y102.955 E0.01379
G1 X121.901 Y101.533 E0.03571
G1 X122.928 Y100.557 E0.03426
G1 X123.337 Y100.770 F7200.000
G1 F1800
G1 X124.281 Y100.576 E0.02331
G1 X125.095 Y100.576 E0.01970
G1 X126.405 Y100.968 E0.03307
G1 X127.286 Y102.014 E0.03307
G1 X127.482 Y102.958 E0.02331
G1 X127.484 Y103.528 E0.01379
G1 X127.095 Y104.839 E0.03307
G1 X126.051 Y105.722 E0.03307
G1 X125.095 Y105.921 E0.02361
G1 X124.278 Y105.921 E0.01978
G1 X122.968 Y105.529 E0.03307
G1 X122.087 Y104.483 E0.03307
G1 X121.891 Y103.526 E0.02361
G1 X121.892 Y102.956 E0.01379
G1 X122.288 Y101.647 E0.03307
G1 X123.291 Y100.808 E0.03162
G1 F5760
G1 X124.281 Y100.576 E-0.35225
G1 F5760
G1 X124.354 Y100.576 E-0.02544
G1 F5760
G1 X124.354 Y100.576 E-0.00001
G1 F5760
G1 X124.678 Y100.576 E-0.11224
G1 F5760
G1 X124.678 Y100.576 E-0.00000
G1 F5760
G1 X125.022 Y100.576 E-0.11903
G1 F5760
G1 X125.022 Y100.576 E-0.00000
G1 F5760
G1 X125.095 Y100.576 E-0.02544
G1 F5760
G1 X125.443 Y100.680 E-0.12559
G1 E-0.04000 F2100.00000
G1 X124.885 Y103.323 F7200.000
G1 E0.80000 F2100.00000
G1 F720
G1 X124.489 Y103.323 E0.00959
G1 X124.489 Y103.173 E0.00363
G1 X124.885 Y103.173 E0.00957
G1 X124.885 Y103.263 E0.00218
G1 X124.492 Y103.276 F7200.000
M106 S216.75
G1 F5760
G1 X124.489 Y103.323 E-0.13885
G1 F5760
G1 X124.489 Y103.173 E-0.05195
G1 F5760
G1 X124.885 Y103.173 E-0.13706
G1 F5760
G1 X124.885 Y103.263 E-0.03117
G1 E-0.44097 F2100.00000
G1 Z0.350 F7200.000
G1 X125.207 Y103.309 F7200.000
G1 E0.80000 F2100.00000
M204 S800
G1 F1200
G1 X124.249 Y103.308 E0.03245
G1 X124.249 Y103.188 E0.00406
G1 X125.207 Y103.189 E0.03245
G1 X125.207 Y103.249 E0.00203
M204 S1000
G1 X124.808 Y103.292 F7200.000
G1 F5760
G1 X124.249 Y103.308 E-0.33268
G1 F5760
G1 X124.249 Y103.188 E-0.04156
G1 F5760
G1 X125.207 Y103.189 E-0.33200
G1 F5760
G1 X125.207 Y103.249 E-0.02078
G1 E-0.07297 F2100.00000
G1 Z0.550 F7200.000
G1 X125.430 Y103.309 F7200.000
G1 E0.80000 F2100.00000
M204 S800
G1 F1200
G1 X124.249 Y103.309 E0.03997
G1 X124.249 Y103.189 E0.00406
G1 X125.429 Y103.189 E0.03997
G1 X125.429 Y103.249 E0.00203
M204 S1000
G1 X125.030 Y103.295 F7200.000
G1 F5760
G1 X124.249 Y103.309 E-0.40949
G1 F5760
G1 X124.249 Y103.189 E-0.04156
G1 F5760
G1 X125.141 Y103.189 E-0.30894
G1 E-0.04000 F2100.00000
G1 Z0.750 F7200.000
G1 X124.862 Y103.309 F7200.000
G1 E0.80000 F2100.00000
M204 S800
G1 F1200
G1 X124.867 Y106.566 E0.11024
G1 X124.987 Y106.676 E0.00553
G1 X124.814 Y106.810 E0.00742
G1 X124.559 Y106.810 E0.00864
G1 X124.385 Y106.676 E0.00742
G1 X124.506 Y106.566 E0.00553
G1 X124.513 Y103.309 E0.11024
G1 X124.249 Y103.309 E0.00894
G1 X124.249 Y103.189 E0.00406
G1 X125.581 Y103.189 E0.04511
G1 X125.581 Y103.309 E0.00406
G1 X124.922 Y103.309 E0.02233
M204 S1000
G1 X124.462 Y103.332 F7200.000
G1 F5760
G1 X124.885 Y105.503 E-0.76000
G1 E-0.04000 F2100.00000
G1 Z0.950 F7200.000
G1 X125.073 Y103.309 F7200.000
G1 E0.80000 F2100.00000
M204 S800
G1 F1200
G1 X125.074 Y106.547 E0.10959
G1 X125.125 Y106.609 E0.00272
G1 X125.125 Y106.754 E0.00490
G1 X125.079 Y106.811 E0.00247
G1 X124.294 Y106.810 E0.02655
G1 X124.248 Y106.754 E0.00247
G1 X124.248 Y106.609 E0.00490
G1 X124.299 Y106.547 E0.00272
G1 X124.302 Y103.309 E0.10959
G1 X124.249 Y103.309 E0.00180
G1 X124.249 Y103.189 E0.00406
G1 X125.664 Y103.190 E0.04791
G1 X125.664 Y103.310 E0.00406
G1 X125.133 Y103.309 E0.01800
M204 S1000
G1 X124.673 Y103.336 F7200.000
G1 X124.687 Y103.393 F7200.000
G1 F2400
G1 X124.686 Y106.607 E0.08696
G1 F5760
G1 X124.687 Y104.413 E-0.76000
G1 E-0.04000 F2100.00000
G1 Z1.150 F7200.000
G1 X124.719 Y103.597 F7200.000
G1 E0.80000 F2100.00000
M204 S800
G1 F1200
G1 X124.718 Y104.968 E0.04641
G1 X124.661 Y104.968 E0.00194
G1 X124.665 Y103.603 E0.04619
M204 S1000
G1 X125.126 Y103.310 F7200.000
M204 S800
G1 F1200
G1 X125.125 Y106.811 E0.11851
G1 X125.099 Y106.811 E0.00089
G1 X125.097 Y105.375 E0.04861
G1 X124.276 Y105.375 E0.02781
G1 X124.274 Y106.811 E0.04861
G1 X124.248 Y106.811 E0.00087
G1 X124.259 Y103.189 E0.12257
G1 X125.721 Y103.190 E0.04946
G1 X125.721 Y103.310 E0.00406
G1 X125.186 Y103.310 E0.01810
M204 S1000
G1 X124.727 Y103.336 F7200.000
G1 F5760
G1 X125.148 Y105.504 E-0.76000
G1 E-0.04000 F2100.00000
G1 Z1.350 F7200.000
G1 X124.719 Y103.597 F7200.000
G1 E0.80000 F2100.00000
M204 S800
G1 F1200
G1 X124.718 Y104.968 E0.04641
G1 X124.658 Y104.968 E0.00205
G1 X124.663 Y103.601 E0.04626
M204 S1000
G1 X125.126 Y103.310 F7200.000
M204 S800
G1 F1200
G1 X125.125 Y105.375 E0.06991
G1 X124.249 Y105.375 E0.02966
G1 X124.257 Y103.190 E0.07397
G1 X125.747 Y103.190 E0.05041
G1 X125.747 Y103.310 E0.00406
G1 X125.186 Y103.310 E0.01899
M204 S1000
G1 X124.726 Y103.335 F7200.000
G1 F5760
G1 X125.125 Y105.375 E-0.71560
G1 F5760
G1 X124.997 Y105.375 E-0.04440
G1 E-0.04000 F2100.00000
G1 Z1.550 F7200.000
G1 X124.719 Y103.597 F7200.000
G1 E0.80000 F2100.00000
M204 S800
G1 F1200
G1 X124.718 Y104.968 E0.04641
G1 X124.657 Y104.968 E0.00206
G1 X124.662 Y103.600 E0.04630
M204 S1000
G1 X125.126 Y103.310 F7200.000
M204 S800
G1 F1200
G1 X125.125 Y105.375 E0.06991
G1 X124.249 Y105.375 E0.02966
G1 X124.256 Y103.190 E0.07397
G1 X125.731 Y103.190 E0.04993
G1 X125.731 Y103.310 E0.00406
G1 X125.186 Y103.310 E0.01846
M204 S1000
G1 X124.727 Y103.336 F7200.000
G1 F5760
G1 X125.125 Y105.375 E-0.71560
G1 F5760
G1 X124.997 Y105.375 E-0.04440
G1 E-0.04000 F2100.00000
G1 Z1.750 F7200.000
G1 X124.719 Y103.597 F7200.000
G1 E0.80000 F2100.00000
M204 S800
G1 F1200
G1 X124.718 Y106.404 E0.09502
G1 X124.656 Y106.404 E0.00210
G1 X124.661 Y103.600 E0.09494
M204 S1000
G1 X125.126 Y103.310 F7200.000
M204 S800
G1 F1200
G1 X125.125 Y106.811 E0.11851
G1 X124.248 Y106.811 E0.02968
G1 X124.255 Y103.190 E0.12257
G1 X125.698 Y103.190 E0.04884
G1 X125.697 Y103.310 E0.00406
G1 X125.186 Y103.310 E0.01732
M204 S1000
G1 X124.727 Y103.338 F7200.000
G1 F5760
G1 X125.148 Y105.504 E-0.76000
G1 E-0.04000 F2100.00000
G1 Z1.950 F7200.000
G1 X124.967 Y103.310 F7200.000
G1 E0.80000 F2100.00000
M204 S800
G1 F1200
G1 X124.963 Y106.559 E0.10996
G1 X125.078 Y106.678 E0.00561
G1 X124.939 Y106.812 E0.00653
G1 X124.434 Y106.812 E0.01709
G1 X124.295 Y106.678 E0.00653
G1 X124.410 Y106.559 E0.00561
G1 X124.407 Y103.310 E0.10996
G1 X124.250 Y103.310 E0.00529
G1 X124.251 Y103.190 E0.00406
G1 X125.615 Y103.191 E0.04614
G1 X125.615 Y103.311 E0.00406
G1 X125.027 Y103.310 E0.01987
M204 S1000
G1 X124.568 Y103.334 F7200.000
G1 X124.687 Y103.394 F7200.000
G1 F2400
G1 X124.686 Y106.608 E0.02945
G1 F5760
G1 X124.687 Y104.414 E-0.76000
G1 E-0.04000 F2100.00000
G1 Z2.150 F7200.000
G1 X125.491 Y103.311 F7200.000
G1 E0.80000 F2100.00000
M204 S800
G1 F1200
G1 X124.250 Y103.310 E0.04202
G1 X124.250 Y103.190 E0.00406
G1 X125.491 Y103.191 E0.04200
G1 X125.491 Y103.251 E0.00203
M204 S1000
G1 X125.091 Y103.298 F7200.000
G1 F5760
G1 X124.250 Y103.310 E-0.43047
G1 F5760
G1 X124.250 Y103.190 E-0.04156
G1 F5760
G1 X125.082 Y103.191 E-0.28796
G1 E-0.04000 F2100.00000
G1 Z2.350 F7200.000
G1 X125.312 Y103.311 F7200.000
G1 E0.80000 F2100.00000
M204 S800
G1 F1200
G1 X124.249 Y103.311 E0.03598
G1 X124.249 Y103.191 E0.00406
G1 X125.312 Y103.191 E0.03598
G1 X125.312 Y103.251 E0.00203
M204 S1000
G1 X124.912 Y103.296 F7200.000
G1 F5760
G1 X124.249 Y103.311 E-0.36880
G1 F5760
G1 X124.249 Y103.191 E-0.04156
G1 F5760
G1 X125.259 Y103.191 E-0.34964
G1 E-0.04000 F2100.00000
G1 Z2.550 F7200.000
G1 X125.004 Y103.311 F7200.000
G1 E0.80000 F2100.00000
M204 S800
G1 F1200
G1 X124.370 Y103.311 E0.02146
G1 X124.370 Y103.191 E0.00406
G1 X125.004 Y103.191 E0.02148
G1 X125.004 Y103.251 E0.00203
M204 S1000
G1 X124.605 Y103.286 F7200.000
M106 S255
G1 F5760
G1 X124.370 Y103.311 E-0.22057
G1 F5760
G1 X124.370 Y103.191 E-0.04156
G1 F5760
G1 X125.004 Y103.191 E-0.21976
G1 F5760
G1 X125.004 Y103.251 E-0.02078
G1 E-0.29732 F2100.00000
G1 Z2.750 F7200.000
G1 Z2.950 F7200.000
M106 S216.75
G1 Z3.150 F7200.000
G1 X125.142 Y103.309 F7200.000
G1 E0.80000 F2100.00000
M204 S800
G1 F1200
G1 X124.249 Y103.308 E0.03025
G1 X124.249 Y103.188 E0.00406
G1 X125.142 Y103.189 E0.03024
G1 X125.142 Y103.249 E0.00203
M204 S1000
G1 X124.743 Y103.291 F7200.000
G1 F5760
G1 X124.249 Y103.308 E-0.31016
G1 F5760
G1 X124.249 Y103.188 E-0.04156
G1 F5760
G1 X125.142 Y103.189 E-0.30943
G1 F5760
G1 X125.142 Y103.249 E-0.02078
G1 E-0.11806 F2100.00000
G1 Z3.350 F7200.000
G1 X125.391 Y103.309 F7200.000
G1 E0.80000 F2100.00000
M204 S800
G1 F1200
G1 X124.249 Y103.309 E0.03867
G1 X124.249 Y103.189 E0.00406
G1 X125.391 Y103.189 E0.03867
G1 X125.391 Y103.249 E0.00203
M204 S1000
G1 X124.991 Y103.295 F7200.000
G1 F5760
G1 X124.249 Y103.309 E-0.39622
G1 F5760
G1 X124.249 Y103.189 E-0.04156
G1 F5760
G1 X125.179 Y103.189 E-0.32221
G1 E-0.04000 F2100.00000
G1 Z3.550 F7200.000
G1 X124.775 Y103.309 F7200.000
G1 E0.80000 F2100.00000
M204 S800
G1 F1200
G1 X124.780 Y106.578 E0.11066
G1 X124.914 Y106.680 E0.00569
G1 X124.766 Y106.761 E0.00572
G1 X124.686 Y106.773 E0.00272
G1 X124.607 Y106.761 E0.00272
G1 X124.459 Y106.680 E0.00572
G1 X124.592 Y106.578 E0.00569
G1 X124.599 Y103.309 E0.11066
G1 X124.249 Y103.309 E0.01187
G1 X124.249 Y103.189 E0.00406
G1 X125.545 Y103.189 E0.04386
G1 X125.545 Y103.309 E0.00406
G1 X124.835 Y103.309 E0.02402
M204 S1000
G1 X124.376 Y103.330 F7200.000
G1 F5760
G1 X124.798 Y105.503 E-0.76000
G1 E-0.04000 F2100.00000
G1 Z3.750 F7200.000
G1 X125.038 Y103.309 F7200.000
G1 E0.80000 F2100.00000
M204 S800
G1 F1200
G1 X125.039 Y106.547 E0.10959
G1 X125.125 Y106.652 E0.00458
G1 X125.125 Y106.705 E0.00179
G1 X125.031 Y106.811 E0.00478
G1 X124.341 Y106.810 E0.02335
G1 X124.248 Y106.705 E0.00478
G1 X124.248 Y106.652 E0.00179
G1 X124.333 Y106.547 E0.00458
G1 X124.337 Y103.309 E0.10959
G1 X124.249 Y103.309 E0.00298
G1 X124.249 Y103.189 E0.00406
G1 X125.643 Y103.189 E0.04721
G1 X125.643 Y103.309 E0.00406
G1 X125.098 Y103.309 E0.01847
M204 S1000
G1 X124.639 Y103.335 F7200.000
G1 X124.687 Y103.393 F7200.000
G1 F2400
G1 X124.686 Y106.607 E0.06836
G1 F5760
G1 X124.687 Y104.413 E-0.76000
G1 E-0.04000 F2100.00000
G1 Z3.950 F7200.000
G1 X124.719 Y103.597 F7200.000
G1 E0.80000 F2100.00000
M204 S800
G1 F1200
G1 X124.718 Y104.968 E0.04641
G1 X124.661 Y104.968 E0.00193
G1 X124.665 Y103.603 E0.04617
M204 S1000
G1 X125.126 Y103.310 F7200.000
M204 S800
G1 F1200
G1 X125.125 Y106.811 E0.11851
G1 X125.009 Y106.811 E0.00391
G1 X125.006 Y105.375 E0.04861
G1 X124.367 Y105.375 E0.02165
G1 X124.363 Y106.811 E0.04861
G1 X124.248 Y106.811 E0.00390
G1 X124.260 Y103.189 E0.12257
G1 X125.714 Y103.190 E0.04922
G1 X125.714 Y103.310 E0.00406
G1 X125.186 Y103.310 E0.01788
M204 S1000
G1 X124.727 Y103.336 F7200.000
G1 F5760
G1 X125.148 Y105.504 E-0.76000
G1 E-0.04000 F2100.00000
G1 Z4.150 F7200.000
G1 X124.719 Y103.597 F7200.000
G1 E0.80000 F2100.00000
M204 S800
G1 F1200
G1 X124.718 Y104.968 E0.04641
G1 X124.658 Y104.968 E0.00205
G1 X124.663 Y103.601 E0.04625
M204 S1000
G1 X125.126 Y103.310 F7200.000
M204 S800
G1 F1200
G1 X125.125 Y105.375 E0.06991
G1 X124.249 Y105.375 E0.02966
G1 X124.258 Y103.190 E0.07397
G1 X125.740 Y103.190 E0.05018
G1 X125.740 Y103.310 E0.00406
G1 X125.186 Y103.310 E0.01877
M204 S1000
G1 X124.727 Y103.335 F7200.000
G1 F5760
G1 X125.125 Y105.375 E-0.71560
G1 F5760
G1 X124.997 Y105.375 E-0.04440
G1 E-0.04000 F2100.00000
G1 Z4.350 F7200.000
G1 X124.719 Y103.597 F7200.000
G1 E0.80000 F2100.00000
M204 S800
G1 F1200
G1 X124.718 Y104.968 E0.04641
G1 X124.657 Y104.968 E0.00206
G1 X124.662 Y103.600 E0.04629
M204 S1000
G1 X125.126 Y103.310 F7200.000
M204 S800
G1 F1200
G1 X125.125 Y105.375 E0.06991
G1 X124.249 Y105.375 E0.02966
G1 X124.256 Y103.190 E0.07397
G1 X125.738 Y103.190 E0.05014
G1 X125.738 Y103.310 E0.00406
G1 X125.186 Y103.310 E0.01868
M204 S1000
G1 X124.727 Y103.336 F7200.000
G1 F5760
G1 X125.125 Y105.375 E-0.71560
G1 F5760
G1 X124.997 Y105.375 E-0.04440
G1 E-0.04000 F2100.00000
G1 Z4.550 F7200.000
G1 X124.719 Y103.597 F7200.000
G1 E0.80000 F2100.00000
M204 S800
G1 F1200
G1 X124.718 Y106.404 E0.09502
G1 X124.656 Y106.404 E0.00210
G1 X124.661 Y103.600 E0.09492
M204 S1000
G1 X125.126 Y103.310 F7200.000
M204 S800
G1 F1200
G1 X125.125 Y106.811 E0.11851
