; generated by Slic3r 1.3.0-dev on 2016-08-21 at 20:21:04

; external perimeters extrusion width = 0.45mm
; perimeters extrusion width = 0.45mm
; infill extrusion width = 0.45mm
; solid infill extrusion width = 0.45mm
; top infill extrusion width = 0.40mm

M107
M83  ; extruder relative mode
M104 S210 ; set extruder temp
M140 S55 ; set bed temp
M190 S55 ; wait for bed temp
M109 S210 ; wait for extruder temp
G28 W ; home all without mesh bed level
G80 ; mesh bed leveling
G1 Y-3.0 F1000.0 ; go outside pritn area
G1 X60.0 E9.0  F1000.0 ; intro line
G1 X100.0 E12.5  F1000.0 ; intro line
G21 ; set units to millimeters
G90 ; use absolute coordinates
M83 ; use relative distances for extrusion
G1 E-0.80000 F2100.00000
G1 Z0.150 F7200.000
G1 X118.713 Y95.870 F7200.000
G1 E0.80000 F2100.00000
M204 S1000
G1 F1800
G1 X119.214 Y95.355 E0.01737
G1 X119.806 Y94.948 E0.01736
G1 X120.465 Y94.665 E0.01736
G1 X121.167 Y94.515 E0.01736
G1 X121.575 Y94.491 E0.00988
G1 X128.425 Y94.491 E0.16569
G1 X128.834 Y94.516 E0.00989
G1 X129.441 Y94.636 E0.01498
G1 X130.195 Y94.948 E0.01972
G1 X130.786 Y95.355 E0.01735
G1 X131.224 Y95.794 E0.01500
G1 X131.631 Y96.385 E0.01736
G1 X131.943 Y97.138 E0.01971
G1 X132.064 Y97.745 E0.01497
G1 X132.089 Y98.154 E0.00991
G1 X132.089 Y111.846 E0.33114
G1 X132.074 Y112.156 E0.00751
G1 X131.943 Y112.861 E0.01735
G1 X131.631 Y113.615 E0.01973
G1 X131.224 Y114.206 E0.01736
G1 X130.786 Y114.645 E0.01500
G1 X130.195 Y115.052 E0.01736
G1 X129.441 Y115.364 E0.01972
G1 X128.833 Y115.485 E0.01500
G1 X128.425 Y115.509 E0.00988
G1 X121.575 Y115.509 E0.16569
G1 X121.167 Y115.485 E0.00988
G1 X120.465 Y115.335 E0.01736
G1 X119.892 Y115.098 E0.01500
G1 X119.290 Y114.707 E0.01736
G1 X118.776 Y114.206 E0.01736
G1 X118.369 Y113.615 E0.01736
G1 X118.057 Y112.862 E0.01972
G1 X117.936 Y112.253 E0.01500
G1 X117.911 Y111.846 E0.00987
G1 X117.911 Y98.154 E0.33114
G1 X117.936 Y97.747 E0.00987
G1 X118.085 Y97.044 E0.01736
G1 X118.322 Y96.472 E0.01498
G1 X118.680 Y95.920 E0.01591
G1 X119.013 Y96.116 F7200.000
G1 F1800
G1 X119.460 Y95.655 E0.01553
G1 X119.988 Y95.290 E0.01552
G1 X120.577 Y95.036 E0.01552
G1 X121.205 Y94.901 E0.01552
G1 X121.575 Y94.878 E0.00896
G1 X128.425 Y94.878 E0.16569
G1 X128.796 Y94.901 E0.00897
G1 X129.329 Y95.008 E0.01315
G1 X130.012 Y95.291 E0.01788
G1 X130.540 Y95.655 E0.01552
G1 X130.925 Y96.040 E0.01316
G1 X131.289 Y96.568 E0.01552
G1 X131.572 Y97.251 E0.01788
G1 X131.678 Y97.783 E0.01313
G1 X131.701 Y98.154 E0.00898
G1 X131.701 Y111.846 E0.33114
G1 X131.688 Y112.118 E0.00659
G1 X131.572 Y112.749 E0.01551
G1 X131.289 Y113.432 E0.01789
G1 X130.925 Y113.960 E0.01552
G1 X130.540 Y114.345 E0.01316
G1 X130.012 Y114.710 E0.01552
G1 X129.329 Y114.992 E0.01788
G1 X128.795 Y115.099 E0.01316
G1 X128.425 Y115.122 E0.00896
G1 X121.575 Y115.122 E0.16569
G1 X121.205 Y115.099 E0.00896
G1 X120.577 Y114.964 E0.01552
G1 X120.075 Y114.756 E0.01316
G1 X119.536 Y114.407 E0.01552
G1 X119.075 Y113.960 E0.01552
G1 X118.711 Y113.432 E0.01552
G1 X118.428 Y112.749 E0.01788
G1 X118.322 Y112.215 E0.01316
G1 X118.299 Y111.846 E0.00895
G1 X118.299 Y98.154 E0.33114
G1 X118.322 Y97.785 E0.00895
G1 X118.456 Y97.157 E0.01552
G1 X118.664 Y96.655 E0.01315
G1 X118.980 Y96.166 E0.01407
G1 X119.313 Y96.362 F7200.000
G1 F1800
G1 X119.706 Y95.955 E0.01369
G1 X120.171 Y95.632 E0.01368
G1 X120.690 Y95.407 E0.01368
G1 X121.243 Y95.287 E0.01368
G1 X121.575 Y95.266 E0.00804
G1 X128.425 Y95.266 E0.16569
G1 X128.758 Y95.287 E0.00805
G1 X129.216 Y95.379 E0.01131
G1 X129.829 Y95.633 E0.01604
G1 X130.294 Y95.955 E0.01368
G1 X130.625 Y96.286 E0.01132
G1 X130.947 Y96.751 E0.01368
G1 X131.201 Y97.363 E0.01604
G1 X131.292 Y97.821 E0.01130
G1 X131.313 Y98.154 E0.00806
G1 X131.302 Y112.080 E0.33680
G1 X131.200 Y112.640 E0.01376
G1 X130.947 Y113.249 E0.01596
G1 X130.625 Y113.714 E0.01368
G1 X130.294 Y114.045 E0.01132
G1 X129.829 Y114.368 E0.01368
G1 X129.216 Y114.621 E0.01604
G1 X128.757 Y114.713 E0.01132
G1 X128.425 Y114.734 E0.00804
G1 X121.575 Y114.734 E0.16569
G1 X121.243 Y114.713 E0.00804
G1 X120.784 Y114.621 E0.01132
G1 X120.258 Y114.414 E0.01368
G1 X119.782 Y114.107 E0.01368
G1 X119.375 Y113.714 E0.01368
G1 X119.053 Y113.249 E0.01368
G1 X118.799 Y112.637 E0.01604
G1 X118.708 Y112.177 E0.01132
G1 X118.687 Y111.846 E0.00803
G1 X118.687 Y98.154 E0.33114
G1 X118.708 Y97.823 E0.00803
G1 X118.828 Y97.270 E0.01368
G1 X119.007 Y96.838 E0.01131
G1 X119.279 Y96.412 E0.01223
G1 F5760
G1 X119.315 Y96.359 E-0.02204
G1 F5760
G1 X119.315 Y96.359 E-0.00013
G1 F5760
G1 X119.375 Y96.286 E-0.03268
G1 F5760
G1 X119.706 Y95.955 E-0.16212
G1 F5760
G1 X119.782 Y95.893 E-0.03395
G1 F5760
G1 X120.171 Y95.632 E-0.16213
G1 F5760
G1 X120.254 Y95.588 E-0.03268
G1 F5760
G1 X120.254 Y95.588 E-0.00000
G1 F5760
G1 X120.258 Y95.586 E-0.00126
G1 F5760
G1 X120.690 Y95.407 E-0.16210
G1 F5760
G1 X120.780 Y95.380 E-0.03269
G1 F5760
G1 X120.781 Y95.380 E-0.00020
G1 F5760
G1 X120.784 Y95.379 E-0.00126
G1 F5760
G1 X121.115 Y95.313 E-0.11674
G1 E-0.04000 F2100.00000
G1 X127.635 Y105.628 F7200.000
G1 E0.80000 F2100.00000
G1 F720
G1 X127.635 Y110.747 E0.12381
G1 X127.013 Y111.379 E0.02145
G1 X122.987 Y111.379 E0.09738
G1 X122.365 Y110.747 E0.02145
G1 X122.365 Y105.628 E0.12381
G1 X127.575 Y105.628 E0.12602
G1 X128.022 Y105.526 F7200.000
G1 F5760
G1 X127.601 Y107.822 E-0.76000
G1 E-0.04000 F2100.00000
G1 X127.635 Y104.372 F7200.000
G1 E0.80000 F2100.00000
G1 F720
G1 X122.365 Y104.372 E0.12747
G1 X122.365 Y99.253 E0.12381
G1 X122.987 Y98.621 E0.02145
G1 X127.013 Y98.621 E0.09738
G1 X127.635 Y99.253 E0.02145
G1 X127.635 Y104.312 E0.12236
G1 X127.650 Y104.772 F7200.000
G1 X128.023 Y104.760 F7200.000
G1 F1440
G1 X128.023 Y99.094 E0.13703
G1 X127.201 Y98.259 E0.02833
G1 X128.328 Y98.261 E0.02724
G1 X128.328 Y111.748 E0.32619
G1 X127.194 Y111.748 E0.02742
G1 X128.023 Y110.906 E0.02859
G1 X128.023 Y105.240 E0.13703
G1 X121.977 Y105.240 E0.14623
G1 X121.977 Y110.906 E0.13703
G1 X122.806 Y111.748 E0.02859
G1 X121.672 Y111.748 E0.02742
G1 X121.672 Y98.252 E0.32640
G1 X122.805 Y98.254 E0.02738
G1 X121.977 Y99.094 E0.02853
G1 X121.977 Y104.760 E0.13703
G1 X127.963 Y104.760 E0.14478
G1 F5760
G1 X127.986 Y102.566 E-0.76000
G1 E-0.04000 F2100.00000
G1 X128.690 Y111.955 F7200.000
G1 E0.80000 F2100.00000
G1 F1080
G1 X128.586 Y112.086 E0.00404
G1 X128.405 Y112.136 E0.00455
G1 X121.595 Y112.136 E0.16469
G1 X121.455 Y112.108 E0.00346
G1 X121.337 Y112.005 E0.00379
G1 X121.285 Y111.836 E0.00428
G1 X121.285 Y98.175 E0.33039
G1 X121.312 Y98.035 E0.00345
G1 X121.416 Y97.916 E0.00381
G1 X121.585 Y97.864 E0.00430
G1 X128.489 Y97.873 E0.16696
G1 X128.628 Y97.952 E0.00386
G1 X128.690 Y98.045 E0.00270
G1 X128.715 Y98.175 E0.00321
G1 X128.715 Y111.825 E0.33014
G1 X128.701 Y111.896 E0.00176
G1 X128.568 Y111.971 F7200.000
G1 X128.089 Y111.492 F7200.000
G1 F1440
G1 X127.916 Y111.319 E0.00593
G1 F5760
G1 X128.089 Y111.492 E-0.08486
G1 E-0.71514 F2100.00000
G1 X126.913 Y111.757 F7200.000
G1 E0.80000 F2100.00000
G1 F1440
G1 X123.087 Y111.757 E0.08041
G1 F5760
G1 X125.282 Y111.757 E-0.76000
G1 E-0.04000 F2100.00000
G1 X122.101 Y111.501 F7200.000
G1 E0.80000 F2100.00000
G1 F1440
G1 X121.920 Y111.319 E0.00622
G1 F5760
G1 X122.101 Y111.501 E-0.08906
G1 E-0.71094 F2100.00000
G1 X121.866 Y105.000 F7200.000
G1 E0.80000 F2100.00000
G1 F1440
G1 X128.134 Y105.000 E0.02328
G1 F5760
G1 X125.939 Y105.000 E-0.76000
G1 E-0.04000 F2100.00000
G1 X128.085 Y98.677 F7200.000
G1 E0.80000 F2100.00000
G1 F1440
G1 X127.911 Y98.503 E0.00593
G1 F5760
G1 X128.085 Y98.677 E-0.08491
G1 E-0.71509 F2100.00000
G1 X126.916 Y98.246 F7200.000
G1 E0.80000 F2100.00000
G1 F1440
G1 X123.086 Y98.244 E0.07995
G1 F5760
G1 X125.281 Y98.245 E-0.76000
G1 E-0.04000 F2100.00000
G1 X122.101 Y98.664 F7200.000
G1 E0.80000 F2100.00000
G1 F1440
G1 X121.928 Y98.492 E0.00592
M106 S216.75
G1 F5760
G1 X122.101 Y98.664 E-0.08472
G1 E-0.71528 F2100.00000
G1 Z0.350 F7200.000
G1 X127.650 Y105.613 F7200.000
G1 E0.80000 F2100.00000
M204 S800
G1 F1200
G1 X127.650 Y110.722 E0.17294
G1 X127.019 Y111.363 E0.03044
G1 X122.981 Y111.363 E0.13671
G1 X122.350 Y110.722 E0.03044
G1 X122.350 Y105.613 E0.17294
G1 X127.590 Y105.613 E0.17739
M204 S1000
G1 X128.037 Y105.511 F7200.000
G1 F5760
G1 X127.616 Y107.807 E-0.76000
G1 E-0.04000 F2100.00000
G1 X127.650 Y104.387 F7200.000
G1 E0.80000 F2100.00000
M204 S800
G1 F1200
G1 X122.350 Y104.387 E0.17942
G1 X122.350 Y99.278 E0.17294
G1 X122.981 Y98.637 E0.03044
G1 X127.019 Y98.637 E0.13671
G1 X127.650 Y99.278 E0.03044
G1 X127.650 Y104.327 E0.17091
M204 S1000
G1 X127.665 Y104.787 F7200.000
G1 X128.057 Y104.794 F7200.000
M204 S800
G1 F2400
G1 X128.057 Y99.111 E0.19237
G1 X127.252 Y98.293 E0.03887
G1 X128.293 Y98.294 E0.03526
G1 X128.293 Y111.714 E0.45424
G1 X127.245 Y111.714 E0.03549
G1 X128.057 Y110.889 E0.03920
G1 X128.057 Y105.206 E0.19237
G1 X121.943 Y105.206 E0.20698
G1 X121.943 Y110.889 E0.19237
G1 X122.755 Y111.714 E0.03920
G1 X121.707 Y111.714 E0.03549
G1 X121.707 Y98.286 E0.45451
G1 X122.754 Y98.288 E0.03544
G1 X121.943 Y99.111 E0.03913
G1 X121.943 Y104.794 E0.19237
G1 X127.997 Y104.794 E0.20495
M204 S1000
G1 F5760
G1 X128.021 Y102.600 E-0.76000
G1 E-0.04000 F2100.00000
G1 X128.675 Y111.949 F7200.000
G1 E0.80000 F2100.00000
M204 S800
G1 F1800
G1 X128.578 Y112.074 E0.00535
G1 X128.403 Y112.121 E0.00611
G1 X121.597 Y112.121 E0.23040
G1 X121.460 Y112.094 E0.00472
G1 X121.350 Y111.996 E0.00498
G1 X121.300 Y111.835 E0.00572
G1 X121.300 Y98.176 E0.46233
G1 X121.326 Y98.042 E0.00464
G1 X121.424 Y97.929 E0.00506
G1 X121.588 Y97.879 E0.00580
G1 X128.480 Y97.887 E0.23329
G1 X128.617 Y97.963 E0.00529
G1 X128.675 Y98.051 E0.00357
G1 X128.700 Y98.176 E0.00434
G1 X128.700 Y111.824 E0.46195
G1 X128.687 Y111.891 E0.00231
M204 S1000
G1 X128.560 Y111.965 F7200.000
G1 F5760
G1 X128.611 Y112.047 E-0.06024
G1 F5760
G1 X128.578 Y112.074 E-0.01471
G1 F5760
G1 X128.540 Y112.094 E-0.01471
G1 F5760
G1 X128.403 Y112.121 E-0.04833
G1 F5760
G1 X126.607 Y112.121 E-0.62200
G1 E-0.04000 F2100.00000
G1 X126.932 Y111.742 F7200.000
G1 E0.80000 F2100.00000
G1 F2400
G1 X123.068 Y111.742 E0.09903
G1 F5760
G1 X125.262 Y111.742 E-0.76000
G1 E-0.04000 F2100.00000
G1 X123.067 Y98.259 F7200.000
G1 E0.80000 F2100.00000
G1 F2400
G1 X126.935 Y98.261 E0.09846
G1 F5760
G1 X124.741 Y98.260 E-0.76000
G1 E-0.04000 F2100.00000
G1 Z0.550 F7200.000
G1 X127.650 Y105.613 F7200.000
G1 E0.80000 F2100.00000
M204 S800
G1 F1200
G1 X127.650 Y110.686 E0.17174
G1 X127.019 Y111.327 E0.03044
G1 X122.981 Y111.327 E0.13671
G1 X122.350 Y110.686 E0.03044
G1 X122.350 Y105.613 E0.17174
G1 X127.590 Y105.613 E0.17739
M204 S1000
G1 X128.037 Y105.512 F7200.000
G1 F5760
G1 X127.616 Y107.807 E-0.76000
G1 E-0.04000 F2100.00000
G1 X127.650 Y104.387 F7200.000
G1 E0.80000 F2100.00000
M204 S800
G1 F1200
G1 X122.350 Y104.387 E0.17942
G1 X122.350 Y99.314 E0.17174
G1 X122.981 Y98.673 E0.03044
G1 X127.019 Y98.673 E0.13671
G1 X127.650 Y99.314 E0.03044
G1 X127.650 Y104.327 E0.16971
M204 S1000
G1 X127.665 Y104.787 F7200.000
G1 X128.057 Y104.794 F7200.000
M204 S800
G1 F2400
G1 X128.057 Y99.147 E0.19116
G1 X127.216 Y98.292 E0.04060
G1 X128.293 Y98.293 E0.03647
G1 X128.293 Y111.714 E0.45427
G1 X127.210 Y111.714 E0.03667
G1 X128.057 Y110.853 E0.04089
G1 X128.057 Y105.206 E0.19116
G1 X121.943 Y105.206 E0.20698
G1 X121.943 Y110.853 E0.19116
G1 X122.790 Y111.714 E0.04089
G1 X121.707 Y111.714 E0.03667
G1 X121.707 Y98.286 E0.45451
G1 X122.789 Y98.287 E0.03663
G1 X121.943 Y99.147 E0.04082
G1 X121.943 Y104.794 E0.19116
G1 X127.997 Y104.794 E0.20495
M204 S1000
G1 F5760
G1 X128.021 Y102.600 E-0.76000
G1 E-0.04000 F2100.00000
G1 X128.673 Y111.961 F7200.000
G1 E0.80000 F2100.00000
M204 S800
G1 F1800
G1 X128.568 Y112.079 E0.00537
G1 X128.403 Y112.121 E0.00574
G1 X121.597 Y112.121 E0.23040
G1 X121.460 Y112.094 E0.00472
G1 X121.350 Y111.996 E0.00498
G1 X121.300 Y111.835 E0.00572
G1 X121.300 Y98.176 E0.46233
G1 X121.325 Y98.051 E0.00434
G1 X121.389 Y97.953 E0.00396
G1 X121.460 Y97.906 E0.00286
G1 X121.597 Y97.879 E0.00472
G1 X128.472 Y97.887 E0.23272
G1 X128.617 Y97.963 E0.00554
G1 X128.675 Y98.051 E0.00357
G1 X128.700 Y98.176 E0.00434
G1 X128.700 Y111.824 E0.46195
G1 X128.685 Y111.902 E0.00269
M204 S1000
G1 X128.643 Y111.967 F7200.000
G1 F5760
G1 X128.659 Y111.988 E-0.03130
G1 F5760
G1 X128.568 Y112.079 E-0.04445
G1 F5760
G1 X128.540 Y112.094 E-0.01083
G1 F5760
G1 X128.403 Y112.121 E-0.04834
G1 F5760
G1 X126.599 Y112.121 E-0.62508
G1 E-0.04000 F2100.00000
G1 X126.914 Y111.724 F7200.000
G1 E0.80000 F2100.00000
G1 F2400
G1 X123.086 Y111.724 E0.10947
G1 F5760
G1 X125.280 Y111.724 E-0.76000
G1 E-0.04000 F2100.00000
G1 X123.085 Y98.277 F7200.000
G1 E0.80000 F2100.00000
G1 F2400
G1 X126.917 Y98.279 E0.10896
G1 F5760
G1 X124.723 Y98.278 E-0.76000
G1 E-0.04000 F2100.00000
G1 Z0.750 F7200.000
G1 X128.057 Y105.206 F7200.000
G1 E0.80000 F2100.00000
M204 S800
G1 F1200
G1 X128.057 Y110.817 E0.18996
G1 X127.190 Y111.699 E0.04185
G1 X122.810 Y111.699 E0.14825
G1 X121.943 Y110.817 E0.04185
G1 X121.943 Y105.206 E0.18996
G1 X127.997 Y105.206 E0.20495
M204 S1000
G1 X127.650 Y105.613 F7200.000
M204 S800
G1 F1200
G1 X127.650 Y110.651 E0.17053
G1 X127.019 Y111.291 E0.03044
G1 X122.981 Y111.291 E0.13671
G1 X122.350 Y110.651 E0.03044
G1 X122.350 Y105.613 E0.17053
G1 X127.590 Y105.613 E0.17739
M204 S1000
G1 X128.038 Y105.512 F7200.000
G1 X128.057 Y104.794 F7200.000
M204 S800
G1 F1200
G1 X121.943 Y104.794 E0.20698
G1 X121.943 Y99.183 E0.18996
G1 X122.810 Y98.301 E0.04185
G1 X127.190 Y98.301 E0.14825
G1 X128.057 Y99.183 E0.04185
G1 X128.057 Y104.734 E0.18793
M204 S1000
G1 X127.650 Y104.387 F7200.000
M204 S800
G1 F1200
G1 X122.350 Y104.387 E0.17942
G1 X122.350 Y99.349 E0.17053
G1 X122.981 Y98.709 E0.03044
G1 X127.019 Y98.709 E0.13671
G1 X127.650 Y99.349 E0.03044
G1 X127.650 Y104.327 E0.16850
M204 S1000
G1 X127.665 Y104.787 F7200.000
G1 F5760
G1 X125.456 Y104.352 E-0.76000
G1 E-0.04000 F2100.00000
G1 X128.293 Y98.292 F7200.000
G1 E0.80000 F2100.00000
M204 S800
G1 F1200
G1 X128.293 Y111.714 E0.45430
G1 X121.707 Y111.714 E0.22296
G1 X121.707 Y98.286 E0.45451
G1 X128.233 Y98.292 E0.22093
M204 S1000
G1 F5760
G1 X128.243 Y100.487 E-0.76000
G1 E-0.04000 F2100.00000
G1 X121.326 Y98.045 F7200.000
G1 E0.80000 F2100.00000
M204 S800
G1 F1800
G1 X121.422 Y97.930 E0.00508
G1 X121.585 Y97.879 E0.00579
G1 X128.464 Y97.886 E0.23282
G1 X128.524 Y97.901 E0.00211
G1 X128.617 Y97.963 E0.00377
G1 X128.675 Y98.051 E0.00357
G1 X128.700 Y98.176 E0.00434
G1 X128.700 Y111.824 E0.46195
G1 X128.675 Y111.949 E0.00434
G1 X128.585 Y112.068 E0.00505
G1 X128.409 Y112.121 E0.00621
G1 X121.597 Y112.121 E0.23059
G1 X121.460 Y112.094 E0.00472
G1 X121.345 Y111.992 E0.00518
G1 X121.300 Y111.826 E0.00584
G1 X121.300 Y98.176 E0.46203
G1 X121.314 Y98.104 E0.00251
M204 S1000
G1 X121.385 Y98.035 F7200.000
G1 F5760
G1 X121.357 Y97.993 E-0.04106
G1 F5760
G1 X121.422 Y97.930 E-0.03151
G1 F5760
G1 X121.532 Y97.884 E-0.04128
G1 F5760
G1 X121.585 Y97.879 E-0.01852
G1 F5760
G1 X123.398 Y97.881 E-0.62764
G1 E-0.04000 F2100.00000
G1 Z0.950 F7200.000
G1 X121.943 Y105.206 F7200.000
G1 E0.80000 F2100.00000
M204 S800
G1 F1200
G1 X128.057 Y105.206 E0.20698
G1 X128.057 Y110.782 E0.18875
G1 X127.190 Y111.663 E0.04185
G1 X122.810 Y111.663 E0.14825
G1 X121.943 Y110.782 E0.04185
G1 X121.943 Y105.266 E0.18672
M204 S1000
G1 X122.350 Y105.613 F7200.000
M204 S800
G1 F1200
G1 X127.650 Y105.613 E0.17942
G1 X127.650 Y110.615 E0.16933
G1 X127.019 Y111.256 E0.03044
G1 X122.981 Y111.256 E0.13671
G1 X122.350 Y110.615 E0.03044
G1 X122.350 Y105.673 E0.16730
M204 S1000
G1 X122.335 Y105.213 F7200.000
G1 X121.943 Y104.794 F7200.000
M204 S800
G1 F1200
G1 X121.943 Y99.218 E0.18875
G1 X122.810 Y98.337 E0.04185
G1 X127.190 Y98.337 E0.14825
G1 X128.057 Y99.218 E0.04185
G1 X128.057 Y104.794 E0.18875
G1 X122.003 Y104.794 E0.20495
M204 S1000
G1 X122.350 Y104.387 F7200.000
M204 S800
G1 F1200
G1 X122.350 Y99.385 E0.16933
G1 X122.981 Y98.744 E0.03044
G1 X127.019 Y98.744 E0.13671
G1 X127.650 Y99.385 E0.03044
G1 X127.650 Y104.387 E0.16933
G1 X122.410 Y104.387 E0.17739
M204 S1000
G1 X121.962 Y104.487 F7200.000
G1 F5760
G1 X122.383 Y102.193 E-0.76000
