; generated by Slic3r 1.3.0-dev on 2016-08-21 at 19:13:25

; external perimeters extrusion width = 0.45mm
; perimeters extrusion width = 0.45mm
; infill extrusion width = 0.45mm
; solid infill extrusion width = 0.45mm
; top infill extrusion width = 0.40mm
; support material extrusion width = 0.35mm

M107
M83  ; extruder relative mode
M104 S210 ; set extruder temp
M140 S55 ; set bed temp
M190 S55 ; wait for bed temp
M109 S210 ; wait for extruder temp
G28 W ; home all without mesh bed level
G80 ; mesh bed leveling
G1 Y-3.0 F1000.0 ; go outside pritn area
G1 X60.0 E9.0  F1000.0 ; intro line
G1 X100.0 E12.5  F1000.0 ; intro line
G21 ; set units to millimeters
G90 ; use absolute coordinates
M83 ; use relative distances for extrusion
G1 E-0.80000 F2100.00000
G1 Z0.150 F7200.000
G1 X118.708 Y99.066 F7200.000
G1 E0.80000 F2100.00000
M204 S1000
G1 F1800
G1 X120.144 Y97.561 E0.05030
G1 X121.351 Y96.883 E0.03350
G1 X122.111 Y96.565 E0.01991
G1 X123.124 Y96.274 E0.02550
G1 X123.775 Y96.152 E0.01601
G1 X124.685 Y96.067 E0.02210
G1 X125.269 Y96.061 E0.01414
G1 X126.107 Y96.122 E0.02030
G1 X126.647 Y96.203 E0.01321
G1 X127.425 Y96.382 E0.01931
G1 X128.007 Y96.569 E0.01478
G1 X128.723 Y96.871 E0.01880
G1 X129.725 Y97.396 E0.02735
G1 X130.242 Y97.739 E0.01502
G1 X130.862 Y98.234 E0.01918
G1 X131.256 Y98.601 E0.01303
G1 X131.819 Y99.210 E0.02005
G1 X132.172 Y99.661 E0.01385
G1 X132.665 Y100.407 E0.02164
G1 X132.971 Y100.976 E0.01562
G1 X133.369 Y101.913 E0.02461
G1 X133.592 Y102.652 E0.01867
G1 X133.827 Y103.914 E0.03105
G1 X133.511 Y106.155 E0.05475
G1 X131.019 Y111.126 E0.13446
G1 X129.413 Y112.721 E0.05475
G1 X128.261 Y113.287 E0.03105
G1 X127.537 Y113.551 E0.01864
G1 X126.548 Y113.793 E0.02462
G1 X125.916 Y113.888 E0.01546
G1 X125.021 Y113.942 E0.02167
G1 X124.437 Y113.928 E0.01414
G1 X123.613 Y113.841 E0.02004
G1 X123.076 Y113.743 E0.01319
G1 X122.311 Y113.540 E0.01916
G1 X121.816 Y113.369 E0.01266
G1 X121.102 Y113.062 E0.01879
G1 X120.643 Y112.823 E0.01251
G1 X119.980 Y112.415 E0.01883
G1 X119.554 Y112.106 E0.01274
G1 X118.944 Y111.592 E0.01929
G1 X118.550 Y111.204 E0.01337
G1 X118.000 Y110.570 E0.02030
G1 X117.649 Y110.088 E0.01441
G1 X117.174 Y109.306 E0.02214
G1 X116.887 Y108.718 E0.01582
G1 X116.513 Y107.732 E0.02550
G1 X116.315 Y106.948 E0.01955
G1 X116.132 Y105.583 E0.03331
G1 X116.476 Y103.519 E0.05062
G1 X118.681 Y99.119 E0.11901
G1 X119.055 Y99.240 F7200.000
G1 F1800
G1 X120.334 Y97.899 E0.04481
G1 X121.541 Y97.221 E0.03350
G1 X122.218 Y96.938 E0.01774
G1 X123.231 Y96.647 E0.02550
G1 X123.811 Y96.538 E0.01426
G1 X124.721 Y96.453 E0.02210
G1 X125.241 Y96.448 E0.01259
G1 X126.079 Y96.508 E0.02030
G1 X126.560 Y96.581 E0.01177
G1 X127.338 Y96.760 E0.01931
G1 X127.856 Y96.927 E0.01317
G1 X128.858 Y97.366 E0.02645
G1 X129.539 Y97.737 E0.01877
G1 X130.000 Y98.042 E0.01338
G1 X130.620 Y98.537 E0.01918
G1 X130.971 Y98.864 E0.01160
G1 X131.534 Y99.473 E0.02005
G1 X131.848 Y99.875 E0.01234
G1 X132.342 Y100.621 E0.02164
G1 X132.614 Y101.128 E0.01391
G1 X133.012 Y102.065 E0.02461
G1 X133.211 Y102.723 E0.01663
G1 X133.446 Y103.985 E0.03105
G1 X133.164 Y105.981 E0.04877
G1 X130.673 Y110.952 E0.13446
G1 X129.242 Y112.373 E0.04877
G1 X128.090 Y112.940 E0.03105
G1 X127.445 Y113.174 E0.01660
G1 X126.456 Y113.416 E0.02462
G1 X125.893 Y113.501 E0.01377
G1 X124.998 Y113.555 E0.02167
G1 X124.478 Y113.543 E0.01260
G1 X123.654 Y113.456 E0.02004
G1 X123.176 Y113.368 E0.01175
G1 X122.410 Y113.165 E0.01916
G1 X121.969 Y113.013 E0.01127
G1 X121.256 Y112.706 E0.01879
G1 X120.847 Y112.493 E0.01114
G1 X120.184 Y112.085 E0.01883
G1 X119.804 Y111.810 E0.01135
G1 X119.194 Y111.295 E0.01929
G1 X118.843 Y110.950 E0.01191
G1 X118.293 Y110.315 E0.02030
G1 X117.981 Y109.887 E0.01284
G1 X117.505 Y109.104 E0.02214
G1 X117.249 Y108.581 E0.01409
G1 X116.876 Y107.595 E0.02550
G1 X116.699 Y106.896 E0.01742
G1 X116.516 Y105.531 E0.03331
G1 X116.823 Y103.692 E0.04509
G1 X119.028 Y99.293 E0.11901
G1 X119.401 Y99.413 F7200.000
G1 F1800
G1 X120.524 Y98.237 E0.03932
G1 X121.731 Y97.559 E0.03350
G1 X122.325 Y97.311 E0.01556
G1 X123.338 Y97.020 E0.02550
G1 X123.847 Y96.924 E0.01251
G1 X124.757 Y96.840 E0.02210
G1 X125.214 Y96.835 E0.01105
G1 X126.051 Y96.895 E0.02030
G1 X126.473 Y96.959 E0.01033
G1 X127.251 Y97.138 E0.01931
G1 X127.706 Y97.284 E0.01156
G1 X128.672 Y97.706 E0.02551
G1 X129.354 Y98.077 E0.01877
G1 X129.758 Y98.346 E0.01174
G1 X130.378 Y98.840 E0.01918
G1 X130.686 Y99.127 E0.01018
G1 X131.249 Y99.736 E0.02005
G1 X131.525 Y100.088 E0.01083
G1 X132.018 Y100.835 E0.02164
G1 X132.257 Y101.280 E0.01221
G1 X132.655 Y102.216 E0.02461
G1 X132.829 Y102.794 E0.01459
G1 X133.064 Y104.056 E0.03105
G1 X132.817 Y105.808 E0.04279
G1 X130.326 Y110.778 E0.13446
G1 X129.070 Y112.025 E0.04279
G1 X127.919 Y112.592 E0.03105
G1 X127.353 Y112.797 E0.01457
G1 X126.364 Y113.039 E0.02462
G1 X125.870 Y113.114 E0.01209
G1 X124.975 Y113.167 E0.02167
G1 X124.518 Y113.157 E0.01105
G1 X123.694 Y113.070 E0.02004
G1 X123.275 Y112.993 E0.01031
G1 X122.509 Y112.790 E0.01916
G1 X122.123 Y112.656 E0.00989
G1 X121.409 Y112.349 E0.01879
G1 X121.050 Y112.163 E0.00977
G1 X120.387 Y111.755 E0.01883
G1 X120.054 Y111.513 E0.00996
G1 X119.444 Y110.999 E0.01929
G1 X119.136 Y110.695 E0.01045
G1 X118.586 Y110.061 E0.02030
G1 X118.312 Y109.685 E0.01127
G1 X117.836 Y108.903 E0.02214
G1 X117.612 Y108.443 E0.01237
G1 X117.239 Y107.457 E0.02550
G1 X117.084 Y106.845 E0.01528
G1 X116.900 Y105.480 E0.03331
G1 X117.170 Y103.866 E0.03956
G1 X119.375 Y99.467 E0.11901
G1 X119.748 Y99.587 F7200.000
G1 F1800
G1 X120.713 Y98.575 E0.03382
G1 X121.921 Y97.897 E0.03350
G1 X122.432 Y97.684 E0.01339
G1 X123.445 Y97.393 E0.02550
G1 X123.882 Y97.310 E0.01076
G1 X124.793 Y97.226 E0.02210
G1 X125.186 Y97.222 E0.00951
G1 X126.023 Y97.282 E0.02030
G1 X126.386 Y97.337 E0.00888
G1 X127.164 Y97.516 E0.01931
G1 X127.555 Y97.642 E0.00994
G1 X128.487 Y98.047 E0.02457
G1 X129.169 Y98.418 E0.01877
G1 X129.516 Y98.649 E0.01010
G1 X130.136 Y99.143 E0.01918
G1 X130.401 Y99.390 E0.00876
G1 X130.964 Y99.999 E0.02005
G1 X131.201 Y100.302 E0.00931
G1 X131.695 Y101.049 E0.02164
G1 X131.900 Y101.431 E0.01050
G1 X132.298 Y102.368 E0.02461
G1 X132.448 Y102.865 E0.01255
G1 X132.683 Y104.127 E0.03105
G1 X132.470 Y105.634 E0.03681
G1 X129.979 Y110.604 E0.13446
G1 X128.899 Y111.677 E0.03681
G1 X127.747 Y112.244 E0.03105
G1 X127.260 Y112.421 E0.01253
G1 X126.272 Y112.663 E0.02462
G1 X125.846 Y112.727 E0.01040
G1 X124.952 Y112.780 E0.02167
G1 X124.559 Y112.771 E0.00951
G1 X123.735 Y112.684 E0.02004
G1 X123.374 Y112.618 E0.00887
G1 X122.608 Y112.415 E0.01916
G1 X122.276 Y112.300 E0.00851
G1 X121.562 Y111.993 E0.01879
G1 X121.254 Y111.833 E0.00841
G1 X120.591 Y111.424 E0.01883
G1 X120.304 Y111.217 E0.00857
G1 X119.694 Y110.702 E0.01929
G1 X119.429 Y110.441 E0.00899
G1 X118.879 Y109.807 E0.02030
G1 X118.643 Y109.484 E0.00969
G1 X118.168 Y108.701 E0.02214
G1 X117.975 Y108.306 E0.01064
G1 X117.601 Y107.320 E0.02550
G1 X117.468 Y106.793 E0.01315
G1 X117.285 Y105.428 E0.03331
G1 X117.516 Y104.040 E0.03404
G1 X119.721 Y99.641 E0.11901
G1 F5760
G1 X120.713 Y98.575 E-0.50428
G1 F5760
G1 X121.357 Y98.214 E-0.25572
G1 E-0.04000 F2100.00000
G1 X127.065 Y106.607 F7200.000
G1 E0.80000 F2100.00000
G1 F720
G1 X126.772 Y106.925 E0.01045
G1 X126.431 Y107.191 E0.01045
G1 X126.051 Y107.396 E0.01045
G1 X125.642 Y107.537 E0.01045
G1 X125.216 Y107.608 E0.01045
G1 X124.784 Y107.608 E0.01045
G1 X124.358 Y107.537 E0.01045
G1 X123.949 Y107.396 E0.01045
G1 X123.569 Y107.191 E0.01045
G1 X123.233 Y106.929 E0.01030
G1 X122.935 Y106.607 E0.01060
G1 X122.699 Y106.245 E0.01046
G1 X122.525 Y105.850 E0.01045
G1 X122.419 Y105.431 E0.01045
G1 X122.383 Y105.000 E0.01045
G1 X122.419 Y104.569 E0.01045
G1 X122.525 Y104.150 E0.01045
G1 X122.699 Y103.755 E0.01045
G1 X122.935 Y103.393 E0.01045
G1 X123.228 Y103.075 E0.01045
G1 X123.569 Y102.809 E0.01045
G1 X123.949 Y102.604 E0.01045
G1 X124.358 Y102.463 E0.01045
G1 X124.784 Y102.392 E0.01045
G1 X125.216 Y102.392 E0.01045
G1 X125.636 Y102.462 E0.01030
G1 X126.051 Y102.604 E0.01060
G1 X126.431 Y102.809 E0.01046
G1 X126.772 Y103.075 E0.01045
G1 X127.065 Y103.393 E0.01045
G1 X127.301 Y103.755 E0.01045
G1 X127.475 Y104.151 E0.01046
G1 X127.581 Y104.576 E0.01060
G1 X127.617 Y105.000 E0.01030
G1 X127.581 Y105.431 E0.01045
G1 X127.475 Y105.850 E0.01045
G1 X127.301 Y106.245 E0.01045
G1 X127.098 Y106.557 E0.00900
G1 X127.215 Y106.978 F7200.000
G1 X127.266 Y106.967 F7200.000
G1 F720
G1 X126.960 Y107.272 E0.01044
G1 X126.628 Y107.520 E0.01003
G1 X126.265 Y107.720 E0.01003
G1 X125.844 Y107.879 E0.01087
G1 X125.422 Y107.971 E0.01044
G1 X125.009 Y108.000 E0.01003
G1 X124.578 Y107.971 E0.01044
G1 X124.139 Y107.874 E0.01087
G1 X123.751 Y107.728 E0.01003
G1 X123.386 Y107.530 E0.01003
G1 X123.040 Y107.272 E0.01044
G1 X122.723 Y106.953 E0.01087
G1 X122.475 Y106.621 E0.01003
G1 X122.276 Y106.257 E0.01003
G1 X122.123 Y105.853 E0.01045
G1 X122.028 Y105.414 E0.01087
G1 X121.999 Y105.000 E0.01002
G1 X122.030 Y104.569 E0.01045
G1 X122.123 Y104.147 E0.01045
G1 X122.268 Y103.758 E0.01003
G1 X122.466 Y103.394 E0.01003
G1 X122.734 Y103.033 E0.01087
G1 X123.040 Y102.728 E0.01044
G1 X123.372 Y102.480 E0.01003
G1 X123.735 Y102.280 E0.01003
G1 X124.156 Y102.121 E0.01087
G1 X124.578 Y102.029 E0.01044
G1 X124.991 Y101.999 E0.01003
G1 X125.405 Y102.028 E0.01003
G1 X125.845 Y102.121 E0.01087
G1 X126.249 Y102.272 E0.01043
G1 X126.628 Y102.480 E0.01045
G1 X126.960 Y102.728 E0.01002
G1 X127.277 Y103.047 E0.01088
G1 X127.525 Y103.379 E0.01003
G1 X127.724 Y103.743 E0.01003
G1 X127.877 Y104.147 E0.01045
G1 X127.972 Y104.586 E0.01087
G1 X128.001 Y105.000 E0.01002
G1 X127.970 Y105.431 E0.01045
G1 X127.877 Y105.853 E0.01045
G1 X127.732 Y106.242 E0.01003
G1 X127.534 Y106.606 E0.01003
G1 X127.302 Y106.919 E0.00942
G1 X126.873 Y106.891 F7200.000
G1 F5760
G1 X126.960 Y107.272 E-0.17011
G1 F5760
G1 X126.628 Y107.520 E-0.14367
G1 F5760
G1 X126.265 Y107.720 E-0.14368
G1 F5760
G1 X125.844 Y107.879 E-0.15569
G1 F5760
G1 X125.430 Y107.969 E-0.14685
G1 E-0.04000 F2100.00000
G1 Z0.150 F7200.000
G1 X127.845 Y109.534 F7200.000
G1 E0.80000 F2100.00000
G1 F1800
G1 X130.336 Y104.564 E0.13446
G1 X130.101 Y103.302 E0.03105
G1 X126.693 Y110.101 E0.18394
G1 X125.704 Y110.343 E0.02462
G1 X126.792 Y108.173 E0.05872
G1 X125.740 Y108.541 E0.02697
G1 X124.810 Y110.397 E0.05019
G1 X123.986 Y110.310 E0.02004
G1 X124.843 Y108.600 E0.04625
G1 X124.040 Y108.471 E0.01967
G1 X123.220 Y110.107 E0.04426
G1 X122.506 Y109.800 E0.01879
G1 X123.320 Y108.176 E0.04393
G1 X122.668 Y107.745 E0.01889
G1 X121.843 Y109.391 E0.04454
G1 X121.233 Y108.877 E0.01929
G1 X122.101 Y107.145 E0.04686
G1 X121.634 Y106.346 E0.02238
G1 X120.684 Y108.243 E0.05132
G1 X120.208 Y107.461 E0.02214
G1 X121.353 Y105.177 E0.06180
G1 X119.651 Y105.110 F7200.000
G1 F1800
G1 X121.883 Y100.657 E0.12046
G1 X123.090 Y99.979 E0.03350
G1 X119.835 Y106.475 E0.17573
G1 F5760
G1 X120.818 Y104.513 E-0.76000
G1 E-0.04000 F2100.00000
G1 X122.964 Y101.962 F7200.000
G1 E0.80000 F2100.00000
G1 F1800
G1 X124.104 Y99.688 E0.06152
G1 X125.014 Y99.603 E0.02210
G1 X124.062 Y101.502 E0.05136
G1 X124.987 Y101.388 E0.02252
G1 X125.851 Y99.664 E0.04666
G1 X126.629 Y99.843 E0.01931
G1 X125.802 Y101.493 E0.04465
G1 X126.541 Y101.749 E0.01892
G1 X127.345 Y100.144 E0.04340
G1 X128.027 Y100.515 E0.01877
G1 X127.203 Y102.159 E0.04447
G1 X127.792 Y102.715 E0.01959
G1 X128.647 Y101.010 E0.04612
G1 X129.209 Y101.619 E0.02005
G1 X128.282 Y103.469 E0.05006
G1 X128.618 Y104.529 E0.02688
G1 X129.703 Y102.365 E0.05852
M106 S216.75
G1 F5760
G1 X128.719 Y104.327 E-0.76000
G1 E-0.04000 F2100.00000
G1 Z0.300 F7200.000
G1 X129.508 Y102.942 F7200.000
G1 E0.80000 F2100.00000
G1 F3000
G1 X129.487 Y102.898 E0.00097
G1 X129.376 Y103.090 E0.00439
G1 X128.567 Y103.090 E0.01604
G1 X128.721 Y103.397 E0.00681
G1 X129.376 Y103.397 E0.01298
G1 X129.909 Y104.319 E0.02110
G1 X129.815 Y103.813 E0.01019
G1 X129.704 Y103.430 E0.00791
G1 X129.508 Y102.942 E0.01041
G1 X126.056 Y99.830 F7200.000
G1 F3000
G1 X125.973 Y99.816 E0.00166
G1 X125.973 Y101.395 E0.03129
G1 X126.573 Y101.611 E0.01264
G1 X126.969 Y101.825 E0.00892
G1 X127.419 Y102.152 E0.01102
G1 X127.815 Y102.543 E0.01102
G1 X128.152 Y102.993 E0.01115
G1 X128.413 Y103.479 E0.01093
G1 X128.571 Y103.903 E0.00898
G1 X128.695 Y104.445 E0.01102
G1 X128.737 Y105.000 E0.01102
G1 X128.706 Y105.462 E0.00917
G1 X128.572 Y106.095 E0.01284
G1 X128.412 Y106.523 E0.00904
G1 X128.148 Y107.012 E0.01102
G1 X127.811 Y107.462 E0.01113
G1 X127.495 Y107.780 E0.00890
G1 X126.972 Y108.172 E0.01295
G1 X126.569 Y108.391 E0.00909
G1 X126.041 Y108.589 E0.01117
G1 X125.502 Y108.703 E0.01093
G1 X125.051 Y108.736 E0.00896
G1 X124.496 Y108.702 E0.01102
G1 X124.037 Y108.608 E0.00928
G1 X123.427 Y108.389 E0.01284
G1 X122.946 Y108.121 E0.01093
G1 X122.509 Y107.784 E0.01093
G1 X122.185 Y107.457 E0.00911
G1 X121.848 Y107.007 E0.01115
G1 X121.587 Y106.521 E0.01093
G1 X121.396 Y105.977 E0.01143
G1 X119.818 Y105.977 E0.03127
G1 X119.876 Y106.263 E0.00578
G1 X119.995 Y106.671 E0.00842
G1 X120.145 Y107.068 E0.00842
G1 X120.327 Y107.452 E0.00842
G1 X120.540 Y107.820 E0.00842
G1 X120.781 Y108.170 E0.00842
G1 X121.050 Y108.499 E0.00842
G1 X121.345 Y108.806 E0.00842
G1 X121.663 Y109.088 E0.00842
G1 X122.002 Y109.343 E0.00842
G1 X122.362 Y109.570 E0.00842
G1 X122.738 Y109.767 E0.00842
G1 X123.261 Y109.978 E0.01117
G1 X123.532 Y110.069 E0.00567
G1 X123.944 Y110.170 E0.00842
G1 X124.364 Y110.238 E0.00842
G1 X124.788 Y110.273 E0.00842
G1 X125.212 Y110.273 E0.00842
G1 X125.636 Y110.238 E0.00842
G1 X126.056 Y110.170 E0.00842
G1 X126.468 Y110.069 E0.00842
G1 X126.871 Y109.934 E0.00842
G1 X127.262 Y109.767 E0.00842
G1 X127.638 Y109.570 E0.00842
G1 X127.998 Y109.343 E0.00842
G1 X128.337 Y109.088 E0.00842
G1 X128.655 Y108.806 E0.00842
G1 X128.854 Y108.600 E0.00567
G1 X129.219 Y108.170 E0.01117
G1 X129.460 Y107.820 E0.00842
G1 X129.673 Y107.452 E0.00842
G1 X129.855 Y107.068 E0.00842
G1 X130.005 Y106.671 E0.00842
G1 X130.124 Y106.263 E0.00842
G1 X130.209 Y105.846 E0.00842
G1 X130.260 Y105.425 E0.00842
G1 X130.271 Y105.139 E0.00567
G1 X130.260 Y104.575 E0.01117
G1 X130.209 Y104.154 E0.00842
G1 X130.124 Y103.737 E0.00842
G1 X130.005 Y103.329 E0.00842
G1 X129.855 Y102.932 E0.00842
G1 X129.673 Y102.548 E0.00842
G1 X129.460 Y102.180 E0.00842
G1 X129.219 Y101.830 E0.00842
G1 X128.854 Y101.400 E0.01117
G1 X128.655 Y101.194 E0.00567
G1 X128.337 Y100.912 E0.00842
G1 X127.998 Y100.657 E0.00842
G1 X127.638 Y100.430 E0.00842
G1 X127.134 Y100.178 E0.01117
G1 X126.871 Y100.066 E0.00567
G1 X126.468 Y99.931 E0.00842
G1 X126.056 Y99.830 E0.00842
G1 X125.273 Y99.732 F7200.000
G1 F3000
G1 X124.788 Y99.727 E0.00962
G1 X124.364 Y99.761 E0.00842
G1 X123.944 Y99.830 E0.00842
G1 X123.532 Y99.931 E0.00842
G1 X123.129 Y100.066 E0.00842
G1 X122.738 Y100.233 E0.00842
G1 X122.362 Y100.430 E0.00842
G1 X122.002 Y100.657 E0.00842
G1 X121.663 Y100.912 E0.00842
G1 X121.345 Y101.194 E0.00842
G1 X121.050 Y101.501 E0.00842
G1 X120.869 Y101.722 E0.00567
G1 X120.540 Y102.180 E0.01117
G1 X120.327 Y102.548 E0.00842
G1 X120.145 Y102.932 E0.00842
G1 X119.995 Y103.329 E0.00842
G1 X119.915 Y103.604 E0.00567
G1 X119.791 Y104.154 E0.01117
G1 X119.740 Y104.575 E0.00842
G1 X119.723 Y105.000 E0.00842
G1 X119.734 Y105.277 E0.00550
G1 X121.280 Y105.277 E0.03065
G1 X121.263 Y105.000 E0.00551
G1 X121.305 Y104.442 E0.01109
G1 X121.428 Y103.904 E0.01093
G1 X121.588 Y103.477 E0.00904
G1 X121.903 Y102.913 E0.01281
G1 X122.189 Y102.538 E0.00933
G1 X122.505 Y102.220 E0.00890
G1 X123.028 Y101.828 E0.01295
G1 X123.431 Y101.609 E0.00909
G1 X123.867 Y101.442 E0.00925
G1 X124.498 Y101.297 E0.01284
G1 X124.949 Y101.264 E0.00896
G1 X125.273 Y101.280 E0.00643
G1 X125.273 Y99.732 E0.03069
G1 X124.514 Y100.283 F7200.000
G1 F3000
G1 X124.644 Y100.058 E0.00515
G1 X124.008 Y100.141 E0.01272
G1 X123.483 Y100.283 E0.01078
G1 X124.514 Y100.283 E0.02044
G1 X124.729 Y100.962 F7200.000
G1 F3000
G1 X124.514 Y100.590 E0.00852
G1 X122.741 Y100.590 E0.03515
G1 X122.183 Y100.919 E0.01284
G1 X121.864 Y101.159 E0.00791
G1 X121.565 Y101.424 E0.00792
G1 X121.288 Y101.712 E0.00791
