; generated by Slic3r 1.3.0-dev on 2016-08-21 at 18:05:53

; external perimeters extrusion width = 0.45mm
; perimeters extrusion width = 0.45mm
; infill extrusion width = 0.45mm
; solid infill extrusion width = 0.45mm
; top infill extrusion width = 0.40mm

M107
M83  ; extruder relative mode
M104 S210 ; set extruder temp
M140 S55 ; set bed temp
M190 S55 ; wait for bed temp
M109 S210 ; wait for extruder temp
G28 W ; home all without mesh bed level
G80 ; mesh bed leveling
G1 Y-3.0 F1000.0 ; go outside pritn area
G1 X60.0 E9.0  F1000.0 ; intro line
G1 X100.0 E12.5  F1000.0 ; intro line
G21 ; set units to millimeters
G90 ; use absolute coordinates
M83 ; use relative distances for extrusion
G1 E-0.80000 F2100.00000
G1 Z0.150 F7200.000
G1 X118.351 Y98.315 F7200.000
G1 E0.80000 F2100.00000
M204 S1000
G1 F1800
G1 X119.711 Y97.341 E0.04048
G1 X121.040 Y97.083 E0.03274
G1 X128.960 Y97.083 E0.19154
G1 X130.586 Y97.477 E0.04048
G1 X131.852 Y98.573 E0.04048
G1 X132.413 Y99.805 E0.03274
G1 X133.959 Y106.265 E0.16065
G1 X134.031 Y106.739 E0.01160
G1 X134.059 Y107.068 E0.00799
G1 X134.067 Y107.548 E0.01160
G1 X134.050 Y107.877 E0.00799
G1 X133.872 Y108.818 E0.02315
G1 X133.719 Y109.278 E0.01173
G1 X132.831 Y110.697 E0.04048
G1 X131.392 Y111.551 E0.04048
G1 X130.350 Y111.707 E0.02548
G1 X119.610 Y111.707 E0.25974
G1 X117.984 Y111.310 E0.04048
G1 X116.721 Y110.212 E0.04048
G1 X116.179 Y109.048 E0.03105
G1 X116.059 Y108.588 E0.01150
G1 X115.950 Y107.878 E0.01736
G1 X115.933 Y107.548 E0.00801
G1 X115.941 Y107.068 E0.01159
G1 X115.969 Y106.739 E0.00800
G1 X116.041 Y106.265 E0.01160
G1 X116.113 Y105.942 E0.00799
G1 X117.587 Y99.805 E0.15266
G1 X118.323 Y98.369 E0.03903
G1 X118.704 Y98.501 F7200.000
G1 F1800
G1 X120.025 Y97.638 E0.03817
G1 X121.040 Y97.471 E0.02487
G1 X128.960 Y97.471 E0.19154
G1 X130.488 Y97.864 E0.03817
G1 X131.636 Y98.947 E0.03817
G1 X132.036 Y99.895 E0.02487
G1 X133.580 Y106.349 E0.16049
G1 X133.645 Y106.771 E0.01033
G1 X133.672 Y107.101 E0.00799
G1 X133.679 Y107.528 E0.01033
G1 X133.662 Y107.858 E0.00799
G1 X133.504 Y108.695 E0.02062
G1 X133.351 Y109.156 E0.01173
G1 X132.495 Y110.481 E0.03817
G1 X130.350 Y111.319 E0.05569
G1 X119.611 Y111.319 E0.25973
G1 X118.083 Y110.923 E0.03817
G1 X116.937 Y109.838 E0.03817
G1 X116.554 Y108.951 E0.02337
G1 X116.435 Y108.490 E0.01150
G1 X116.338 Y107.858 E0.01547
G1 X116.321 Y107.528 E0.00801
G1 X116.328 Y107.101 E0.01032
G1 X116.355 Y106.771 E0.00800
G1 X116.420 Y106.349 E0.01033
G1 X116.492 Y106.027 E0.00799
G1 X117.964 Y99.895 E0.15251
G1 X118.676 Y98.554 E0.03672
G1 X119.056 Y98.693 F7200.000
G1 F1800
G1 X121.040 Y97.859 E0.05207
G1 X128.960 Y97.859 E0.19154
G1 X130.383 Y98.251 E0.03571
G1 X131.659 Y99.986 E0.05207
G1 X133.119 Y106.066 E0.15123
G1 X133.202 Y106.433 E0.00911
G1 X133.258 Y106.804 E0.00907
G1 X133.286 Y107.133 E0.00799
G1 X133.275 Y107.838 E0.01704
G1 X133.137 Y108.573 E0.01809
G1 X132.983 Y109.033 E0.01173
G1 X132.161 Y110.259 E0.03571
G1 X130.350 Y110.932 E0.04671
G1 X119.611 Y110.931 E0.25971
G1 X118.189 Y110.536 E0.03571
G1 X116.930 Y108.853 E0.05083
G1 X116.810 Y108.393 E0.01150
G1 X116.725 Y107.838 E0.01357
G1 X116.714 Y107.133 E0.01705
G1 X116.742 Y106.804 E0.00800
G1 X116.870 Y106.111 E0.01704
G1 X118.341 Y99.986 E0.15235
G1 X119.027 Y98.746 E0.03426
G1 X119.405 Y98.894 F7200.000
G1 F1800
G1 X121.040 Y98.246 E0.04253
G1 X128.960 Y98.246 E0.19154
G1 X130.270 Y98.638 E0.03307
G1 X131.282 Y100.076 E0.04253
G1 X132.742 Y106.156 E0.15123
G1 X132.872 Y106.836 E0.01674
G1 X132.900 Y107.166 E0.00799
G1 X132.888 Y107.818 E0.01578
G1 X132.769 Y108.450 E0.01556
G1 X132.615 Y108.911 E0.01173
G1 X131.830 Y110.030 E0.03307
G1 X130.350 Y110.544 E0.03788
G1 X119.612 Y110.544 E0.25969
G1 X118.302 Y110.150 E0.03307
G1 X117.305 Y108.756 E0.04145
G1 X117.186 Y108.296 E0.01150
G1 X117.112 Y107.818 E0.01167
G1 X117.100 Y107.166 E0.01579
G1 X117.128 Y106.836 E0.00800
G1 X117.258 Y106.156 E0.01674
G1 X118.718 Y100.076 E0.15123
G1 X119.375 Y98.946 E0.03162
G1 F5760
G1 X121.040 Y98.246 E-0.62548
G1 F5760
G1 X121.429 Y98.246 E-0.13452
G1 E-0.04000 F2100.00000
G1 X128.362 Y103.972 F7200.000
G1 E0.80000 F2100.00000
G1 F720
G1 X128.656 Y103.972 E0.00711
G1 X128.656 Y105.434 E0.03536
G1 X128.433 Y105.375 E0.00558
G1 X128.075 Y105.343 E0.00869
G1 X127.717 Y105.375 E0.00869
G1 X127.494 Y105.434 E0.00558
G1 X127.494 Y103.972 E0.03536
G1 X127.788 Y103.972 E0.00711
G1 X127.788 Y101.232 E0.06627
G1 X128.362 Y101.232 E0.01389
G1 X128.362 Y103.912 E0.06482
G1 X128.750 Y103.584 F7200.000
G1 F720
G1 X129.044 Y103.584 E0.00711
G1 X129.044 Y105.387 E0.04358
G1 X129.352 Y105.572 E0.00870
G1 X129.588 Y105.760 E0.00730
G1 X129.796 Y105.979 E0.00730
G1 X129.972 Y106.224 E0.00730
G1 X130.111 Y106.486 E0.00717
G1 X130.219 Y106.774 E0.00744
G1 X130.284 Y107.068 E0.00729
G1 X130.310 Y107.369 E0.00730
G1 X130.295 Y107.656 E0.00695
G1 X130.198 Y107.946 E0.00738
G1 X129.747 Y107.946 E0.01091
G1 X129.747 Y107.397 E0.01328
G1 X129.723 Y107.115 E0.00683
G1 X129.647 Y106.834 E0.00705
G1 X129.524 Y106.569 E0.00705
G1 X129.357 Y106.330 E0.00705
G1 X129.150 Y106.124 E0.00705
G1 X128.912 Y105.957 E0.00705
G1 X128.647 Y105.834 E0.00705
G1 X128.366 Y105.758 E0.00705
G1 X128.075 Y105.733 E0.00705
G1 X127.784 Y105.758 E0.00705
G1 X127.503 Y105.834 E0.00705
G1 X127.238 Y105.957 E0.00705
G1 X127.000 Y106.124 E0.00705
G1 X126.793 Y106.330 E0.00705
G1 X126.626 Y106.569 E0.00705
G1 X126.503 Y106.834 E0.00705
G1 X126.427 Y107.115 E0.00705
G1 X126.403 Y107.397 E0.00683
G1 X126.403 Y107.946 E0.01328
G1 X125.929 Y107.946 E0.01146
G1 X125.855 Y107.664 E0.00705
G1 X125.840 Y107.369 E0.00713
G1 X125.866 Y107.068 E0.00730
G1 X125.931 Y106.774 E0.00730
G1 X126.036 Y106.491 E0.00730
G1 X126.178 Y106.224 E0.00730
G1 X126.354 Y105.979 E0.00730
G1 X126.562 Y105.760 E0.00730
G1 X126.798 Y105.572 E0.00730
G1 X127.106 Y105.387 E0.00870
G1 X127.106 Y103.584 E0.04358
G1 X127.400 Y103.584 E0.00711
G1 X127.400 Y100.844 E0.06627
G1 X128.750 Y100.844 E0.03264
G1 X128.750 Y103.524 E0.06482
G1 X128.795 Y103.875 F7200.000
G1 X128.075 Y104.166 F7200.000
G1 F1440
G1 X128.075 Y101.426 E0.02634
G1 F5760
G1 X128.075 Y103.620 E-0.76000
G1 E-0.04000 F2100.00000
G1 X128.429 Y104.598 F7200.000
G1 E0.80000 F2100.00000
G1 F1440
G1 X128.224 Y104.394 E0.01328
G1 X127.721 Y104.932 E0.03384
G1 X127.924 Y105.135 E0.01318
G1 X127.300 Y105.608 F7200.000
G1 F1440
G1 X126.960 Y105.805 E0.00365
G1 X126.754 Y105.969 E0.00245
G1 X126.571 Y106.159 E0.00245
G1 X126.381 Y106.436 E0.00312
G1 X126.238 Y106.745 E0.00316
G1 X126.151 Y107.074 E0.00316
G1 X126.122 Y107.381 E0.00286
G1 X126.145 Y107.752 E0.00346
G1 F5760
G1 X126.122 Y107.381 E-0.12888
G1 F5760
G1 X126.151 Y107.074 E-0.10663
G1 F5760
G1 X126.238 Y106.745 E-0.11790
G1 F5760
G1 X126.381 Y106.436 E-0.11783
G1 F5760
G1 X126.571 Y106.159 E-0.11646
G1 F5760
G1 X126.754 Y105.969 E-0.09135
G1 F5760
G1 X126.937 Y105.824 E-0.08094
G1 E-0.04000 F2100.00000
G1 X128.850 Y105.608 F7200.000
G1 E0.80000 F2100.00000
G1 F1440
G1 X129.190 Y105.805 E0.00318
G1 X129.396 Y105.969 E0.00213
G1 X129.579 Y106.159 E0.00214
G1 X129.769 Y106.436 E0.00272
G1 X129.911 Y106.745 E0.00276
G1 X129.999 Y107.074 E0.00276
G1 X130.028 Y107.381 E0.00249
G1 X129.998 Y107.752 E0.00302
G1 F5760
G1 X130.028 Y107.381 E-0.12906
G1 F5760
G1 X129.999 Y107.074 E-0.10663
G1 F5760
G1 X129.911 Y106.745 E-0.11790
G1 F5760
G1 X129.769 Y106.436 E-0.11782
G1 F5760
G1 X129.579 Y106.159 E-0.11646
G1 F5760
G1 X129.396 Y105.969 E-0.09135
G1 F5760
G1 X129.213 Y105.824 E-0.08078
G1 E-0.04000 F2100.00000
G1 X122.506 Y105.434 F7200.000
G1 E0.80000 F2100.00000
G1 F720
G1 X122.283 Y105.375 E0.00558
G1 X121.924 Y105.343 E0.00872
G1 X121.562 Y105.376 E0.00880
G1 X121.344 Y105.434 E0.00545
G1 X121.344 Y103.972 E0.03536
G1 X121.638 Y103.972 E0.00711
G1 X121.638 Y101.232 E0.06627
G1 X122.212 Y101.232 E0.01389
G1 X122.212 Y103.972 E0.06627
G1 X122.506 Y103.972 E0.00711
G1 X122.506 Y105.374 E0.03391
G1 F5760
G1 X122.283 Y105.375 E-0.07719
G1 F5760
G1 X121.924 Y105.343 E-0.12483
G1 F5760
G1 X121.562 Y105.376 E-0.12605
G1 F5760
G1 X121.344 Y105.434 E-0.07803
G1 F5760
G1 X121.344 Y104.413 E-0.35391
G1 E-0.04000 F2100.00000
G1 X123.597 Y107.946 F7200.000
G1 E0.80000 F2100.00000
G1 F720
G1 X123.597 Y107.397 E0.01329
G1 X123.573 Y107.115 E0.00683
G1 X123.497 Y106.834 E0.00705
G1 X123.374 Y106.569 E0.00705
G1 X123.207 Y106.330 E0.00705
G1 X123.000 Y106.124 E0.00705
G1 X122.762 Y105.957 E0.00705
G1 X122.497 Y105.834 E0.00705
G1 X122.216 Y105.758 E0.00705
G1 X121.925 Y105.733 E0.00706
G1 X121.630 Y105.759 E0.00716
G1 X121.353 Y105.834 E0.00694
G1 X121.088 Y105.957 E0.00705
G1 X120.850 Y106.124 E0.00705
G1 X120.643 Y106.330 E0.00705
G1 X120.476 Y106.569 E0.00705
G1 X120.353 Y106.834 E0.00705
G1 X120.277 Y107.115 E0.00705
G1 X120.253 Y107.397 E0.00683
G1 X120.253 Y107.946 E0.01328
G1 X119.779 Y107.946 E0.01146
G1 X119.705 Y107.664 E0.00705
G1 X119.690 Y107.369 E0.00713
G1 X119.716 Y107.068 E0.00730
G1 X119.781 Y106.774 E0.00730
G1 X119.886 Y106.491 E0.00730
G1 X120.028 Y106.224 E0.00730
G1 X120.204 Y105.979 E0.00730
G1 X120.412 Y105.760 E0.00730
G1 X120.648 Y105.572 E0.00730
G1 X120.956 Y105.387 E0.00870
G1 X120.956 Y103.584 E0.04358
G1 X121.250 Y103.584 E0.00711
G1 X121.250 Y100.844 E0.06627
G1 X122.600 Y100.844 E0.03264
G1 X122.600 Y103.584 E0.06627
G1 X122.894 Y103.584 E0.00711
G1 X122.894 Y105.387 E0.04358
G1 X123.202 Y105.572 E0.00870
G1 X123.438 Y105.760 E0.00730
G1 X123.646 Y105.979 E0.00730
G1 X123.822 Y106.224 E0.00730
G1 X123.964 Y106.491 E0.00730
G1 X124.069 Y106.774 E0.00730
G1 X124.133 Y107.063 E0.00717
G1 X124.160 Y107.369 E0.00744
G1 X124.145 Y107.656 E0.00695
G1 X124.048 Y107.946 E0.00738
G1 X123.657 Y107.946 E0.00946
G1 X123.739 Y107.572 F7200.000
G1 X123.848 Y107.752 F7200.000
G1 F1440
G1 X123.878 Y107.381 E0.00302
G1 X123.849 Y107.074 E0.00249
G1 X123.762 Y106.745 E0.00276
G1 X123.619 Y106.436 E0.00276
G1 X123.429 Y106.159 E0.00272
G1 X123.246 Y105.969 E0.00214
G1 X123.040 Y105.805 E0.00213
G1 X122.700 Y105.608 E0.00318
G1 F5760
G1 X123.040 Y105.805 E-0.13599
G1 F5760
G1 X123.246 Y105.969 E-0.09127
G1 F5760
G1 X123.429 Y106.159 E-0.09135
G1 F5760
G1 X123.619 Y106.436 E-0.11646
G1 F5760
G1 X123.762 Y106.745 E-0.11783
G1 F5760
G1 X123.849 Y107.074 E-0.11790
G1 F5760
G1 X123.873 Y107.330 E-0.08920
G1 E-0.04000 F2100.00000
G1 X121.774 Y105.136 F7200.000
G1 E0.80000 F2100.00000
G1 F1440
G1 X121.571 Y104.933 E0.01319
G1 X122.074 Y104.394 E0.03387
G1 X122.279 Y104.598 E0.01329
G1 X121.925 Y104.166 F7200.000
G1 F1440
G1 X121.925 Y101.426 E0.02634
G1 F5760
G1 X121.925 Y103.620 E-0.76000
G1 E-0.04000 F2100.00000
G1 X121.150 Y105.608 F7200.000
G1 E0.80000 F2100.00000
G1 F1440
G1 X120.810 Y105.805 E0.00365
G1 X120.604 Y105.969 E0.00245
G1 X120.421 Y106.159 E0.00245
G1 X120.231 Y106.436 E0.00312
G1 X120.088 Y106.745 E0.00316
G1 X120.001 Y107.074 E0.00316
G1 X119.972 Y107.381 E0.00286
G1 X119.995 Y107.752 E0.00346
M106 S216.75
G1 F5760
G1 X119.972 Y107.381 E-0.12888
G1 F5760
G1 X120.001 Y107.074 E-0.10663
G1 F5760
G1 X120.088 Y106.745 E-0.11790
G1 F5760
G1 X120.231 Y106.436 E-0.11784
G1 F5760
G1 X120.421 Y106.159 E-0.11646
G1 F5760
G1 X120.604 Y105.969 E-0.09135
G1 F5760
G1 X120.787 Y105.824 E-0.08094
G1 E-0.04000 F2100.00000
G1 Z0.350 F7200.000
G1 X128.436 Y104.007 F7200.000
G1 E0.80000 F2100.00000
M204 S800
G1 F1200
G1 X128.706 Y104.007 E0.00915
G1 X128.706 Y105.412 E0.04758
G1 X128.439 Y105.341 E0.00936
G1 X128.075 Y105.309 E0.01237
G1 X127.711 Y105.341 E0.01237
G1 X127.444 Y105.412 E0.00936
G1 X127.444 Y104.007 E0.04758
G1 X127.714 Y104.007 E0.00915
G1 X127.714 Y101.266 E0.09276
G1 X128.436 Y101.266 E0.02442
G1 X128.436 Y103.947 E0.09072
M204 S1000
G1 X128.843 Y103.599 F7200.000
M204 S800
G1 F1200
G1 X129.113 Y103.599 E0.00915
G1 X129.113 Y105.446 E0.06249
G1 X129.344 Y105.584 E0.00909
G1 X129.577 Y105.772 E0.01015
G1 X129.784 Y105.989 E0.01015
G1 X129.959 Y106.232 E0.01015
G1 X130.100 Y106.497 E0.01015
G1 X130.204 Y106.778 E0.01015
G1 X130.269 Y107.071 E0.01015
G1 X130.295 Y107.369 E0.01015
G1 X130.280 Y107.654 E0.00963
G1 X130.154 Y108.032 E0.01350
G1 X129.762 Y108.032 E0.01326
G1 X129.762 Y107.396 E0.02153
G1 X129.738 Y107.113 E0.00963
G1 X129.661 Y106.828 E0.00996
G1 X129.537 Y106.562 E0.00996
G1 X129.368 Y106.321 E0.00996
G1 X129.160 Y106.113 E0.00996
G1 X128.919 Y105.944 E0.00996
G1 X128.652 Y105.819 E0.00996
G1 X128.368 Y105.743 E0.00996
G1 X128.075 Y105.718 E0.00996
G1 X127.782 Y105.743 E0.00996
G1 X127.498 Y105.819 E0.00996
G1 X127.231 Y105.944 E0.00996
G1 X126.990 Y106.113 E0.00996
G1 X126.782 Y106.321 E0.00996
G1 X126.613 Y106.562 E0.00996
G1 X126.489 Y106.828 E0.00996
G1 X126.412 Y107.113 E0.00996
G1 X126.388 Y107.396 E0.00963
G1 X126.388 Y108.032 E0.02152
G1 X125.966 Y108.032 E0.01426
G1 X125.870 Y107.661 E0.01296
G1 X125.855 Y107.369 E0.00989
G1 X125.881 Y107.071 E0.01015
G1 X125.946 Y106.778 E0.01015
G1 X126.050 Y106.497 E0.01015
G1 X126.191 Y106.232 E0.01015
G1 X126.366 Y105.989 E0.01015
G1 X126.573 Y105.772 E0.01015
G1 X126.806 Y105.584 E0.01015
G1 X127.037 Y105.446 E0.00909
G1 X127.037 Y103.599 E0.06249
G1 X127.307 Y103.599 E0.00915
G1 X127.307 Y100.859 E0.09276
G1 X128.843 Y100.859 E0.05198
G1 X128.843 Y103.539 E0.09072
M204 S1000
G1 X128.889 Y103.866 F7200.000
G1 F5760
G1 X129.113 Y103.599 E-0.09594
G1 F5760
G1 X129.113 Y105.446 E-0.63946
G1 F5760
G1 X129.174 Y105.482 E-0.02459
G1 E-0.04000 F2100.00000
G1 X128.075 Y104.210 F7200.000
G1 E0.80000 F2100.00000
G1 F2400
G1 X128.075 Y101.470 E0.06188
G1 F5760
G1 X128.075 Y103.664 E-0.76000
G1 E-0.04000 F2100.00000
G1 X127.683 Y104.662 F7200.000
G1 E0.80000 F2100.00000
M204 S2000
G1 F2400
G1 X127.896 Y104.450 E0.01770
G1 X128.467 Y104.880 E0.04206
G1 X128.255 Y105.091 E0.01758
M204 S1000
G1 X128.910 Y105.640 F7200.000
G1 F2400
G1 X129.190 Y105.805 E0.00109
G1 X129.396 Y105.969 E0.00089
G1 X129.579 Y106.159 E0.00089
G1 X129.732 Y106.374 E0.00089
G1 X129.855 Y106.607 E0.00089
G1 X129.946 Y106.854 E0.00089
G1 X130.005 Y107.111 E0.00089
G1 X130.028 Y107.387 E0.00093
G1 X130.022 Y107.605 E0.00073
G1 X129.989 Y107.813 E0.00071
G1 F5760
G1 X130.022 Y107.605 E-0.07298
G1 F5760
G1 X130.028 Y107.387 E-0.07549
G1 F5760
G1 X130.005 Y107.111 E-0.09593
G1 F5760
G1 X129.946 Y106.854 E-0.09130
G1 F5760
G1 X129.855 Y106.607 E-0.09126
G1 F5760
G1 X129.732 Y106.374 E-0.09128
G1 F5760
G1 X129.579 Y106.159 E-0.09136
G1 F5760
G1 X129.396 Y105.969 E-0.09135
G1 F5760
G1 X129.262 Y105.863 E-0.05906
G1 E-0.04000 F2100.00000
G1 X127.240 Y105.640 F7200.000
G1 E0.80000 F2100.00000
G1 F2400
G1 X126.960 Y105.805 E0.00230
G1 X126.754 Y105.969 E0.00186
G1 X126.571 Y106.159 E0.00187
G1 X126.418 Y106.374 E0.00187
G1 X126.295 Y106.607 E0.00186
G1 X126.204 Y106.854 E0.00186
G1 X126.145 Y107.111 E0.00187
G1 X126.122 Y107.387 E0.00196
G1 X126.155 Y107.828 E0.00313
G1 F5760
G1 X126.122 Y107.387 E-0.15322
G1 F5760
G1 X126.145 Y107.111 E-0.09593
G1 F5760
G1 X126.204 Y106.854 E-0.09130
G1 F5760
G1 X126.295 Y106.607 E-0.09125
G1 F5760
G1 X126.418 Y106.374 E-0.09128
G1 F5760
G1 X126.571 Y106.159 E-0.09136
G1 F5760
G1 X126.754 Y105.969 E-0.09135
G1 F5760
G1 X126.877 Y105.872 E-0.05430
G1 E-0.04000 F2100.00000
G1 X122.286 Y104.007 F7200.000
G1 E0.80000 F2100.00000
M204 S800
G1 F1200
G1 X122.556 Y104.007 E0.00915
G1 X122.556 Y105.412 E0.04758
G1 X122.289 Y105.341 E0.00936
G1 X121.925 Y105.309 E0.01237
G1 X121.561 Y105.341 E0.01237
G1 X121.294 Y105.412 E0.00936
G1 X121.294 Y104.007 E0.04758
G1 X121.564 Y104.007 E0.00915
G1 X121.564 Y101.266 E0.09276
G1 X122.286 Y101.266 E0.02442
G1 X122.286 Y103.947 E0.09072
M204 S1000
G1 X122.693 Y103.599 F7200.000
M204 S800
G1 F1200
G1 X122.963 Y103.599 E0.00915
G1 X122.963 Y105.446 E0.06249
G1 X123.194 Y105.584 E0.00909
G1 X123.427 Y105.772 E0.01015
G1 X123.634 Y105.989 E0.01015
G1 X123.809 Y106.232 E0.01015
G1 X123.950 Y106.497 E0.01015
G1 X124.054 Y106.778 E0.01015
G1 X124.119 Y107.071 E0.01015
G1 X124.145 Y107.369 E0.01015
G1 X124.130 Y107.654 E0.00963
G1 X124.004 Y108.032 E0.01350
G1 X123.612 Y108.032 E0.01326
G1 X123.612 Y107.396 E0.02153
G1 X123.588 Y107.113 E0.00963
G1 X123.511 Y106.828 E0.00996
