; generated by Slic3r 1.3.0-dev on 2016-08-21 at 19:14:12

; external perimeters extrusion width = 0.45mm
; perimeters extrusion width = 0.45mm
; infill extrusion width = 0.45mm
; solid infill extrusion width = 0.45mm
; top infill extrusion width = 0.40mm
; support material extrusion width = 0.35mm

M107
M83  ; extruder relative mode
M104 S210 ; set extruder temp
M140 S55 ; set bed temp
M190 S55 ; wait for bed temp
M109 S210 ; wait for extruder temp
G28 W ; home all without mesh bed level
G80 ; mesh bed leveling
G1 Y-3.0 F1000.0 ; go outside pritn area
G1 X60.0 E9.0  F1000.0 ; intro line
G1 X100.0 E12.5  F1000.0 ; intro line
G21 ; set units to millimeters
G90 ; use absolute coordinates
M83 ; use relative distances for extrusion
G1 E-0.80000 F2100.00000
G1 Z0.150 F7200.000
G1 X117.717 Y95.161 F7200.000
G1 E0.80000 F2100.00000
M204 S1000
G1 F1800
G1 X118.754 Y93.971 E0.03817
G1 X119.490 Y93.596 E0.01997
G1 X120.544 Y93.223 E0.02706
G1 X121.600 Y93.042 E0.02590
G1 X128.543 Y93.042 E0.16791
G1 X129.499 Y93.191 E0.02340
G1 X130.247 Y93.429 E0.01899
G1 X131.237 Y93.952 E0.02709
G1 X131.861 Y94.439 E0.01914
G1 X132.888 Y95.860 E0.04241
G1 X133.251 Y96.868 E0.02590
G1 X133.438 Y97.937 E0.02626
G1 X133.439 Y111.785 E0.33491
G1 X133.103 Y113.202 E0.03523
G1 X132.283 Y114.839 E0.04426
G1 X130.924 Y116.223 E0.04693
G1 X128.550 Y117.450 E0.06463
G1 X126.650 Y117.761 E0.04655
G1 X120.997 Y116.924 E0.13822
G1 X120.569 Y116.830 E0.01058
G1 X119.813 Y116.608 E0.01906
G1 X118.700 Y116.021 E0.03042
G1 X118.085 Y115.517 E0.01923
G1 X117.112 Y114.140 E0.04078
G1 X116.749 Y113.133 E0.02590
G1 X116.562 Y112.063 E0.02626
G1 X116.561 Y98.215 E0.33491
G1 X116.897 Y96.798 E0.03523
G1 X117.690 Y95.215 E0.04283
G1 X118.064 Y95.335 F7200.000
G1 F1800
G1 X119.619 Y93.962 E0.05017
G1 X120.674 Y93.589 E0.02706
G1 X121.600 Y93.429 E0.02273
G1 X128.542 Y93.430 E0.16790
G1 X129.381 Y93.561 E0.02053
G1 X130.130 Y93.799 E0.01899
G1 X130.999 Y94.257 E0.02376
G1 X131.622 Y94.745 E0.01914
G1 X132.524 Y95.991 E0.03721
G1 X132.886 Y96.999 E0.02590
G1 X133.050 Y97.937 E0.02304
G1 X133.051 Y111.785 E0.33491
G1 X132.757 Y113.029 E0.03091
G1 X131.937 Y114.665 E0.04426
G1 X130.744 Y115.880 E0.04118
G1 X128.374 Y117.105 E0.06452
G1 X126.707 Y117.377 E0.04084
G1 X121.053 Y116.540 E0.13822
G1 X120.678 Y116.458 E0.00928
G1 X119.922 Y116.236 E0.01906
G1 X118.946 Y115.721 E0.02669
G1 X118.331 Y115.217 E0.01923
G1 X117.477 Y114.009 E0.03578
G1 X117.114 Y113.002 E0.02590
G1 X116.950 Y112.063 E0.02304
G1 X116.949 Y98.215 E0.33491
G1 X117.243 Y96.972 E0.03091
G1 X118.037 Y95.388 E0.04283
G1 X118.410 Y95.508 F7200.000
G1 F1800
G1 X119.748 Y94.327 E0.04316
G1 X120.803 Y93.954 E0.02706
G1 X121.600 Y93.817 E0.01955
G1 X128.542 Y93.818 E0.16790
G1 X129.264 Y93.930 E0.01766
G1 X130.012 Y94.168 E0.01899
G1 X130.760 Y94.563 E0.02044
G1 X131.383 Y95.050 E0.01914
G1 X132.159 Y96.123 E0.03201
G1 X132.521 Y97.130 E0.02590
G1 X132.662 Y97.938 E0.01982
G1 X132.663 Y111.785 E0.33490
G1 X132.410 Y112.855 E0.02659
G1 X131.590 Y114.491 E0.04426
G1 X130.564 Y115.536 E0.03543
G1 X128.197 Y116.759 E0.06441
G1 X126.764 Y116.994 E0.03514
G1 X121.110 Y116.156 E0.13822
G1 X120.788 Y116.086 E0.00799
G1 X120.031 Y115.864 E0.01906
G1 X119.192 Y115.421 E0.02296
G1 X118.576 Y114.917 E0.01923
G1 X117.842 Y113.878 E0.03078
G1 X117.479 Y112.870 E0.02590
G1 X117.338 Y112.063 E0.01982
G1 X117.337 Y98.215 E0.33490
G1 X117.590 Y97.145 E0.02659
G1 X118.384 Y95.562 E0.04283
G1 F5760
G1 X119.748 Y94.327 E-0.63744
G1 F5760
G1 X120.082 Y94.209 E-0.12256
G1 E-0.04000 F2100.00000
G1 X125.125 Y105.183 F7200.000
G1 E0.80000 F2100.00000
G1 F720
G1 X124.864 Y105.183 E0.00630
G1 X124.864 Y104.817 E0.00884
G1 X125.125 Y104.817 E0.00630
G1 X125.125 Y105.123 E0.00739
G1 X125.513 Y105.565 F7200.000
G1 F720
G1 X124.477 Y105.571 E0.02506
G1 X124.477 Y104.429 E0.02760
G1 X125.513 Y104.429 E0.02506
G1 X125.513 Y105.505 E0.02601
G1 X125.509 Y105.569 F7200.000
G1 F5760
G1 X125.513 Y105.571 E-0.02279
G1 F5760
G1 X124.477 Y105.571 E-0.35887
G1 F5760
G1 X124.477 Y104.478 E-0.37834
G1 E-0.04000 F2100.00000
G1 Z0.150 F7200.000
G1 X125.485 Y107.495 F7200.000
G1 E0.80000 F2100.00000
G1 F1800
G1 X126.143 Y106.182 E0.03555
G1 X127.073 Y106.057 E0.02270
G1 X123.195 Y113.795 E0.20934
G1 X124.062 Y113.795 E0.02098
G1 X127.941 Y106.057 E0.20934
G1 X128.746 Y106.182 E0.01970
G1 X129.059 Y105.557 E0.01691
G1 X124.930 Y113.795 E0.22287
G1 F5760
G1 X125.913 Y111.833 E-0.76000
G1 E-0.04000 F2100.00000
G1 X129.455 Y113.421 F7200.000
G1 E0.80000 F2100.00000
G1 F1800
G1 X130.275 Y111.785 E0.04426
G1 X130.275 Y110.054 E0.04186
G1 X128.279 Y114.038 E0.10777
G1 X127.113 Y114.632 E0.03162
G1 X130.275 Y108.323 E0.17066
G1 X130.275 Y106.592 E0.04186
G1 X126.665 Y113.795 E0.19486
G1 X125.798 Y113.795 E0.02098
G1 X130.275 Y104.861 E0.24169
G1 X129.206 Y105.263 E0.02763
G1 X130.275 Y103.130 E0.05771
G1 X130.275 Y101.399 E0.04186
G1 X128.749 Y104.443 E0.08236
G1 X128.132 Y103.943 F7200.000
G1 F1800
G1 X130.275 Y99.668 E0.11566
G1 X130.274 Y97.939 E0.04182
G1 X127.265 Y103.943 E0.16244
G1 X126.460 Y103.818 E0.01970
G1 X129.912 Y96.931 E0.18632
G1 X129.289 Y96.444 E0.01914
G1 X125.592 Y103.818 E0.19951
G1 X124.725 Y103.818 E0.02098
G1 X125.342 Y102.587 E0.03332
G1 X125.710 Y101.853 F7200.000
G1 F1800
G1 X128.540 Y96.206 E0.15278
G1 X127.673 Y96.205 E0.02097
G1 X124.958 Y101.621 E0.14652
G1 X124.523 Y102.489 F7200.000
G1 F1800
G1 X123.857 Y103.818 E0.03597
G1 X122.927 Y103.943 E0.02270
G1 X126.805 Y96.205 E0.20934
G1 X125.938 Y96.205 E0.02098
G1 X122.122 Y103.818 E0.20596
G1 F5760
G1 X123.105 Y101.857 E-0.76000
G1 E-0.04000 F2100.00000
G1 X121.415 Y105.230 F7200.000
G1 E0.80000 F2100.00000
G1 F1800
G1 X119.725 Y108.601 E0.09122
G1 X119.725 Y106.870 E0.04186
G1 X125.070 Y96.205 E0.28852
G1 X124.203 Y96.205 E0.02098
G1 X119.725 Y105.139 E0.24169
G1 X119.725 Y103.408 E0.04186
G1 X123.335 Y96.205 E0.19487
G1 X122.467 Y96.205 E0.02098
G1 X119.725 Y101.677 E0.14804
G1 X119.725 Y99.946 E0.04186
G1 X121.600 Y96.205 E0.10121
G1 X120.545 Y96.578 E0.02706
G1 X119.725 Y98.215 E0.04428
G1 F5760
G1 X120.545 Y96.578 E-0.63417
G1 F5760
G1 X120.888 Y96.457 E-0.12583
G1 E-0.04000 F2100.00000
G1 X121.805 Y106.182 F7200.000
G1 E0.80000 F2100.00000
G1 F1800
G1 X119.725 Y110.332 E0.11229
G1 X119.726 Y112.062 E0.04182
G1 X122.735 Y106.057 E0.16245
G1 X123.540 Y106.182 E0.01970
G1 X120.088 Y113.069 E0.18632
G1 X120.704 Y113.572 E0.01923
G1 X124.408 Y106.182 E0.19994
G1 X125.275 Y106.182 E0.02098
G1 X124.657 Y107.415 E0.03336
G1 X124.296 Y108.137 F7200.000
G1 F1800
G1 X121.460 Y113.794 E0.15305
G1 X122.327 Y113.795 E0.02097
G1 X125.041 Y108.381 E0.14647
M106 S216.75
G1 F5760
G1 X124.058 Y110.342 E-0.76000
G1 E-0.04000 F2100.00000
G1 Z0.350 F7200.000
G1 X125.666 Y105.148 F7200.000
G1 E0.80000 F2100.00000
M204 S800
G1 F1200
G1 X124.345 Y105.148 E0.04469
G1 X124.345 Y104.851 E0.01005
G1 X125.666 Y104.851 E0.04469
G1 X125.666 Y105.088 E0.00802
M204 S1000
G1 X126.073 Y105.556 F7200.000
M204 S800
G1 F1200
G1 X123.938 Y105.556 E0.07224
G1 X123.938 Y104.444 E0.03761
G1 X126.073 Y104.444 E0.07224
G1 X126.073 Y105.496 E0.03558
M204 S1000
G1 X125.678 Y105.492 F7200.000
G1 F5760
G1 X123.938 Y105.556 E-0.73952
G1 F5760
G1 X123.938 Y105.496 E-0.02048
G1 E-0.04000 F2100.00000
G1 Z0.400 F7200.000
G1 X124.841 Y107.270 F7200.000
G1 E0.80000 F2100.00000
G1 F3000
G1 X125.018 Y107.242 E0.00554
G1 X125.391 Y107.301 E0.01162
G1 X125.849 Y107.515 E0.01557
G1 X125.847 Y108.238 E0.02227
G1 X125.390 Y108.451 E0.01555
G1 X125.017 Y108.509 E0.01162
G1 X124.644 Y108.450 E0.01162
G1 X124.187 Y108.237 E0.01555
G1 X124.187 Y107.514 E0.02227
G1 X124.646 Y107.300 E0.01557
G1 X124.841 Y107.270 E0.00608
G1 F5760
G1 X124.646 Y107.300 E-0.06840
G1 F5760
G1 X124.187 Y107.514 E-0.17503
G1 F5760
G1 X124.187 Y108.237 E-0.25042
G1 F5760
G1 X124.644 Y108.450 E-0.17482
G1 F5760
G1 X124.905 Y108.492 E-0.09133
G1 E-0.04000 F2100.00000
G1 X121.947 Y108.479 F7200.000
G1 E0.80000 F2100.00000
G1 F3000
G1 X121.947 Y106.329 E0.06622
G1 X119.797 Y106.329 E0.06622
G1 X119.797 Y108.479 E0.06622
G1 X121.947 Y108.479 E0.06622
G1 X121.651 Y108.177 F7200.000
G1 F3000
G1 X121.651 Y106.625 E0.04780
G1 X120.093 Y106.625 E0.04797
G1 X120.093 Y106.663 E0.00116
G1 X120.776 Y106.663 E0.02104
G1 X121.651 Y108.177 E0.05386
G1 F5760
G1 X120.776 Y106.663 E-0.60561
G1 F5760
G1 X120.330 Y106.663 E-0.15439
G1 E-0.04000 F2100.00000
G1 X124.741 Y101.540 F7200.000
G1 E0.80000 F2100.00000
G1 F3000
G1 X125.017 Y101.496 E0.00861
G1 X125.390 Y101.554 E0.01164
G1 X125.839 Y101.763 E0.01523
G1 X125.839 Y102.486 E0.02227
G1 X125.391 Y102.695 E0.01522
G1 X125.018 Y102.754 E0.01164
G1 X124.645 Y102.696 E0.01164
G1 X124.197 Y102.488 E0.01521
G1 X124.196 Y101.765 E0.02227
G1 X124.644 Y101.555 E0.01523
G1 X124.741 Y101.540 E0.00303
G1 X124.695 Y101.247 F7200.000
G1 F3000
G1 X125.017 Y101.196 E0.01005
G1 X125.477 Y101.268 E0.01437
G1 X126.135 Y101.574 E0.02234
G1 X126.135 Y102.674 E0.03390
G1 X125.479 Y102.981 E0.02231
G1 X125.019 Y103.054 E0.01436
G1 X124.558 Y102.982 E0.01436
G1 X123.901 Y102.677 E0.02231
G1 X123.899 Y101.576 E0.03390
G1 X124.556 Y101.269 E0.02234
G1 X124.695 Y101.247 E0.00432
G1 F5760
G1 X124.556 Y101.269 E-0.04857
G1 F5760
G1 X123.899 Y101.576 E-0.25121
G1 F5760
G1 X123.901 Y102.677 E-0.38123
G1 F5760
G1 X124.108 Y102.773 E-0.07899
G1 E-0.04000 F2100.00000
G1 X125.638 Y97.935 F7200.000
G1 E0.80000 F2100.00000
G1 F3000
G1 X126.394 Y96.625 E0.04657
G1 X123.015 Y96.625 E0.10407
G1 X123.015 Y96.958 E0.01024
G1 X124.515 Y96.958 E0.04620
G1 X124.515 Y97.935 E0.03010
G1 X125.638 Y97.935 E0.03458
G1 F5760
G1 X124.515 Y97.935 E-0.38888
G1 F5760
G1 X124.515 Y96.958 E-0.33841
G1 F5760
G1 X124.421 Y96.958 E-0.03271
G1 E-0.04000 F2100.00000
G1 X128.947 Y96.403 F7200.000
G1 E0.80000 F2100.00000
G1 F3000
G1 X128.482 Y96.329 E0.01449
G1 X122.719 Y96.329 E0.17752
G1 X122.719 Y97.254 E0.02849
G1 X124.219 Y97.254 E0.04620
G1 X124.219 Y100.267 E0.09282
G1 X122.695 Y100.269 E0.04693
G1 X122.699 Y103.819 E0.10936
G1 X122.771 Y103.819 E0.00222
G1 X122.771 Y103.694 E0.00385
G1 X127.236 Y103.694 E0.13752
G1 X127.236 Y103.819 E0.00385
G1 X128.818 Y103.819 E0.04873
G1 X128.818 Y104.319 E0.01540
G1 X129.278 Y104.319 E0.01417
G1 X129.278 Y105.681 E0.04193
G1 X128.818 Y105.681 E0.01417
G1 X128.818 Y106.181 E0.01540
G1 X127.236 Y106.181 E0.04873
G1 X127.236 Y106.306 E0.00385
G1 X122.771 Y106.306 E0.13752
G1 X122.771 Y106.181 E0.00385
G1 X122.699 Y106.181 E0.00222
G1 X122.695 Y109.731 E0.10936
G1 X124.219 Y109.733 E0.04693
G1 X124.219 Y112.579 E0.08767
G1 X119.954 Y112.579 E0.13137
G1 X120.132 Y112.928 E0.01207
G1 X120.539 Y113.336 E0.01775
G1 X121.053 Y113.597 E0.01775
G1 X121.518 Y113.671 E0.01449
G1 X126.916 Y113.671 E0.16628
G1 X126.916 Y114.632 E0.02961
G1 X129.461 Y113.336 E0.08796
G1 X129.868 Y112.928 E0.01775
G1 X130.130 Y112.415 E0.01775
G1 X130.203 Y111.950 E0.01449
G1 X130.203 Y98.050 E0.42816
G1 X130.130 Y97.585 E0.01449
G1 X129.868 Y97.072 E0.01775
G1 X129.461 Y96.664 E0.01775
G1 X128.947 Y96.403 E0.01775
G1 X129.907 Y100.742 F7200.000
G1 F3000
G1 X127.082 Y100.742 E0.08702
G1 X125.638 Y98.242 E0.08892
G1 X124.515 Y98.242 E0.03458
G1 X124.515 Y100.563 E0.07151
G1 X122.992 Y100.565 E0.04692
G1 X122.995 Y103.398 E0.08726
G1 X125.725 Y103.398 E0.08410
G1 X127.082 Y101.049 E0.08355
G1 X129.907 Y101.049 E0.08702
G1 X129.907 Y100.742 E0.00946
G1 F5760
G1 X129.907 Y101.049 E-0.10636
G1 F5760
G1 X128.020 Y101.049 E-0.65364
G1 E-0.04000 F2100.00000
G1 X129.907 Y106.356 F7200.000
G1 E0.80000 F2100.00000
G1 F3000
G1 X129.114 Y106.356 E0.02441
G1 X129.114 Y106.477 E0.00372
G1 X127.532 Y106.477 E0.04873
G1 X127.532 Y106.602 E0.00385
G1 X122.995 Y106.602 E0.13976
G1 X122.992 Y109.163 E0.07889
G1 X125.638 Y109.163 E0.08150
G1 X126.033 Y108.479 E0.02434
G1 X125.477 Y108.737 E0.01891
G1 X125.017 Y108.809 E0.01434
G1 X124.557 Y108.736 E0.01434
G1 X123.891 Y108.425 E0.02264
G1 X123.891 Y107.324 E0.03390
G1 X124.559 Y107.014 E0.02267
G1 X125.019 Y106.942 E0.01435
G1 X125.479 Y107.015 E0.01435
G1 X126.145 Y107.327 E0.02267
G1 X126.144 Y108.288 E0.02960
G1 X127.082 Y106.663 E0.05779
G1 X129.907 Y106.663 E0.08702
G1 X129.907 Y106.356 E0.00946
G1 F5760
G1 X129.907 Y106.663 E-0.10636
G1 F5760
G1 X128.020 Y106.663 E-0.65364
G1 E-0.04000 F2100.00000
G1 X129.900 Y111.970 F7200.000
G1 E0.80000 F2100.00000
G1 F3000
G1 X127.082 Y111.970 E0.08681
G1 X125.638 Y109.470 E0.08892
G1 X124.515 Y109.470 E0.03458
G1 X124.515 Y112.875 E0.10489
G1 X121.122 Y112.875 E0.10454
G1 X121.397 Y113.352 E0.01694
G1 X121.541 Y113.375 E0.00450
G1 X126.448 Y113.375 E0.15115
G1 X127.082 Y112.277 E0.03903
G1 X129.851 Y112.277 E0.08531
G1 X129.900 Y111.970 E0.00958
G1 F5760
G1 X129.851 Y112.277 E-0.10768
G1 F5760
G1 X127.968 Y112.277 E-0.65232
G1 E-0.04000 F2100.00000
G1 X121.947 Y98.479 F7200.000
G1 E0.80000 F2100.00000
G1 F3000
G1 X121.947 Y96.329 E0.06622
G1 X121.518 Y96.329 E0.01322
G1 X121.053 Y96.403 E0.01449
G1 X120.539 Y96.664 E0.01775
G1 X120.132 Y97.072 E0.01775
G1 X119.870 Y97.585 E0.01775
G1 X119.797 Y98.050 E0.01449
G1 X119.797 Y98.479 E0.01322
G1 X121.947 Y98.479 E0.06622
G1 X121.651 Y96.949 F7200.000
G1 F3000
G1 X121.651 Y96.625 E0.00997
G1 X121.470 Y96.637 E0.00557
G1 X121.651 Y96.949 E0.01111
G1 F5760
G1 X121.470 Y96.637 E-0.12495
G1 F5760
G1 X121.651 Y96.625 E-0.06260
G1 F5760
G1 X121.651 Y96.949 E-0.11209
G1 E-0.50036 F2100.00000
G1 Z0.550 F7200.000
G1 X126.079 Y105.148 F7200.000
G1 E0.80000 F2100.00000
M204 S800
G1 F1200
G1 X123.928 Y105.148 E0.07279
G1 X123.928 Y104.851 E0.01005
G1 X126.079 Y104.851 E0.07279
G1 X126.079 Y105.088 E0.00802
M204 S1000
G1 X126.486 Y105.556 F7200.000
M204 S800
G1 F1200
G1 X123.521 Y105.556 E0.10035
G1 X123.521 Y104.444 E0.03761
G1 X126.486 Y104.444 E0.10035
G1 X126.486 Y105.496 E0.03558
M204 S1000
G1 X126.089 Y105.508 F7200.000
G1 F5760
G1 X124.292 Y105.540 E-0.76000
G1 E-0.04000 F2100.00000
G1 Z0.700 F7200.000
G1 X124.841 Y107.270 F7200.000
G1 E0.80000 F2100.00000
G1 F3000
G1 X125.018 Y107.242 E0.00640
G1 X125.391 Y107.301 E0.01344
G1 X125.849 Y107.515 E0.01800
G1 X125.847 Y108.238 E0.02576
G1 X125.390 Y108.451 E0.01798
G1 X125.017 Y108.509 E0.01344
G1 X124.644 Y108.450 E0.01344
G1 X124.187 Y108.237 E0.01798
G1 X124.187 Y107.514 E0.02576
G1 X124.646 Y107.300 E0.01800
G1 X124.841 Y107.270 E0.00704
G1 F5760
G1 X124.646 Y107.300 E-0.06840
G1 F5760
G1 X124.187 Y107.514 E-0.17503
G1 F5760
G1 X124.187 Y108.237 E-0.25042
G1 F5760
G1 X124.644 Y108.450 E-0.17482
G1 F5760
G1 X124.905 Y108.492 E-0.09133
G1 E-0.04000 F2100.00000
G1 X121.947 Y108.479 F7200.000
G1 E0.80000 F2100.00000
G1 F3000
G1 X121.947 Y106.329 E0.07659
G1 X119.797 Y106.329 E0.07659
G1 X119.797 Y108.479 E0.07659
G1 X121.947 Y108.479 E0.07659
G1 X121.661 Y108.193 F7200.000
G1 F3000
G1 X121.661 Y106.615 E0.05624
G1 X120.082 Y106.615 E0.05624
G1 X120.082 Y106.663 E0.00172
G1 X120.776 Y106.663 E0.02471
G1 X121.661 Y108.193 E0.06298
G1 F5760
G1 X120.776 Y106.663 E-0.61229
G1 F5760
G1 X120.350 Y106.663 E-0.14771
G1 E-0.04000 F2100.00000
G1 X124.741 Y101.540 F7200.000
G1 E0.80000 F2100.00000
G1 F3000
G1 X125.017 Y101.496 E0.00995
G1 X125.390 Y101.554 E0.01346
G1 X125.839 Y101.763 E0.01762
G1 X125.839 Y102.486 E0.02576
G1 X125.391 Y102.695 E0.01760
G1 X125.018 Y102.754 E0.01346
G1 X124.645 Y102.696 E0.01346
G1 X124.197 Y102.488 E0.01760
G1 X124.196 Y101.765 E0.02576
G1 X124.644 Y101.555 E0.01762
G1 X124.741 Y101.540 E0.00351
G1 X124.696 Y101.258 F7200.000
G1 F3000
G1 X125.017 Y101.207 E0.01156
G1 X125.474 Y101.278 E0.01650
G1 X126.124 Y101.581 E0.02554
G1 X126.125 Y102.668 E0.03872
G1 X125.476 Y102.971 E0.02551
G1 X125.019 Y103.043 E0.01650
G1 X124.561 Y102.972 E0.01650
G1 X123.912 Y102.670 E0.02551
G1 X123.910 Y101.583 E0.03872
G1 X124.559 Y101.279 E0.02554
G1 X124.696 Y101.258 E0.00494
G1 F5760
G1 X124.559 Y101.279 E-0.04805
G1 F5760
G1 X123.910 Y101.583 E-0.24832
G1 F5760
G1 X123.912 Y102.670 E-0.37650
G1 F5760
G1 X124.140 Y102.776 E-0.08714
G1 E-0.04000 F2100.00000
G1 X125.638 Y97.935 F7200.000
G1 E0.80000 F2100.00000
G1 F3000
G1 X126.400 Y96.615 E0.05430
G1 X123.005 Y96.615 E0.12097
