; generated by Slic3r 1.3.0-dev on 2016-08-21 at 18:06:24

; external perimeters extrusion width = 0.45mm
; perimeters extrusion width = 0.45mm
; infill extrusion width = 0.45mm
; solid infill extrusion width = 0.45mm
; top infill extrusion width = 0.40mm

M107
M83  ; extruder relative mode
M104 S210 ; set extruder temp
M140 S55 ; set bed temp
M190 S55 ; wait for bed temp
M109 S210 ; wait for extruder temp
G28 W ; home all without mesh bed level
G80 ; mesh bed leveling
G1 Y-3.0 F1000.0 ; go outside pritn area
G1 X60.0 E9.0  F1000.0 ; intro line
G1 X100.0 E12.5  F1000.0 ; intro line
G21 ; set units to millimeters
G90 ; use absolute coordinates
M83 ; use relative distances for extrusion
G1 E-0.80000 F2100.00000
G1 Z0.150 F7200.000
G1 X117.501 Y98.417 F7200.000
G1 E0.80000 F2100.00000
M204 S1000
G1 F1800
G1 X117.739 Y98.155 E0.00855
G1 X118.057 Y97.856 E0.01056
G1 X118.337 Y97.623 E0.00882
G1 X118.684 Y97.377 E0.01028
G1 X118.921 Y97.225 E0.00680
G1 X119.423 Y96.961 E0.01373
G1 X119.639 Y96.864 E0.00572
G1 X120.160 Y96.675 E0.01341
G1 X120.487 Y96.585 E0.00820
G1 X127.557 Y95.006 E0.17520
G1 X129.135 Y95.057 E0.03817
G1 X130.483 Y95.856 E0.03791
G1 X132.544 Y97.917 E0.07050
G1 X133.347 Y99.276 E0.03817
G1 X133.471 Y100.154 E0.02144
G1 X133.471 Y109.846 E0.23441
G1 X133.077 Y111.375 E0.03817
G1 X132.544 Y112.083 E0.02144
G1 X130.483 Y114.144 E0.07050
G1 X129.124 Y114.946 E0.03817
G1 X127.557 Y114.994 E0.03791
G1 X120.487 Y113.415 E0.17520
G1 X120.160 Y113.325 E0.00820
G1 X119.639 Y113.136 E0.01342
G1 X119.423 Y113.039 E0.00571
G1 X118.921 Y112.775 E0.01373
G1 X118.684 Y112.623 E0.00680
G1 X118.338 Y112.377 E0.01027
G1 X118.057 Y112.144 E0.00883
G1 X117.739 Y111.845 E0.01056
G1 X117.501 Y111.583 E0.00855
G1 X117.221 Y111.236 E0.01079
G1 X116.856 Y110.671 E0.01626
G1 X116.643 Y110.263 E0.01114
G1 X116.462 Y109.840 E0.01113
G1 X116.234 Y109.079 E0.01920
G1 X116.128 Y108.435 E0.01579
G1 X116.096 Y107.975 E0.01115
G1 X116.096 Y102.025 E0.14389
G1 X116.112 Y101.704 E0.00778
G1 X116.173 Y101.240 E0.01132
G1 X116.234 Y100.921 E0.00786
G1 X116.357 Y100.473 E0.01124
G1 X116.462 Y100.160 E0.00797
G1 X116.643 Y99.737 E0.01113
G1 X116.793 Y99.437 E0.00812
G1 X117.027 Y99.048 E0.01098
G1 X117.221 Y98.764 E0.00831
G1 X117.463 Y98.463 E0.00934
G1 X117.802 Y98.661 F7200.000
G1 F1800
G1 X118.011 Y98.432 E0.00750
G1 X118.322 Y98.140 E0.01033
G1 X118.568 Y97.935 E0.00774
G1 X118.908 Y97.694 E0.01008
G1 X119.117 Y97.560 E0.00601
G1 X119.595 Y97.308 E0.01306
G1 X120.282 Y97.044 E0.01780
G1 X120.572 Y96.963 E0.00728
G1 X127.642 Y95.384 E0.17520
G1 X129.117 Y95.457 E0.03571
G1 X130.209 Y96.130 E0.03103
G1 X132.270 Y98.191 E0.07050
G1 X133.083 Y100.154 E0.05138
G1 X133.083 Y109.846 E0.23441
G1 X132.270 Y111.809 E0.05138
G1 X130.209 Y113.870 E0.07050
G1 X128.925 Y114.599 E0.03571
G1 X127.642 Y114.616 E0.03103
G1 X120.572 Y113.037 E0.17520
G1 X120.282 Y112.956 E0.00727
G1 X119.595 Y112.692 E0.01780
G1 X119.117 Y112.440 E0.01307
G1 X118.908 Y112.306 E0.00600
G1 X118.568 Y112.065 E0.01008
G1 X118.322 Y111.860 E0.00775
G1 X118.011 Y111.568 E0.01032
G1 X117.802 Y111.339 E0.00750
G1 X117.528 Y110.999 E0.01053
G1 X117.187 Y110.470 E0.01524
G1 X116.998 Y110.108 E0.00986
G1 X116.822 Y109.697 E0.01083
G1 X116.611 Y108.987 E0.01791
G1 X116.513 Y108.382 E0.01482
G1 X116.484 Y107.975 E0.00987
G1 X116.484 Y102.025 E0.14389
G1 X116.498 Y101.743 E0.00682
G1 X116.557 Y101.293 E0.01099
G1 X116.611 Y101.013 E0.00689
G1 X116.730 Y100.577 E0.01092
G1 X116.822 Y100.303 E0.00699
G1 X116.998 Y99.892 E0.01083
G1 X117.130 Y99.628 E0.00712
G1 X117.358 Y99.249 E0.01070
G1 X117.528 Y99.000 E0.00729
G1 X117.764 Y98.708 E0.00908
G1 X118.103 Y98.906 F7200.000
G1 F1800
G1 X118.282 Y98.709 E0.00645
G1 X118.586 Y98.423 E0.01009
G1 X118.798 Y98.247 E0.00666
G1 X119.131 Y98.010 E0.00989
G1 X119.313 Y97.894 E0.00521
G1 X119.767 Y97.656 E0.01240
G1 X120.416 Y97.408 E0.01681
G1 X127.726 Y95.763 E0.18121
G1 X129.090 Y95.859 E0.03307
G1 X129.935 Y96.404 E0.02431
G1 X131.996 Y98.465 E0.07050
G1 X132.695 Y100.154 E0.04420
G1 X132.695 Y109.846 E0.23441
G1 X131.996 Y111.535 E0.04420
G1 X129.935 Y113.596 E0.07050
G1 X128.731 Y114.245 E0.03307
G1 X127.726 Y114.237 E0.02431
G1 X120.656 Y112.658 E0.17520
G1 X120.403 Y112.588 E0.00635
G1 X119.920 Y112.413 E0.01242
G1 X119.422 Y112.166 E0.01346
G1 X119.131 Y111.990 E0.00822
G1 X118.798 Y111.753 E0.00988
G1 X118.586 Y111.577 E0.00667
G1 X118.282 Y111.291 E0.01009
G1 X117.895 Y110.838 E0.01441
G1 X117.689 Y110.549 E0.00858
G1 X117.467 Y110.180 E0.01042
G1 X117.183 Y109.554 E0.01664
G1 X116.987 Y108.895 E0.01661
G1 X116.887 Y108.247 E0.01586
G1 X116.872 Y107.975 E0.00659
G1 X116.872 Y102.025 E0.14389
G1 X116.897 Y101.671 E0.00859
G1 X116.987 Y101.105 E0.01386
G1 X117.183 Y100.446 E0.01661
G1 X117.354 Y100.046 E0.01052
G1 X117.518 Y99.732 E0.00858
G1 X117.836 Y99.237 E0.01422
G1 X118.065 Y98.953 E0.00882
G1 F5760
G1 X118.282 Y98.709 E-0.11317
G1 F5760
G1 X118.303 Y98.689 E-0.00984
G1 F5760
G1 X118.345 Y98.648 E-0.02051
G1 F5760
G1 X118.586 Y98.423 E-0.11420
G1 F5760
G1 X118.798 Y98.247 E-0.09539
G1 F5760
G1 X118.802 Y98.244 E-0.00160
G1 F5760
G1 X118.802 Y98.244 E-0.00010
G1 F5760
G1 X118.821 Y98.230 E-0.00810
G1 F5760
G1 X118.862 Y98.201 E-0.01741
G1 F5760
G1 X119.131 Y98.010 E-0.11438
G1 F5760
G1 X119.301 Y97.901 E-0.06987
G1 F5760
G1 X119.313 Y97.894 E-0.00481
G1 F5760
G1 X119.422 Y97.834 E-0.04308
G1 F5760
G1 X119.715 Y97.682 E-0.11446
G1 F5760
G1 X119.755 Y97.662 E-0.01527
G1 F5760
G1 X119.767 Y97.656 E-0.00482
G1 F5760
G1 X119.801 Y97.640 E-0.01299
G1 E-0.04000 F2100.00000
G1 X123.130 Y108.774 F7200.000
G1 E0.80000 F2100.00000
G1 F720
G1 X122.840 Y109.066 E0.00996
G1 X122.484 Y109.273 E0.00996
G1 X122.083 Y109.382 E0.01005
G1 X121.674 Y109.382 E0.00989
G1 X121.276 Y109.277 E0.00994
G1 X120.919 Y109.072 E0.00996
G1 X120.621 Y108.776 E0.01017
G1 X120.409 Y108.388 E0.01069
G1 X120.312 Y108.029 E0.00900
G1 X120.311 Y107.617 E0.00996
G1 X120.416 Y107.219 E0.00996
G1 X120.621 Y106.861 E0.00996
G1 X120.911 Y106.569 E0.00996
G1 X121.267 Y106.362 E0.00996
G1 X121.664 Y106.254 E0.00996
G1 X122.037 Y106.253 E0.00902
G1 X122.467 Y106.354 E0.01067
G1 X122.831 Y106.563 E0.01016
G1 X123.124 Y106.853 E0.00996
G1 X123.331 Y107.209 E0.00996
G1 X123.439 Y107.606 E0.00996
G1 X123.440 Y108.018 E0.00996
G1 X123.335 Y108.416 E0.00996
G1 X123.160 Y108.722 E0.00851
G1 X122.819 Y108.537 F7200.000
G1 F720
G1 X122.601 Y108.756 E0.00749
G1 X122.333 Y108.912 E0.00749
G1 X122.031 Y108.994 E0.00757
G1 X121.724 Y108.994 E0.00742
G1 X121.425 Y108.915 E0.00748
G1 X121.156 Y108.761 E0.00749
G1 X120.934 Y108.541 E0.00756
G1 X120.772 Y108.242 E0.00822
G1 X120.700 Y107.976 E0.00666
G1 X120.699 Y107.667 E0.00749
G1 X120.778 Y107.367 E0.00749
G1 X120.932 Y107.098 E0.00749
G1 X121.150 Y106.879 E0.00749
G1 X121.418 Y106.723 E0.00749
G1 X121.716 Y106.642 E0.00749
G1 X121.993 Y106.641 E0.00668
G1 X122.323 Y106.718 E0.00820
G1 X122.594 Y106.874 E0.00756
G1 X122.814 Y107.092 E0.00749
G1 X122.970 Y107.360 E0.00749
G1 X123.051 Y107.659 E0.00749
G1 X123.052 Y107.968 E0.00749
G1 X122.973 Y108.268 E0.00749
G1 X122.849 Y108.484 E0.00604
G1 X122.926 Y108.827 F7200.000
G1 F5760
G1 X122.601 Y108.756 E-0.12746
G1 F5760
G1 X122.333 Y108.912 E-0.10727
G1 F5760
G1 X122.031 Y108.994 E-0.10835
G1 F5760
G1 X121.724 Y108.994 E-0.10633
G1 F5760
G1 X121.425 Y108.915 E-0.10716
G1 F5760
G1 X121.156 Y108.761 E-0.10727
G1 F5760
G1 X120.959 Y108.565 E-0.09617
G1 E-0.04000 F2100.00000
G1 X128.246 Y111.063 F7200.000
G1 E0.80000 F2100.00000
G1 F720
G1 X127.001 Y109.824 E0.04246
G1 X121.880 Y109.824 E0.12386
G1 X121.596 Y109.804 E0.00687
G1 X121.337 Y109.750 E0.00639
G1 X121.065 Y109.654 E0.00699
G1 X120.821 Y109.527 E0.00666
G1 X120.595 Y109.368 E0.00668
G1 X120.394 Y109.179 E0.00668
G1 X120.220 Y108.964 E0.00668
G1 X120.077 Y108.728 E0.00667
G1 X119.968 Y108.475 E0.00667
G1 X119.894 Y108.209 E0.00667
G1 X119.857 Y107.936 E0.00667
G1 X119.858 Y107.659 E0.00669
G1 X119.892 Y107.413 E0.00601
G1 X119.973 Y107.120 E0.00735
G1 X120.082 Y106.869 E0.00661
G1 X120.227 Y106.633 E0.00669
G1 X120.384 Y106.440 E0.00603
G1 X120.605 Y106.232 E0.00734
G1 X120.829 Y106.075 E0.00663
G1 X121.068 Y105.952 E0.00648
G1 X121.314 Y105.864 E0.00632
G1 X121.599 Y105.803 E0.00705
G1 X121.893 Y105.783 E0.00713
G1 X125.394 Y105.783 E0.08468
G1 X129.462 Y109.847 E0.13906
G1 X128.288 Y111.020 E0.04014
G1 X128.246 Y111.610 F7200.000
G1 F720
G1 X126.841 Y110.212 E0.04795
G1 X121.866 Y110.212 E0.12032
G1 X121.543 Y110.189 E0.00783
G1 X121.233 Y110.125 E0.00766
G1 X120.910 Y110.011 E0.00829
G1 X120.618 Y109.859 E0.00796
G1 X120.349 Y109.669 E0.00797
G1 X120.109 Y109.443 E0.00797
G1 X119.902 Y109.188 E0.00796
G1 X119.731 Y108.906 E0.00796
G1 X119.601 Y108.604 E0.00796
G1 X119.513 Y108.287 E0.00795
G1 X119.469 Y107.961 E0.00795
G1 X119.470 Y107.632 E0.00796
G1 X119.511 Y107.335 E0.00726
G1 X119.606 Y106.990 E0.00865
G1 X119.738 Y106.689 E0.00793
G1 X119.910 Y106.409 E0.00796
G1 X120.100 Y106.175 E0.00728
G1 X120.360 Y105.930 E0.00864
G1 X120.628 Y105.742 E0.00794
G1 X120.913 Y105.596 E0.00774
G1 X121.207 Y105.490 E0.00756
G1 X121.545 Y105.418 E0.00834
G1 X121.879 Y105.395 E0.00811
G1 X125.554 Y105.395 E0.08888
G1 X130.010 Y109.846 E0.15233
G1 X128.289 Y111.568 E0.05888
G1 X128.025 Y111.277 F7200.000
G1 F5760
G1 X126.841 Y110.212 E-0.68702
G1 F5760
G1 X126.630 Y110.212 E-0.07298
G1 E-0.04000 F2100.00000
G1 X129.078 Y109.929 F7200.000
G1 E0.80000 F2100.00000
G1 F1440
G1 X125.159 Y106.010 E0.13483
G1 X124.608 Y106.010 E0.01342
G1 X128.802 Y110.205 E0.14432
G1 X128.526 Y110.481 E0.00949
G1 X124.056 Y106.010 E0.15381
G1 X123.504 Y106.010 E0.01342
G1 X127.091 Y109.597 E0.12340
G1 X126.539 Y109.597 E0.01343
G1 X122.987 Y106.045 E0.12221
G1 F5760
G1 X124.539 Y107.597 E-0.76000
G1 E-0.04000 F2100.00000
G1 X123.589 Y107.198 F7200.000
G1 E0.80000 F2100.00000
G1 F1440
G1 X125.987 Y109.597 E0.08252
G1 X125.435 Y109.597 E0.01343
G1 X123.667 Y107.828 E0.06084
G1 X123.583 Y108.296 E0.01156
G1 X124.883 Y109.597 E0.04476
G1 X124.332 Y109.597 E0.01343
G1 X123.413 Y108.677 E0.03163
G1 X123.180 Y108.997 E0.00961
G1 X123.780 Y109.597 E0.02063
G1 X123.228 Y109.597 E0.01343
G1 X123.018 Y109.386 E0.00723
G1 X122.790 Y109.498 F7200.000
G1 F1440
G1 X122.427 Y109.561 E0.00362
G1 F1440
G1 X122.116 Y109.602 E0.00208
G1 F1440
G1 X121.809 Y109.600 E0.00044
G1 X121.484 Y109.558 F7200.000
G1 F1440
G1 X121.331 Y109.517 E0.00022
G1 X121.072 Y109.412 F7200.000
G1 F1440
G1 X120.868 Y109.294 E0.00035
G1 X120.755 Y109.215 F7200.000
G1 F1440
G1 X120.494 Y108.957 E0.00042
G1 X120.431 Y108.880 F7200.000
G1 F1440
G1 X120.204 Y108.467 E0.00068
G1 X120.115 Y108.164 E0.00046
G1 X120.052 Y107.848 E0.00046
G1 X120.107 Y108.252 F7200.000
G1 F1440
G1 X120.084 Y107.675 E0.00183
G1 X120.116 Y107.459 E0.00069
G1 X120.210 Y107.130 E0.00108
G1 X120.444 Y106.722 E0.00149
G1 X120.769 Y106.392 E0.00146
G1 X121.175 Y106.154 E0.00149
G1 X121.630 Y106.028 E0.00149
G1 X122.069 Y106.018 E0.00139
G1 F1440
G1 X122.397 Y106.057 E0.00261
G1 F1440
G1 X122.740 Y106.121 E0.00429
G1 F5760
G1 X122.397 Y106.057 E-0.12101
G1 E-0.67899 F2100.00000
G1 X122.831 Y103.437 F7200.000
G1 E0.80000 F2100.00000
G1 F720
G1 X122.474 Y103.642 E0.00996
G1 X122.076 Y103.747 E0.00996
G1 X121.664 Y103.746 E0.00996
G1 X121.267 Y103.638 E0.00996
G1 X120.911 Y103.431 E0.00996
G1 X120.621 Y103.139 E0.00996
G1 X120.416 Y102.781 E0.00996
G1 X120.311 Y102.383 E0.00996
G1 X120.312 Y101.971 E0.00996
G1 X120.420 Y101.574 E0.00996
G1 X120.627 Y101.218 E0.00996
G1 X120.919 Y100.928 E0.00996
G1 X121.276 Y100.723 E0.00996
G1 X121.675 Y100.618 E0.00996
G1 X122.086 Y100.619 E0.00996
G1 X122.484 Y100.727 E0.00996
G1 X122.840 Y100.934 E0.00996
G1 X123.130 Y101.226 E0.00996
G1 X123.335 Y101.584 E0.00996
G1 X123.440 Y101.982 E0.00996
G1 X123.439 Y102.394 E0.00996
G1 X123.331 Y102.791 E0.00996
G1 X123.124 Y103.147 E0.00996
G1 X122.874 Y103.395 E0.00851
G1 X122.594 Y103.126 F7200.000
G1 F720
G1 X122.326 Y103.280 E0.00749
G1 X122.026 Y103.359 E0.00749
G1 X121.716 Y103.358 E0.00749
G1 X121.418 Y103.277 E0.00749
G1 X121.150 Y103.121 E0.00749
G1 X120.932 Y102.902 E0.00749
G1 X120.778 Y102.633 E0.00749
G1 X120.699 Y102.333 E0.00749
G1 X120.700 Y102.024 E0.00749
G1 X120.781 Y101.725 E0.00749
G1 X120.936 Y101.457 E0.00749
G1 X121.156 Y101.239 E0.00749
G1 X121.425 Y101.085 E0.00749
G1 X121.724 Y101.006 E0.00749
G1 X122.034 Y101.007 E0.00749
G1 X122.333 Y101.088 E0.00749
G1 X122.601 Y101.244 E0.00749
G1 X122.819 Y101.463 E0.00749
G1 X122.973 Y101.732 E0.00749
G1 X123.052 Y102.032 E0.00749
G1 X123.051 Y102.341 E0.00749
G1 X122.970 Y102.640 E0.00749
G1 X122.814 Y102.908 E0.00749
G1 X122.637 Y103.084 E0.00604
G1 X122.634 Y103.433 F7200.000
G1 F5760
G1 X122.326 Y103.280 E-0.12746
G1 F5760
G1 X122.026 Y103.359 E-0.10727
G1 F5760
G1 X121.716 Y103.358 E-0.10727
G1 F5760
G1 X121.418 Y103.277 E-0.10727
G1 F5760
G1 X121.150 Y103.121 E-0.10727
G1 F5760
G1 X120.932 Y102.902 E-0.10727
G1 F5760
G1 X120.794 Y102.661 E-0.09621
G1 E-0.04000 F2100.00000
G1 X128.246 Y98.937 F7200.000
G1 E0.80000 F2100.00000
G1 F720
G1 X129.462 Y100.153 E0.04159
G1 X125.394 Y104.217 E0.13906
G1 X121.894 Y104.217 E0.08464
G1 X121.585 Y104.194 E0.00748
G1 X121.314 Y104.136 E0.00671
G1 X121.068 Y104.048 E0.00633
G1 X120.829 Y103.925 E0.00648
G1 X120.603 Y103.767 E0.00668
G1 X120.403 Y103.581 E0.00662
G1 X120.212 Y103.344 E0.00734
G1 X120.083 Y103.131 E0.00603
G1 X119.972 Y102.878 E0.00669
G1 X119.897 Y102.615 E0.00661
G1 X119.857 Y102.314 E0.00735
G1 X119.857 Y102.065 E0.00601
G1 X119.894 Y101.793 E0.00663
G1 X119.977 Y101.501 E0.00735
G1 X120.077 Y101.273 E0.00602
G1 X120.219 Y101.038 E0.00663
G1 X120.412 Y100.803 E0.00735
G1 X120.595 Y100.633 E0.00605
G1 X120.821 Y100.473 E0.00670
G1 X121.066 Y100.345 E0.00668
G1 X121.326 Y100.252 E0.00668
G1 X121.597 Y100.196 E0.00669
G1 X121.880 Y100.176 E0.00686
G1 X127.001 Y100.176 E0.12386
G1 X128.203 Y98.980 E0.04101
G1 X128.246 Y98.390 F7200.000
G1 F720
G1 X130.010 Y100.154 E0.06033
G1 X125.554 Y104.605 E0.15233
G1 X121.880 Y104.605 E0.08887
G1 X121.530 Y104.579 E0.00848
G1 X121.208 Y104.510 E0.00798
G1 X120.913 Y104.404 E0.00757
G1 X120.628 Y104.258 E0.00774
G1 X120.359 Y104.069 E0.00796
G1 X120.118 Y103.846 E0.00794
G1 X119.894 Y103.568 E0.00864
G1 X119.738 Y103.311 E0.00727
G1 X119.606 Y103.009 E0.00796
G1 X119.516 Y102.694 E0.00793
G1 X119.469 Y102.339 E0.00865
G1 X119.469 Y102.039 E0.00726
G1 X119.513 Y101.714 E0.00794
G1 X119.612 Y101.370 E0.00865
G1 X119.731 Y101.094 E0.00727
G1 X119.901 Y100.813 E0.00795
G1 X120.128 Y100.537 E0.00864
G1 X120.349 Y100.331 E0.00730
G1 X120.618 Y100.141 E0.00797
G1 X120.910 Y99.989 E0.00797
G1 X121.221 Y99.878 E0.00797
G1 X121.543 Y99.811 E0.00797
G1 X121.866 Y99.788 E0.00783
G1 X126.841 Y99.788 E0.12032
G1 X128.204 Y98.432 E0.04650
G1 X128.275 Y98.789 F7200.000
G1 F5760
G1 X129.792 Y99.946 E-0.76000
G1 E-0.04000 F2100.00000
G1 X129.078 Y100.236 F7200.000
G1 E0.80000 F2100.00000
G1 F1440
G1 X128.149 Y99.307 E0.03287
G1 X127.864 Y99.590 E0.01004
G1 X128.794 Y100.519 E0.03290
G1 X128.510 Y100.803 E0.01004
G1 X127.580 Y99.873 E0.03292
G1 X127.296 Y100.156 E0.01004
G1 X128.227 Y101.087 E0.03295
G1 X127.943 Y101.370 E0.01004
G1 X126.976 Y100.403 E0.03423
G1 X126.408 Y100.403 E0.01420
G1 X127.659 Y101.654 E0.04426
G1 X127.376 Y101.938 E0.01004
G1 X125.841 Y100.403 E0.05430
G1 X125.274 Y100.403 E0.01420
G1 X127.092 Y102.222 E0.06434
G1 X126.808 Y102.505 E0.01004
G1 X124.706 Y100.403 E0.07438
G1 X124.139 Y100.403 E0.01420
G1 X126.525 Y102.789 E0.08441
G1 X126.241 Y103.073 E0.01004
G1 X123.572 Y100.403 E0.09445
G1 X123.034 Y100.433 E0.01347
G1 X125.957 Y103.356 E0.10344
G1 X125.673 Y103.640 E0.01004
G1 X123.586 Y101.553 E0.07385
G1 X123.666 Y102.200 E0.01632
G1 X125.390 Y103.924 E0.06098
G1 X124.888 Y103.990 E0.01266
G1 X123.577 Y102.679 E0.04638
G1 X123.398 Y103.067 E0.01070
G1 X124.321 Y103.990 E0.03264
G1 X123.753 Y103.990 E0.01420
G1 X123.154 Y103.390 E0.02122
G1 X122.973 Y103.777 E0.01068
G1 X123.186 Y103.990 E0.00753
G1 X122.740 Y103.879 F7200.000
G1 F1440
G1 X122.420 Y103.941 E0.00348
G1 F1440
