; generated by Slic3r 1.3.0-dev on 2016-08-21 at 18:07:32

; external perimeters extrusion width = 0.45mm
; perimeters extrusion width = 0.45mm
; infill extrusion width = 0.45mm
; solid infill extrusion width = 0.45mm
; top infill extrusion width = 0.40mm

M107
M83  ; extruder relative mode
M104 S210 ; set extruder temp
M140 S55 ; set bed temp
M190 S55 ; wait for bed temp
M109 S210 ; wait for extruder temp
G28 W ; home all without mesh bed level
G80 ; mesh bed leveling
G1 Y-3.0 F1000.0 ; go outside pritn area
G1 X60.0 E9.0  F1000.0 ; intro line
G1 X100.0 E12.5  F1000.0 ; intro line
G21 ; set units to millimeters
G90 ; use absolute coordinates
M83 ; use relative distances for extrusion
G1 E-0.80000 F2100.00000
G1 Z0.150 F7200.000
G1 X118.352 Y96.129 F7200.000
G1 E0.80000 F2100.00000
M204 S1000
G1 F1800
G1 X119.435 Y94.981 E0.03817
G1 X121.122 Y94.494 E0.04246
G1 X128.878 Y94.494 E0.18758
G1 X130.406 Y94.888 E0.03817
G1 X131.554 Y95.971 E0.03817
G1 X132.042 Y97.657 E0.04246
G1 X132.042 Y112.343 E0.35516
G1 X131.648 Y113.871 E0.03817
G1 X130.565 Y115.019 E0.03817
G1 X128.878 Y115.506 E0.04246
G1 X121.122 Y115.506 E0.18758
G1 X119.594 Y115.112 E0.03817
G1 X118.446 Y114.029 E0.03817
G1 X117.958 Y112.343 E0.04246
G1 X117.958 Y97.657 E0.35516
G1 X118.337 Y96.187 E0.03672
G1 X118.739 Y96.234 F7200.000
G1 F1800
G1 X119.806 Y95.213 E0.03571
G1 X121.122 Y94.882 E0.03281
G1 X128.878 Y94.882 E0.18758
G1 X130.302 Y95.275 E0.03571
G1 X131.322 Y96.342 E0.03571
G1 X131.654 Y97.657 E0.03281
G1 X131.654 Y112.343 E0.35516
G1 X131.261 Y113.766 E0.03571
G1 X130.194 Y114.787 E0.03571
G1 X128.878 Y115.118 E0.03281
G1 X121.122 Y115.118 E0.18758
G1 X119.698 Y114.725 E0.03571
G1 X118.678 Y113.658 E0.03571
G1 X118.346 Y112.343 E0.03281
G1 X118.346 Y97.657 E0.35516
G1 X118.723 Y96.292 E0.03426
G1 X119.126 Y96.347 F7200.000
G1 F1800
G1 X120.172 Y95.467 E0.03307
G1 X121.122 Y95.270 E0.02346
G1 X128.878 Y95.270 E0.18758
G1 X130.188 Y95.661 E0.03307
G1 X131.069 Y96.708 E0.03307
G1 X131.266 Y97.657 E0.02346
G1 X131.266 Y112.343 E0.35516
G1 X130.874 Y113.653 E0.03307
G1 X129.828 Y114.533 E0.03307
G1 X128.878 Y114.730 E0.02346
G1 X121.122 Y114.730 E0.18758
G1 X119.812 Y114.339 E0.03307
G1 X118.931 Y113.292 E0.03307
G1 X118.734 Y112.343 E0.02346
G1 X118.734 Y97.657 E0.35516
G1 X119.108 Y96.405 E0.03162
G1 F5760
G1 X120.172 Y95.467 E-0.49117
G1 F5760
G1 X120.932 Y95.309 E-0.26883
G1 E-0.04000 F2100.00000
G1 X128.113 Y111.325 F7200.000
G1 E0.80000 F2100.00000
G1 F720
G1 X121.887 Y111.325 E0.15058
G1 X121.887 Y106.110 E0.12613
G1 X128.113 Y106.110 E0.15058
G1 X128.113 Y111.265 E0.12468
G1 X128.228 Y111.709 F7200.000
G1 X128.280 Y111.713 F7200.000
G1 F720
G1 X128.280 Y111.745 E0.00077
G1 X121.720 Y111.745 E0.15867
G1 X121.720 Y111.713 E0.00077
G1 X128.220 Y111.713 E0.15722
G1 X128.668 Y112.133 F7200.000
G1 F720
G1 X121.332 Y112.133 E0.17743
G1 X121.332 Y105.557 E0.15903
G1 X128.668 Y105.557 E0.17743
G1 X128.668 Y112.073 E0.15758
G1 X128.280 Y112.036 F7200.000
G1 X128.391 Y111.519 F7200.000
G1 F1440
G1 X128.391 Y105.916 E0.04717
G1 X128.377 Y105.848 E0.00058
G1 X128.307 Y105.834 E0.00060
G1 X121.693 Y105.834 E0.05569
G1 X121.623 Y105.848 E0.00060
G1 X121.609 Y105.916 E0.00058
G1 X121.609 Y111.519 E0.04717
G1 F5760
G1 X121.609 Y109.325 E-0.76000
G1 E-0.04000 F2100.00000
G1 X128.113 Y103.890 F7200.000
G1 E0.80000 F2100.00000
G1 F720
G1 X121.887 Y103.890 E0.15058
G1 X121.887 Y98.675 E0.12613
G1 X128.113 Y98.675 E0.15058
G1 X128.113 Y103.830 E0.12468
G1 X128.224 Y104.274 F7200.000
G1 F5760
G1 X125.919 Y103.851 E-0.76000
G1 E-0.04000 F2100.00000
G1 X128.280 Y98.287 F7200.000
G1 E0.80000 F2100.00000
G1 F720
G1 X121.720 Y98.287 E0.15867
G1 X121.720 Y98.255 E0.00077
G1 X128.252 Y98.255 E0.15798
G1 X128.668 Y97.867 F7200.000
G1 F720
G1 X128.668 Y104.443 E0.15903
G1 X121.332 Y104.443 E0.17743
G1 X121.332 Y97.867 E0.15903
G1 X128.608 Y97.867 E0.17598
G1 X128.558 Y98.252 F7200.000
G1 X128.391 Y98.481 F7200.000
G1 F1440
G1 X128.391 Y104.084 E0.04717
G1 X128.377 Y104.152 E0.00058
G1 X128.307 Y104.166 E0.00060
G1 X121.693 Y104.166 E0.05569
G1 X121.623 Y104.152 E0.00060
G1 X121.609 Y104.084 E0.00058
G1 X121.609 Y98.481 E0.04717
M106 S216.75
G1 F5760
G1 X121.609 Y100.675 E-0.76000
G1 E-0.04000 F2100.00000
G1 Z0.350 F7200.000
G1 X128.128 Y106.095 F7200.000
G1 E0.80000 F2100.00000
M204 S800
G1 F1200
G1 X128.128 Y111.340 E0.17755
G1 X121.872 Y111.340 E0.21177
G1 X121.872 Y106.095 E0.17755
G1 X128.068 Y106.095 E0.20974
M204 S1000
G1 X128.521 Y106.019 F7200.000
G1 X128.653 Y105.572 F7200.000
M204 S800
G1 F1200
G1 X128.653 Y112.118 E0.22156
G1 X121.347 Y112.118 E0.24731
G1 X121.347 Y105.572 E0.22156
G1 X128.593 Y105.572 E0.24528
M204 S1000
G1 X128.583 Y105.817 F7200.000
G1 F5760
G1 X128.653 Y105.827 E-0.09063
G1 F5760
G1 X128.653 Y107.759 E-0.66937
G1 E-0.04000 F2100.00000
G1 X128.450 Y111.729 F7200.000
G1 E0.80000 F2100.00000
G1 F2400
G1 X121.550 Y111.729 E0.18776
G1 X121.671 Y111.667 F7200.000
G1 F2400
G1 X121.609 Y111.544 E0.00131
G1 X121.619 Y105.844 E0.05418
G1 X128.332 Y105.834 E0.06380
G1 X128.381 Y105.844 E0.00048
G1 X128.391 Y105.891 E0.00046
G1 X128.391 Y111.544 E0.05373
G1 X128.267 Y111.791 E0.00262
G1 F2400
G1 X128.206 Y111.914 E0.00221
G1 F5760
G1 X128.267 Y111.791 E-0.04779
G1 E-0.75221 F2100.00000
G1 X121.794 Y111.914 F7200.000
G1 E0.80000 F2100.00000
G1 F2400
G1 X121.671 Y111.667 E0.00443
G1 F5760
G1 X121.794 Y111.914 E-0.09557
G1 E-0.70443 F2100.00000
G1 X128.128 Y103.905 F7200.000
G1 E0.80000 F2100.00000
M204 S800
G1 F1200
G1 X121.872 Y103.905 E0.21177
G1 X121.872 Y98.660 E0.17755
G1 X128.128 Y98.660 E0.21177
G1 X128.128 Y103.845 E0.17552
M204 S1000
G1 X128.236 Y104.290 F7200.000
G1 X128.653 Y104.428 F7200.000
M204 S800
G1 F1200
G1 X121.347 Y104.428 E0.24731
G1 X121.347 Y97.882 E0.22156
G1 X128.653 Y97.882 E0.24731
G1 X128.653 Y104.368 E0.21953
M204 S1000
G1 X128.307 Y104.228 F7200.000
G1 F5760
G1 X126.459 Y104.386 E-0.76000
G1 E-0.04000 F2100.00000
G1 X128.450 Y98.271 F7200.000
G1 E0.80000 F2100.00000
G1 F2400
G1 X121.550 Y98.271 E0.18776
G1 X121.671 Y98.333 F7200.000
G1 F2400
G1 X121.609 Y98.456 E0.00131
G1 X121.619 Y104.156 E0.05417
G1 X128.332 Y104.166 E0.06380
G1 X128.381 Y104.156 E0.00048
G1 X128.391 Y104.109 E0.00046
G1 X128.391 Y98.456 E0.05373
G1 X128.267 Y98.209 E0.00262
G1 F2400
G1 X128.206 Y98.086 E0.00221
G1 F5760
G1 X128.267 Y98.209 E-0.04779
G1 E-0.75221 F2100.00000
G1 X121.794 Y98.086 F7200.000
G1 E0.80000 F2100.00000
G1 F2400
G1 X121.671 Y98.333 E0.00443
G1 F5760
G1 X121.794 Y98.086 E-0.09557
G1 E-0.70443 F2100.00000
G1 Z0.550 F7200.000
G1 X128.128 Y106.095 F7200.000
G1 E0.80000 F2100.00000
M204 S800
G1 F1200
G1 X128.128 Y111.340 E0.17755
G1 X121.872 Y111.340 E0.21177
G1 X121.872 Y106.095 E0.17755
G1 X128.068 Y106.095 E0.20974
M204 S1000
G1 X128.523 Y106.031 F7200.000
G1 X128.653 Y105.708 F7200.000
M204 S800
G1 F1200
G1 X128.653 Y112.118 E0.21696
G1 X121.347 Y112.118 E0.24731
G1 X121.347 Y105.572 E0.22156
G1 X128.653 Y105.572 E0.24731
G1 X128.653 Y105.648 E0.00257
M204 S1000
G1 X128.451 Y106.053 F7200.000
G1 F5760
G1 X128.653 Y107.842 E-0.76000
G1 E-0.04000 F2100.00000
G1 X128.329 Y111.667 F7200.000
G1 E0.80000 F2100.00000
G1 F2400
G1 X128.391 Y111.544 E0.00131
G1 X128.381 Y105.844 E0.05418
G1 X121.668 Y105.834 E0.06380
G1 X121.619 Y105.844 E0.00048
G1 X121.609 Y105.891 E0.00046
G1 X121.609 Y111.544 E0.05373
G1 X121.733 Y111.791 E0.00262
G1 F2400
G1 X121.794 Y111.914 E0.00221
G1 X121.550 Y111.729 F7200.000
G1 F2400
G1 X128.450 Y111.729 E0.18776
G1 X128.329 Y111.667 F7200.000
G1 F2400
G1 X128.206 Y111.914 E0.00443
G1 F5760
G1 X128.329 Y111.667 E-0.09557
G1 E-0.70443 F2100.00000
G1 X128.128 Y103.905 F7200.000
G1 E0.80000 F2100.00000
M204 S800
G1 F1200
G1 X121.872 Y103.905 E0.21177
G1 X121.872 Y98.660 E0.17755
G1 X128.128 Y98.660 E0.21177
G1 X128.128 Y103.845 E0.17552
M204 S1000
G1 X128.232 Y104.291 F7200.000
G1 X128.653 Y104.428 F7200.000
M204 S800
G1 F1200
G1 X121.347 Y104.428 E0.24731
G1 X121.347 Y97.882 E0.22156
G1 X128.653 Y97.882 E0.24731
G1 X128.653 Y104.368 E0.21953
M204 S1000
G1 X128.307 Y104.228 F7200.000
G1 F5760
G1 X126.459 Y104.386 E-0.76000
G1 E-0.04000 F2100.00000
G1 X128.450 Y98.271 F7200.000
G1 E0.80000 F2100.00000
G1 F2400
G1 X121.550 Y98.271 E0.18776
G1 X121.671 Y98.333 F7200.000
G1 F2400
G1 X121.609 Y98.456 E0.00131
G1 X121.619 Y104.156 E0.05417
G1 X128.332 Y104.166 E0.06380
G1 X128.381 Y104.156 E0.00048
G1 X128.391 Y104.109 E0.00046
G1 X128.391 Y98.456 E0.05373
G1 X128.267 Y98.209 E0.00262
G1 F2400
G1 X128.206 Y98.086 E0.00221
G1 F5760
G1 X128.267 Y98.209 E-0.04779
G1 E-0.75221 F2100.00000
G1 X121.794 Y98.086 F7200.000
G1 E0.80000 F2100.00000
G1 F2400
G1 X121.671 Y98.333 E0.00443
G1 F5760
G1 X121.794 Y98.086 E-0.09557
G1 E-0.70443 F2100.00000
G1 Z0.750 F7200.000
G1 X128.128 Y106.095 F7200.000
G1 E0.80000 F2100.00000
M204 S800
G1 F1200
G1 X128.128 Y111.340 E0.17755
G1 X121.872 Y111.340 E0.21177
G1 X121.872 Y106.095 E0.17755
G1 X128.068 Y106.095 E0.20974
M204 S1000
G1 X128.517 Y106.003 F7200.000
G1 X128.653 Y105.633 F7200.000
M204 S800
G1 F1200
G1 X128.653 Y112.118 E0.21951
G1 X121.347 Y112.118 E0.24731
G1 X121.347 Y105.572 E0.22156
G1 X128.653 Y105.573 E0.24731
M204 S1000
G1 X128.452 Y105.978 F7200.000
G1 F5760
G1 X128.653 Y107.767 E-0.76000
G1 E-0.04000 F2100.00000
G1 X128.329 Y111.667 F7200.000
G1 E0.80000 F2100.00000
G1 F2400
G1 X128.391 Y111.544 E0.00131
G1 X128.381 Y105.844 E0.05418
G1 X121.668 Y105.834 E0.06380
G1 X121.619 Y105.844 E0.00048
G1 X121.609 Y105.891 E0.00046
G1 X121.609 Y111.544 E0.05373
G1 X121.733 Y111.791 E0.00262
G1 F2400
G1 X121.794 Y111.914 E0.00221
G1 X121.550 Y111.729 F7200.000
G1 F2400
G1 X128.450 Y111.729 E0.18776
G1 X128.329 Y111.667 F7200.000
G1 F2400
G1 X128.206 Y111.914 E0.00443
G1 F5760
G1 X128.329 Y111.667 E-0.09557
G1 E-0.70443 F2100.00000
G1 X128.128 Y103.905 F7200.000
G1 E0.80000 F2100.00000
M204 S800
G1 F1200
G1 X121.872 Y103.905 E0.21177
G1 X121.872 Y98.660 E0.17755
G1 X128.128 Y98.660 E0.21177
G1 X128.128 Y103.845 E0.17552
M204 S1000
G1 X128.228 Y104.292 F7200.000
G1 X128.653 Y104.428 F7200.000
M204 S800
G1 F1200
G1 X121.347 Y104.428 E0.24731
G1 X121.347 Y97.882 E0.22156
G1 X128.653 Y97.882 E0.24731
G1 X128.653 Y104.368 E0.21953
M204 S1000
G1 X128.307 Y104.228 F7200.000
G1 F5760
G1 X126.459 Y104.386 E-0.76000
G1 E-0.04000 F2100.00000
G1 X128.450 Y98.271 F7200.000
G1 E0.80000 F2100.00000
G1 F2400
G1 X121.550 Y98.271 E0.18776
G1 X121.671 Y98.333 F7200.000
G1 F2400
G1 X121.609 Y98.456 E0.00131
G1 X121.619 Y104.156 E0.05417
G1 X128.332 Y104.166 E0.06380
G1 X128.381 Y104.156 E0.00048
G1 X128.391 Y104.109 E0.00046
G1 X128.391 Y98.456 E0.05373
G1 X128.267 Y98.209 E0.00262
G1 F2400
G1 X128.206 Y98.086 E0.00221
G1 F5760
G1 X128.267 Y98.209 E-0.04779
G1 E-0.75221 F2100.00000
G1 X121.794 Y98.086 F7200.000
G1 E0.80000 F2100.00000
G1 F2400
G1 X121.671 Y98.333 E0.00443
G1 F5760
G1 X121.794 Y98.086 E-0.09557
G1 E-0.70443 F2100.00000
G1 Z0.950 F7200.000
G1 X128.128 Y106.095 F7200.000
G1 E0.80000 F2100.00000
M204 S800
G1 F1200
G1 X128.128 Y111.340 E0.17755
G1 X121.872 Y111.340 E0.21177
G1 X121.872 Y106.095 E0.17755
G1 X128.068 Y106.095 E0.20974
M204 S1000
G1 X128.517 Y106.003 F7200.000
G1 X128.653 Y105.588 F7200.000
M204 S800
G1 F1200
G1 X128.653 Y112.118 E0.22100
G1 X121.347 Y112.118 E0.24731
G1 X121.347 Y105.572 E0.22156
G1 X128.609 Y105.572 E0.24583
M204 S1000
G1 X128.542 Y105.973 F7200.000
G1 F5760
G1 X128.624 Y107.766 E-0.76000
G1 E-0.04000 F2100.00000
G1 X128.329 Y111.667 F7200.000
G1 E0.80000 F2100.00000
G1 F2400
G1 X128.391 Y111.544 E0.00131
G1 X128.381 Y105.844 E0.05418
G1 X121.668 Y105.834 E0.06380
G1 X121.619 Y105.844 E0.00048
G1 X121.609 Y105.891 E0.00046
G1 X121.609 Y111.544 E0.05373
G1 X121.733 Y111.791 E0.00262
G1 F2400
G1 X121.794 Y111.914 E0.00221
G1 X121.550 Y111.729 F7200.000
G1 F2400
G1 X128.450 Y111.729 E0.18776
G1 X128.329 Y111.667 F7200.000
G1 F2400
G1 X128.206 Y111.914 E0.00443
G1 F5760
G1 X128.329 Y111.667 E-0.09557
G1 E-0.70443 F2100.00000
G1 X128.128 Y103.905 F7200.000
G1 E0.80000 F2100.00000
M204 S800
G1 F1200
G1 X121.872 Y103.905 E0.21177
G1 X121.872 Y98.660 E0.17755
G1 X128.128 Y98.660 E0.21177
G1 X128.128 Y103.845 E0.17552
M204 S1000
G1 X128.223 Y104.294 F7200.000
G1 X128.653 Y104.428 F7200.000
M204 S800
G1 F1200
G1 X121.347 Y104.428 E0.24731
G1 X121.347 Y97.882 E0.22156
G1 X128.653 Y97.882 E0.24731
G1 X128.653 Y104.368 E0.21953
M204 S1000
G1 X128.307 Y104.228 F7200.000
G1 F5760
G1 X126.459 Y104.386 E-0.76000
G1 E-0.04000 F2100.00000
G1 X128.450 Y98.271 F7200.000
G1 E0.80000 F2100.00000
G1 F2400
G1 X121.550 Y98.271 E0.18776
G1 X121.671 Y98.333 F7200.000
G1 F2400
G1 X121.609 Y98.456 E0.00131
G1 X121.619 Y104.156 E0.05417
G1 X128.332 Y104.166 E0.06380
G1 X128.381 Y104.156 E0.00048
G1 X128.391 Y104.109 E0.00046
G1 X128.391 Y98.456 E0.05373
G1 X128.267 Y98.209 E0.00262
G1 F2400
G1 X128.206 Y98.086 E0.00221
G1 F5760
G1 X128.267 Y98.209 E-0.04779
G1 E-0.75221 F2100.00000
G1 X121.794 Y98.086 F7200.000
G1 E0.80000 F2100.00000
G1 F2400
G1 X121.671 Y98.333 E0.00443
G1 F5760
G1 X121.794 Y98.086 E-0.09557
G1 E-0.70443 F2100.00000
G1 Z1.150 F7200.000
G1 X128.128 Y106.095 F7200.000
G1 E0.80000 F2100.00000
M204 S800
G1 F1200
G1 X128.128 Y111.340 E0.17755
G1 X121.872 Y111.340 E0.21177
G1 X121.872 Y106.095 E0.17755
G1 X128.068 Y106.095 E0.20974
M204 S1000
G1 X128.517 Y106.003 F7200.000
G1 X128.653 Y105.645 F7200.000
M204 S800
G1 F1200
G1 X128.653 Y112.118 E0.21908
G1 X121.347 Y112.118 E0.24731
G1 X121.347 Y105.572 E0.22156
G1 X128.653 Y105.572 E0.24731
G1 X128.653 Y105.585 E0.00044
M204 S1000
G1 X128.452 Y105.991 F7200.000
G1 F5760
G1 X128.653 Y107.780 E-0.76000
G1 E-0.04000 F2100.00000
G1 X128.329 Y111.667 F7200.000
G1 E0.80000 F2100.00000
G1 F2400
G1 X128.391 Y111.544 E0.00131
G1 X128.381 Y105.844 E0.05418
G1 X121.668 Y105.834 E0.06380
G1 X121.619 Y105.844 E0.00048
G1 X121.609 Y105.891 E0.00046
G1 X121.609 Y111.544 E0.05373
G1 X121.733 Y111.791 E0.00262
G1 F2400
G1 X121.794 Y111.914 E0.00221
G1 X121.550 Y111.729 F7200.000
G1 F2400
G1 X128.450 Y111.729 E0.18776
G1 X128.329 Y111.667 F7200.000
G1 F2400
G1 X128.206 Y111.914 E0.00443
G1 F5760
G1 X128.329 Y111.667 E-0.09557
G1 E-0.70443 F2100.00000
G1 X128.128 Y103.905 F7200.000
G1 E0.80000 F2100.00000
M204 S800
G1 F1200
G1 X121.872 Y103.905 E0.21177
G1 X121.872 Y98.660 E0.17755
G1 X128.128 Y98.660 E0.21177
G1 X128.128 Y103.845 E0.17552
M204 S1000
G1 X128.218 Y104.295 F7200.000
G1 X128.653 Y104.428 F7200.000
M204 S800
G1 F1200
G1 X121.347 Y104.428 E0.24731
G1 X121.347 Y97.882 E0.22156
G1 X128.653 Y97.882 E0.24731
G1 X128.653 Y104.368 E0.21953
M204 S1000
G1 X128.307 Y104.228 F7200.000
G1 F5760
G1 X126.459 Y104.386 E-0.76000
G1 E-0.04000 F2100.00000
G1 X128.450 Y98.271 F7200.000
G1 E0.80000 F2100.00000
G1 F2400
G1 X121.550 Y98.271 E0.18776
G1 X121.671 Y98.333 F7200.000
G1 F2400
G1 X121.609 Y98.456 E0.00131
G1 X121.619 Y104.156 E0.05417
G1 X128.332 Y104.166 E0.06380
G1 X128.381 Y104.156 E0.00048
G1 X128.391 Y104.109 E0.00046
G1 X128.391 Y98.456 E0.05373
G1 X128.267 Y98.209 E0.00262
G1 F2400
G1 X128.206 Y98.086 E0.00221
G1 F5760
G1 X128.267 Y98.209 E-0.04779
G1 E-0.75221 F2100.00000
G1 X121.794 Y98.086 F7200.000
G1 E0.80000 F2100.00000
G1 F2400
G1 X121.671 Y98.333 E0.00443
G1 F5760
G1 X121.794 Y98.086 E-0.09557
G1 E-0.70443 F2100.00000
G1 Z1.350 F7200.000
G1 X128.128 Y106.095 F7200.000
G1 E0.80000 F2100.00000
M204 S800
G1 F1800
G1 X121.927 Y106.095 E0.20989
G1 X121.927 Y111.340 E0.17755
G1 X128.128 Y111.340 E0.20989
G1 X128.128 Y109.316 E0.06853
G1 X128.653 Y109.316 E0.01777
G1 X128.653 Y112.118 E0.09484
G1 X121.347 Y112.118 E0.24731
G1 X121.347 Y105.572 E0.22156
G1 X128.653 Y105.572 E0.24731
G1 X128.653 Y108.119 E0.08622
G1 X128.128 Y108.119 E0.01777
G1 X128.128 Y106.155 E0.06650
M204 S1000
G1 X128.094 Y105.696 F7200.000
G1 F5760
G1 X125.934 Y106.134 E-0.76000
G1 E-0.04000 F2100.00000
G1 X128.391 Y107.916 F7200.000
G1 E0.80000 F2100.00000
G1 F2400
G1 X128.381 Y105.844 E0.01292
G1 X121.724 Y105.834 E0.04152
G1 X121.682 Y105.849 E0.00028
G1 F2400
G1 X121.639 Y105.865 E0.00051
G1 X121.637 Y105.891 E0.00030
