; generated by Slic3r 1.3.0-dev on 2016-08-30 at 17:45:06

; external perimeters extrusion width = 0.45mm
; perimeters extrusion width = 0.45mm
; infill extrusion width = 0.45mm
; solid infill extrusion width = 0.45mm
; top infill extrusion width = 0.40mm
; support material extrusion width = 0.35mm

M107
M83  ; extruder relative mode
M104 S210 ; set extruder temp
M140 S55 ; set bed temp
M190 S55 ; wait for bed temp
M109 S210 ; wait for extruder temp
G28 W ; home all without mesh bed level
G80 ; mesh bed leveling
G1 Y-3.0 F1000.0 ; go outside pritn area
G1 X60.0 E9.0  F1000.0 ; intro line
G1 X100.0 E12.5  F1000.0 ; intro line
G21 ; set units to millimeters
G90 ; use absolute coordinates
M83 ; use relative distances for extrusion
G1 E-0.80000 F2100.00000
G1 Z0.150 F7200.000
G1 X120.184 Y21.847 F7200.000
G1 E0.80000 F2100.00000
M204 S1000
G1 F1800
G1 X120.617 Y20.970 E0.02367
G1 X121.554 Y19.974 E0.03307
G1 X122.752 Y19.652 E0.02999
G1 X127.090 Y19.652 E0.10491
G1 X128.400 Y20.044 E0.03307
G1 X128.984 Y20.585 E0.01926
G1 X129.509 Y21.269 E0.02085
G1 X129.818 Y21.802 E0.01491
G1 X170.891 Y120.059 E2.57559
G1 X171.674 Y122.079 E0.05239
G1 X172.368 Y124.131 E0.05239
G1 X172.972 Y126.211 E0.05239
G1 X173.485 Y128.316 E0.05239
G1 X173.905 Y130.441 E0.05239
G1 X174.232 Y132.582 E0.05239
G1 X174.466 Y134.736 E0.05239
G1 X174.605 Y136.898 E0.05239
G1 X174.650 Y139.063 E0.05239
G1 X174.601 Y141.229 E0.05239
G1 X174.466 Y143.287 E0.04987
G1 X174.391 Y143.989 E0.01708
G1 X174.219 Y145.544 E0.03783
G1 X173.905 Y147.582 E0.04987
G1 X173.485 Y149.707 E0.05239
G1 X172.972 Y151.811 E0.05239
G1 X172.337 Y153.991 E0.05491
G1 X171.638 Y156.042 E0.05239
G1 X170.851 Y158.060 E0.05239
G1 X170.021 Y159.947 E0.04987
G1 X169.710 Y160.581 E0.01708
G1 X169.016 Y161.983 E0.03783
G1 X168.025 Y163.791 E0.04987
G1 X166.903 Y165.644 E0.05239
G1 X165.701 Y167.447 E0.05239
G1 X164.422 Y169.195 E0.05239
G1 X163.001 Y170.966 E0.05491
G1 X161.571 Y172.593 E0.05239
G1 X160.071 Y174.156 E0.05239
G1 X158.582 Y175.582 E0.04987
G1 X158.052 Y176.049 E0.01708
G1 X156.875 Y177.079 E0.03783
G1 X155.267 Y178.370 E0.04987
G1 X153.521 Y179.653 E0.05239
G1 X151.721 Y180.858 E0.05239
G1 X149.870 Y181.984 E0.05239
G1 X147.972 Y183.028 E0.05239
G1 X145.936 Y184.032 E0.05491
G1 X143.952 Y184.902 E0.05239
G1 X142.030 Y185.650 E0.04987
G1 X141.363 Y185.879 E0.01708
G1 X139.880 Y186.379 E0.03783
G1 X137.901 Y186.956 E0.04987
G1 X135.797 Y187.473 E0.05239
G1 X133.673 Y187.898 E0.05239
G1 X131.532 Y188.230 E0.05239
G1 X129.379 Y188.468 E0.05239
G1 X127.114 Y188.617 E0.05491
G1 X124.948 Y188.662 E0.05239
G1 X122.782 Y188.612 E0.05239
G1 X120.621 Y188.468 E0.05239
G1 X118.468 Y188.230 E0.05239
G1 X116.430 Y187.916 E0.04987
G1 X114.305 Y187.496 E0.05239
G1 X112.200 Y186.983 E0.05239
G1 X110.020 Y186.348 E0.05491
G1 X107.970 Y185.650 E0.05239
G1 X105.951 Y184.862 E0.05239
G1 X104.064 Y184.032 E0.04987
G1 X103.430 Y183.722 E0.01707
G1 X102.028 Y183.028 E0.03783
G1 X100.220 Y182.036 E0.04987
G1 X98.367 Y180.914 E0.05239
G1 X96.479 Y179.653 E0.05491
G1 X94.733 Y178.370 E0.05239
G1 X93.045 Y177.012 E0.05239
G1 X91.418 Y175.582 E0.05239
G1 X89.855 Y174.083 E0.05239
G1 X88.359 Y172.516 E0.05239
G1 X86.999 Y170.966 E0.04987
G1 X85.641 Y169.278 E0.05239
G1 X84.359 Y167.532 E0.05239
G1 X83.153 Y165.732 E0.05239
G1 X82.027 Y163.882 E0.05239
G1 X80.984 Y161.983 E0.05239
G1 X79.979 Y159.947 E0.05491
G1 X79.109 Y157.963 E0.05239
G1 X78.362 Y156.042 E0.04987
G1 X78.133 Y155.374 E0.01708
G1 X77.632 Y153.892 E0.03783
G1 X77.055 Y151.912 E0.04987
G1 X76.538 Y149.808 E0.05239
G1 X76.113 Y147.684 E0.05239
G1 X75.781 Y145.544 E0.05239
G1 X75.543 Y143.390 E0.05239
G1 X75.395 Y141.125 E0.05491
G1 X75.350 Y138.959 E0.05239
G1 X75.395 Y136.898 E0.04987
G1 X75.534 Y134.736 E0.05239
G1 X75.768 Y132.582 E0.05239
G1 X76.095 Y130.441 E0.05239
G1 X76.515 Y128.316 E0.05239
G1 X77.028 Y126.211 E0.05239
G1 X77.632 Y124.131 E0.05239
G1 X78.362 Y121.981 E0.05491
G1 X79.132 Y120.003 E0.05133
G1 X120.161 Y21.903 E2.57169
G1 F5760
G1 X120.252 Y21.699 E-0.07740
G1 F5760
G1 X120.617 Y20.970 E-0.28232
G1 F5760
G1 X121.409 Y20.128 E-0.40028
G1 E-0.04000 F2100.00000
G1 X153.644 Y101.681 F7200.000
G1 E0.80000 F2100.00000
G1 F1080
G1 X155.245 Y102.966 E0.04965
G1 X156.789 Y104.320 E0.04965
G1 X158.272 Y105.740 E0.04965
G1 X159.691 Y107.223 E0.04965
G1 X161.045 Y108.766 E0.04965
G1 X162.330 Y110.367 E0.04965
G1 X163.544 Y112.023 E0.04965
G1 X164.684 Y113.730 E0.04965
G1 X165.749 Y115.485 E0.04965
G1 X166.737 Y117.284 E0.04965
G1 X167.645 Y119.126 E0.04965
G1 X168.471 Y121.005 E0.04965
G1 X169.215 Y122.918 E0.04965
G1 X169.875 Y124.862 E0.04965
G1 X170.450 Y126.833 E0.04965
G1 X170.938 Y128.827 E0.04965
G1 X171.338 Y130.841 E0.04965
G1 X171.651 Y132.870 E0.04965
G1 X171.874 Y134.910 E0.04965
G1 X172.008 Y136.959 E0.04965
G1 X172.053 Y139.011 E0.04965
G1 X172.008 Y141.064 E0.04965
G1 X171.874 Y143.112 E0.04965
G1 X171.651 Y145.153 E0.04965
G1 X171.560 Y145.743 E0.01445
G1 X171.338 Y147.182 E0.03520
G1 X170.938 Y149.195 E0.04965
G1 X170.450 Y151.189 E0.04965
G1 X169.875 Y153.160 E0.04965
G1 X169.215 Y155.104 E0.04965
G1 X168.471 Y157.018 E0.04965
G1 X167.645 Y158.897 E0.04965
G1 X167.380 Y159.432 E0.01445
G1 X166.737 Y160.738 E0.03520
G1 X165.749 Y162.538 E0.04965
G1 X164.684 Y164.293 E0.04965
G1 X163.544 Y166.000 E0.04965
G1 X162.330 Y167.655 E0.04965
G1 X161.045 Y169.256 E0.04965
G1 X159.691 Y170.800 E0.04965
G1 X158.272 Y172.283 E0.04965
G1 X156.789 Y173.702 E0.04965
G1 X155.245 Y175.056 E0.04965
G1 X153.644 Y176.341 E0.04965
G1 X151.989 Y177.555 E0.04965
G1 X150.282 Y178.695 E0.04965
G1 X148.527 Y179.760 E0.04965
G1 X146.727 Y180.748 E0.04965
G1 X144.886 Y181.656 E0.04965
G1 X143.006 Y182.483 E0.04965
G1 X141.093 Y183.227 E0.04965
G1 X139.149 Y183.887 E0.04965
G1 X137.178 Y184.461 E0.04965
G1 X136.598 Y184.603 E0.01445
G1 X135.184 Y184.949 E0.03520
G1 X133.171 Y185.350 E0.04965
G1 X131.142 Y185.662 E0.04965
G1 X129.101 Y185.885 E0.04965
G1 X127.052 Y186.020 E0.04965
G1 X125.000 Y186.064 E0.04965
G1 X122.948 Y186.020 E0.04965
G1 X120.899 Y185.885 E0.04965
G1 X118.858 Y185.662 E0.04965
G1 X116.829 Y185.350 E0.04965
G1 X114.816 Y184.949 E0.04965
G1 X112.822 Y184.461 E0.04965
G1 X110.851 Y183.887 E0.04965
G1 X108.907 Y183.227 E0.04965
G1 X106.994 Y182.483 E0.04965
G1 X105.114 Y181.656 E0.04965
G1 X103.273 Y180.748 E0.04965
G1 X101.473 Y179.760 E0.04965
G1 X99.718 Y178.695 E0.04965
G1 X98.011 Y177.555 E0.04965
G1 X96.356 Y176.341 E0.04965
G1 X94.755 Y175.056 E0.04965
G1 X93.211 Y173.702 E0.04965
G1 X91.728 Y172.283 E0.04965
G1 X90.309 Y170.800 E0.04965
G1 X88.955 Y169.256 E0.04965
G1 X87.670 Y167.655 E0.04965
G1 X86.456 Y166.000 E0.04965
G1 X85.316 Y164.293 E0.04965
G1 X84.251 Y162.538 E0.04965
G1 X83.263 Y160.738 E0.04965
G1 X82.355 Y158.897 E0.04965
G1 X81.529 Y157.018 E0.04965
G1 X80.784 Y155.104 E0.04965
G1 X80.125 Y153.160 E0.04965
G1 X79.550 Y151.189 E0.04965
G1 X79.062 Y149.195 E0.04965
G1 X78.662 Y147.182 E0.04965
G1 X78.349 Y145.153 E0.04965
G1 X78.126 Y143.112 E0.04965
G1 X77.992 Y141.064 E0.04965
G1 X77.947 Y139.011 E0.04965
G1 X77.992 Y136.959 E0.04965
G1 X78.126 Y134.910 E0.04965
G1 X78.349 Y132.870 E0.04965
G1 X78.662 Y130.841 E0.04965
G1 X79.062 Y128.827 E0.04965
G1 X79.550 Y126.833 E0.04965
G1 X80.125 Y124.862 E0.04965
G1 X80.784 Y122.918 E0.04965
G1 X81.529 Y121.005 E0.04965
G1 X82.355 Y119.126 E0.04965
G1 X83.263 Y117.284 E0.04965
G1 X84.251 Y115.485 E0.04965
G1 X85.316 Y113.730 E0.04965
G1 X86.456 Y112.023 E0.04965
G1 X87.670 Y110.367 E0.04965
G1 X88.955 Y108.766 E0.04965
G1 X90.309 Y107.223 E0.04965
G1 X91.728 Y105.740 E0.04965
G1 X93.211 Y104.320 E0.04965
G1 X94.755 Y102.966 E0.04965
G1 X96.356 Y101.681 E0.04965
G1 X98.011 Y100.468 E0.04965
G1 X99.718 Y99.327 E0.04965
G1 X101.473 Y98.262 E0.04965
G1 X103.273 Y97.275 E0.04965
G1 X105.114 Y96.367 E0.04965
G1 X106.994 Y95.540 E0.04965
G1 X108.907 Y94.796 E0.04965
G1 X109.473 Y94.604 E0.01445
G1 X110.851 Y94.136 E0.03520
G1 X112.822 Y93.561 E0.04965
G1 X114.816 Y93.073 E0.04965
G1 X116.829 Y92.673 E0.04965
G1 X118.858 Y92.361 E0.04965
G1 X120.899 Y92.137 E0.04965
G1 X122.948 Y92.003 E0.04965
G1 X125.000 Y91.958 E0.04965
G1 X127.052 Y92.003 E0.04965
G1 X129.101 Y92.137 E0.04965
G1 X131.142 Y92.361 E0.04965
G1 X133.171 Y92.673 E0.04965
G1 X135.184 Y93.073 E0.04965
G1 X137.178 Y93.561 E0.04965
G1 X139.149 Y94.136 E0.04965
G1 X141.093 Y94.796 E0.04965
G1 X143.006 Y95.540 E0.04965
G1 X144.886 Y96.367 E0.04965
G1 X146.727 Y97.275 E0.04965
G1 X148.527 Y98.262 E0.04965
G1 X150.282 Y99.327 E0.04965
G1 X151.989 Y100.468 E0.04965
G1 X153.596 Y101.646 E0.04820
G1 X153.591 Y102.078 F7200.000
G1 X153.408 Y101.989 F7200.000
G1 F1440
G1 X154.996 Y103.264 E0.04924
G1 X156.527 Y104.606 E0.04924
G1 X157.997 Y106.014 E0.04924
G1 X159.405 Y107.485 E0.04924
G1 X160.748 Y109.015 E0.04924
G1 X162.022 Y110.603 E0.04924
G1 X163.226 Y112.245 E0.04924
G1 X164.357 Y113.938 E0.04924
G1 X165.413 Y115.679 E0.04924
G1 X166.393 Y117.464 E0.04924
G1 X167.293 Y119.290 E0.04924
G1 X168.113 Y121.153 E0.04924
G1 X168.851 Y123.051 E0.04924
G1 X169.505 Y124.979 E0.04924
G1 X170.075 Y126.933 E0.04924
G1 X170.559 Y128.911 E0.04924
G1 X170.956 Y130.908 E0.04924
G1 X171.266 Y132.920 E0.04924
G1 X171.488 Y134.944 E0.04924
G1 X171.621 Y136.976 E0.04924
G1 X171.665 Y139.011 E0.04924
G1 X171.621 Y141.047 E0.04924
G1 X171.488 Y143.078 E0.04924
G1 X171.266 Y145.102 E0.04924
G1 X171.176 Y145.684 E0.01424
G1 X170.956 Y147.115 E0.03500
G1 X170.559 Y149.111 E0.04924
G1 X170.075 Y151.089 E0.04924
G1 X169.505 Y153.044 E0.04924
G1 X168.851 Y154.972 E0.04924
G1 X168.113 Y156.869 E0.04924
G1 X167.293 Y158.733 E0.04924
G1 X167.033 Y159.261 E0.01424
G1 X166.393 Y160.559 E0.03500
G1 X165.413 Y162.344 E0.04924
G1 X164.357 Y164.084 E0.04924
G1 X163.226 Y165.777 E0.04924
G1 X162.022 Y167.419 E0.04924
G1 X160.748 Y169.007 E0.04924
G1 X159.405 Y170.538 E0.04924
G1 X157.997 Y172.009 E0.04924
G1 X156.527 Y173.416 E0.04924
G1 X154.996 Y174.759 E0.04924
G1 X153.408 Y176.033 E0.04924
G1 X151.766 Y177.237 E0.04924
G1 X150.073 Y178.368 E0.04924
G1 X148.333 Y179.425 E0.04924
G1 X146.548 Y180.404 E0.04924
G1 X144.722 Y181.304 E0.04924
G1 X142.858 Y182.124 E0.04924
G1 X140.960 Y182.862 E0.04924
G1 X139.033 Y183.517 E0.04924
G1 X137.078 Y184.086 E0.04924
G1 X136.506 Y184.226 E0.01424
G1 X135.100 Y184.570 E0.03500
G1 X133.103 Y184.968 E0.04924
G1 X131.091 Y185.277 E0.04924
G1 X129.067 Y185.499 E0.04924
G1 X127.036 Y185.632 E0.04924
G1 X125.000 Y185.676 E0.04924
G1 X122.964 Y185.632 E0.04924
G1 X120.933 Y185.499 E0.04924
G1 X118.909 Y185.277 E0.04924
G1 X116.897 Y184.968 E0.04924
G1 X114.900 Y184.570 E0.04924
G1 X112.922 Y184.086 E0.04924
G1 X110.967 Y183.517 E0.04924
G1 X109.040 Y182.862 E0.04924
G1 X107.142 Y182.124 E0.04924
G1 X105.278 Y181.304 E0.04924
G1 X103.452 Y180.404 E0.04924
G1 X101.667 Y179.425 E0.04924
G1 X99.927 Y178.368 E0.04924
G1 X98.234 Y177.237 E0.04924
G1 X96.592 Y176.033 E0.04924
G1 X95.004 Y174.759 E0.04924
G1 X93.473 Y173.416 E0.04924
G1 X92.003 Y172.009 E0.04924
G1 X90.595 Y170.538 E0.04924
G1 X89.252 Y169.007 E0.04924
G1 X87.978 Y167.419 E0.04924
G1 X86.774 Y165.777 E0.04924
G1 X85.643 Y164.084 E0.04924
G1 X84.587 Y162.344 E0.04924
G1 X83.607 Y160.559 E0.04924
G1 X82.707 Y158.733 E0.04924
G1 X81.887 Y156.869 E0.04924
G1 X81.149 Y154.972 E0.04924
G1 X80.495 Y153.044 E0.04924
G1 X79.925 Y151.089 E0.04924
G1 X79.441 Y149.111 E0.04924
G1 X79.044 Y147.115 E0.04924
G1 X78.734 Y145.102 E0.04924
G1 X78.512 Y143.078 E0.04924
G1 X78.379 Y141.047 E0.04924
G1 X78.335 Y139.011 E0.04924
G1 X78.379 Y136.976 E0.04924
G1 X78.512 Y134.944 E0.04924
G1 X78.734 Y132.920 E0.04924
G1 X79.044 Y130.908 E0.04924
G1 X79.441 Y128.911 E0.04924
G1 X79.925 Y126.933 E0.04924
G1 X80.495 Y124.979 E0.04924
G1 X81.149 Y123.051 E0.04924
G1 X81.887 Y121.153 E0.04924
G1 X82.707 Y119.290 E0.04924
G1 X83.607 Y117.464 E0.04924
G1 X84.587 Y115.679 E0.04924
G1 X85.643 Y113.938 E0.04924
G1 X86.774 Y112.245 E0.04924
G1 X87.978 Y110.603 E0.04924
G1 X89.252 Y109.015 E0.04924
G1 X90.595 Y107.485 E0.04924
G1 X92.003 Y106.014 E0.04924
G1 X93.473 Y104.606 E0.04924
G1 X95.004 Y103.264 E0.04924
G1 X96.592 Y101.989 E0.04924
G1 X98.234 Y100.785 E0.04924
G1 X99.927 Y99.654 E0.04924
G1 X101.667 Y98.598 E0.04924
G1 X103.452 Y97.619 E0.04924
G1 X105.278 Y96.718 E0.04924
G1 X107.142 Y95.898 E0.04924
G1 X109.040 Y95.160 E0.04924
G1 X109.597 Y94.971 E0.01424
G1 X110.967 Y94.506 E0.03500
G1 X112.922 Y93.936 E0.04924
G1 X114.900 Y93.452 E0.04924
G1 X116.897 Y93.055 E0.04924
G1 X118.909 Y92.745 E0.04924
G1 X120.933 Y92.524 E0.04924
G1 X122.964 Y92.390 E0.04924
G1 X125.000 Y92.346 E0.04924
G1 X127.036 Y92.390 E0.04924
G1 X129.067 Y92.524 E0.04924
G1 X131.091 Y92.745 E0.04924
G1 X133.103 Y93.055 E0.04924
G1 X135.100 Y93.452 E0.04924
G1 X137.078 Y93.936 E0.04924
G1 X139.033 Y94.506 E0.04924
G1 X140.960 Y95.160 E0.04924
G1 X142.858 Y95.898 E0.04924
G1 X144.722 Y96.718 E0.04924
G1 X146.548 Y97.619 E0.04924
G1 X148.333 Y98.598 E0.04924
G1 X150.073 Y99.654 E0.04924
G1 X151.766 Y100.785 E0.04924
G1 X153.360 Y101.954 E0.04779
G1 X153.069 Y102.103 F7200.000
G1 F1440
G1 X161.908 Y110.942 E0.30354
G1 F5760
G1 X160.357 Y109.390 E-0.76000
G1 E-0.04000 F2100.00000
G1 X163.324 Y112.908 F7200.000
G1 E0.80000 F2100.00000
G1 F1440
G1 X151.103 Y100.688 E0.41965
G1 F5760
G1 X152.655 Y102.239 E-0.76000
G1 E-0.04000 F2100.00000
G1 X149.503 Y99.638 F7200.000
G1 E0.80000 F2100.00000
G1 F1440
G1 X164.373 Y114.508 E0.51064
G1 F5760
G1 X162.821 Y112.956 E-0.76000
G1 E-0.04000 F2100.00000
G1 X165.223 Y115.908 F7200.000
G1 E0.80000 F2100.00000
G1 F1440
G1 X148.103 Y98.788 E0.58792
G1 F5760
G1 X149.654 Y100.340 E-0.76000
G1 E-0.04000 F2100.00000
G1 X146.882 Y98.118 F7200.000
G1 E0.80000 F2100.00000
G1 F1440
G1 X165.893 Y117.129 E0.65286
G1 F5760
G1 X164.342 Y115.578 E-0.76000
G1 E-0.04000 F2100.00000
G1 X166.490 Y118.277 F7200.000
G1 E0.80000 F2100.00000
G1 F1440
G1 X145.734 Y97.521 E0.71277
G1 F5760
G1 X147.286 Y99.073 E-0.76000
G1 E-0.04000 F2100.00000
G1 X144.648 Y96.985 F7200.000
G1 E0.80000 F2100.00000
G1 F1440
G1 X167.026 Y119.363 E0.76848
G1 F5760
G1 X165.474 Y117.812 E-0.76000
G1 E-0.04000 F2100.00000
G1 X167.472 Y120.360 F7200.000
G1 E0.80000 F2100.00000
G1 F1440
G1 X143.651 Y96.539 E0.81801
G1 F5760
G1 X145.203 Y98.091 E-0.76000
G1 E-0.04000 F2100.00000
G1 X142.668 Y96.107 F7200.000
G1 E0.80000 F2100.00000
G1 F1440
G1 X167.905 Y121.343 E0.86664
G1 X168.256 Y122.245 F7200.000
G1 F1440
G1 X141.766 Y95.755 E0.90968
G1 X140.865 Y95.405 F7200.000
G1 F1440
G1 X168.606 Y123.146 E0.95265
G1 X168.896 Y123.987 F7200.000
G1 F1440
G1 X140.024 Y95.115 E0.99148
G1 X139.191 Y94.832 F7200.000
G1 F1440
G1 X169.179 Y124.821 E1.02982
G1 X169.428 Y125.620 E0.02034
G1 X138.391 Y94.583 E1.06584
G1 X137.614 Y94.356 E0.01966
G1 X169.655 Y126.397 E1.10031
G1 X169.876 Y127.170 E0.01951
G1 X136.841 Y94.135 E1.13444
G1 X136.112 Y93.956 E0.01823
G1 X170.055 Y127.899 E1.16561
G1 X170.233 Y128.628 E0.01823
G1 X135.383 Y93.778 E1.19677
G1 X134.671 Y93.617 E0.01773
G1 X170.395 Y129.340 E1.22677
G1 X170.531 Y130.027 E0.01702
G1 X133.984 Y93.480 E1.25507
G1 X133.296 Y93.343 E0.01702
G1 X170.668 Y130.715 E1.28337
G1 X170.786 Y131.383 E0.01648
G1 X132.628 Y93.225 E1.31036
G1 X131.977 Y93.125 E0.01599
G1 X170.886 Y132.034 E1.33615
G1 X170.986 Y132.685 E0.01599
G1 X131.326 Y93.025 E1.36194
G1 X130.690 Y92.939 E0.01559
G1 X171.072 Y133.321 E1.38673
G1 X171.139 Y133.939 E0.01511
G1 X130.072 Y92.872 E1.41029
G1 X129.453 Y92.804 E0.01511
G1 X171.207 Y134.558 E1.43385
G1 X171.269 Y135.170 E0.01495
G1 X128.841 Y92.742 E1.45702
G1 X128.252 Y92.703 E0.01434
G1 X171.308 Y135.760 E1.47858
G1 X171.346 Y136.349 E0.01434
G1 X127.662 Y92.665 E1.50014
G1 X127.073 Y92.626 E0.01434
G1 X171.385 Y136.938 E1.52170
G1 X171.403 Y137.507 E0.01382
G1 X126.504 Y92.608 E1.54187
G1 X125.941 Y92.596 E0.01367
G1 X171.415 Y138.070 E1.56162
G1 X171.428 Y138.633 E0.01367
G1 X125.378 Y92.583 E1.58137
G1 X124.820 Y92.576 E0.01356
G1 X171.436 Y139.192 E1.60083
G1 X171.424 Y139.731 E0.01309
G1 X124.281 Y92.587 E1.61893
G1 X123.742 Y92.599 E0.01309
