; generated by Slic3r 1.3.0-dev on 2016-09-20 at 08:27:11

; external perimeters extrusion width = 0.45mm
; perimeters extrusion width = 0.45mm
; infill extrusion width = 0.45mm
; solid infill extrusion width = 0.45mm
; top infill extrusion width = 0.40mm

M107
M83  ; extruder relative mode
M104 S210 ; set extruder temp
M140 S55 ; set bed temp
M190 S55 ; wait for bed temp
M109 S210 ; wait for extruder temp
G28 W ; home all without mesh bed level
G80 ; mesh bed leveling
G1 Y-3.0 F1000.0 ; go outside pritn area
G1 X60.0 E9.0  F1000.0 ; intro line
G1 X100.0 E12.5  F1000.0 ; intro line
G21 ; set units to millimeters
G90 ; use absolute coordinates
M83 ; use relative distances for extrusion
G1 E-0.80000 F2100.00000
G1 Z0.150 F7200.000
G1 X50.513 Y21.267 F7200.000
G1 E0.80000 F2100.00000
M204 S1000
G1 F1800
G1 X50.731 Y20.837 E0.01166
G1 X50.965 Y20.509 E0.00974
G1 X51.301 Y20.162 E0.01167
G1 X51.603 Y19.931 E0.00921
G1 X51.952 Y19.732 E0.00971
G1 X52.403 Y19.558 E0.01169
G1 X52.797 Y19.472 E0.00975
G1 X53.227 Y19.440 E0.01043
G1 X196.825 Y19.441 E3.47290
G1 X197.201 Y19.472 E0.00913
G1 X197.574 Y19.552 E0.00922
G1 X197.932 Y19.679 E0.00918
G1 X198.289 Y19.863 E0.00973
G1 X198.679 Y20.145 E0.01163
G1 X198.952 Y20.411 E0.00923
G1 X199.186 Y20.709 E0.00917
G1 X199.391 Y21.055 E0.00972
G1 X199.530 Y21.380 E0.00855
G1 X199.610 Y21.640 E0.00658
G1 X199.663 Y21.894 E0.00626
G1 X199.699 Y22.249 E0.00864
G1 X199.698 Y22.525 E0.00668
G1 X199.657 Y22.879 E0.00861
G1 X199.596 Y23.151 E0.00674
G1 X199.500 Y23.437 E0.00730
G1 X134.771 Y188.699 E4.29249
G1 X134.647 Y188.975 E0.00731
G1 X134.523 Y189.191 E0.00602
G1 X134.204 Y189.609 E0.01271
G1 X134.028 Y189.785 E0.00603
G1 X133.756 Y190.008 E0.00850
G1 X133.327 Y190.264 E0.01210
G1 X133.073 Y190.373 E0.00667
G1 X132.722 Y190.480 E0.00888
G1 X132.370 Y190.542 E0.00865
G1 X132.095 Y190.559 E0.00665
G1 X118.080 Y190.553 E0.33895
G1 X117.709 Y190.504 E0.00906
G1 X117.346 Y190.407 E0.00908
G1 X117.000 Y190.265 E0.00904
G1 X116.672 Y190.079 E0.00912
G1 X116.296 Y189.786 E0.01153
G1 X116.039 Y189.516 E0.00902
G1 X115.816 Y189.215 E0.00906
G1 X115.634 Y188.887 E0.00909
G1 X50.502 Y23.442 E4.30017
G1 X50.405 Y23.153 E0.00736
G1 X50.348 Y22.906 E0.00613
G1 X50.298 Y22.379 E0.01281
G1 X50.340 Y21.874 E0.01224
G1 X50.393 Y21.628 E0.00610
G1 X50.492 Y21.323 E0.00775
G1 F5760
G1 X50.553 Y21.173 E-0.05617
G1 F5760
G1 X50.560 Y21.158 E-0.00558
G1 F5760
G1 X50.560 Y21.158 E-0.00010
G1 F5760
G1 X50.563 Y21.151 E-0.00253
G1 F5760
G1 X50.608 Y21.058 E-0.03600
G1 F5760
G1 X50.615 Y21.043 E-0.00558
G1 F5760
G1 X50.615 Y21.043 E-0.00009
G1 F5760
G1 X50.619 Y21.036 E-0.00253
G1 F5760
G1 X50.667 Y20.946 E-0.03562
G1 F5760
G1 X50.679 Y20.925 E-0.00810
G1 F5760
G1 X50.731 Y20.837 E-0.03566
G1 F5760
G1 X50.739 Y20.823 E-0.00558
G1 F5760
G1 X50.740 Y20.822 E-0.00036
G1 F5760
G1 X50.744 Y20.816 E-0.00253
G1 F5760
G1 X50.800 Y20.730 E-0.03546
G1 F5760
G1 X50.809 Y20.717 E-0.00558
G1 F5760
G1 X50.809 Y20.716 E-0.00017
G1 F5760
G1 X50.813 Y20.710 E-0.00253
G1 F5760
G1 X50.873 Y20.626 E-0.03580
G1 F5760
G1 X50.887 Y20.607 E-0.00810
G1 F5760
G1 X50.950 Y20.527 E-0.03541
G1 F5760
G1 X50.965 Y20.509 E-0.00811
G1 F5760
G1 X51.032 Y20.430 E-0.03582
G1 F5760
G1 X51.043 Y20.418 E-0.00557
G1 F5760
G1 X51.043 Y20.418 E-0.00013
G1 F5760
G1 X51.048 Y20.412 E-0.00253
G1 F5760
G1 X51.118 Y20.337 E-0.03572
G1 F5760
G1 X51.134 Y20.320 E-0.00810
G1 F5760
G1 X51.208 Y20.247 E-0.03584
G1 F5760
G1 X51.225 Y20.231 E-0.00811
G1 F5760
G1 X51.301 Y20.162 E-0.03548
G1 F5760
G1 X51.313 Y20.152 E-0.00558
G1 F5760
G1 X51.314 Y20.151 E-0.00025
G1 F5760
G1 X51.319 Y20.147 E-0.00253
G1 F5760
G1 X51.399 Y20.081 E-0.03579
G1 F5760
G1 X51.411 Y20.071 E-0.00558
G1 F5760
G1 X51.412 Y20.070 E-0.00023
G1 F5760
G1 X51.418 Y20.066 E-0.00253
G1 F5760
G1 X51.499 Y20.004 E-0.03532
G1 F5760
G1 X51.518 Y19.990 E-0.00810
G1 F5760
G1 X51.603 Y19.931 E-0.03607
G1 F5760
G1 X51.623 Y19.918 E-0.00810
G1 F5760
G1 X51.709 Y19.864 E-0.03539
G1 F5760
G1 X51.723 Y19.856 E-0.00558
G1 F5760
G1 X51.723 Y19.855 E-0.00009
G1 F5760
G1 X51.730 Y19.852 E-0.00253
G1 F5760
G1 X51.820 Y19.800 E-0.03602
G1 F5760
G1 X51.841 Y19.789 E-0.00810
G1 F5760
G1 X51.931 Y19.742 E-0.03532
G1 F5760
G1 X51.936 Y19.740 E-0.00203
G1 E-0.04000 F2100.00000
G1 X69.025 Y22.165 F7200.000
G1 E0.80000 F2100.00000
G1 F1080
G1 X69.082 Y22.264 E0.00277
G1 X88.882 Y73.445 E1.32719
G1 X89.096 Y73.860 E0.01131
G1 X89.271 Y74.125 E0.00767
G1 X89.467 Y74.374 E0.00767
G1 X89.795 Y74.707 E0.01131
G1 X90.040 Y74.908 E0.00767
G1 X90.302 Y75.087 E0.00767
G1 X90.716 Y75.310 E0.01136
G1 X91.157 Y75.478 E0.01142
G1 X91.614 Y75.588 E0.01136
G1 X91.928 Y75.629 E0.00767
G1 X92.238 Y75.642 E0.00751
G1 X157.063 Y75.642 E1.56779
G1 X157.483 Y75.617 E0.01016
G1 X157.837 Y75.559 E0.00869
G1 X158.288 Y75.430 E0.01134
G1 X158.718 Y75.245 E0.01132
G1 X158.994 Y75.090 E0.00764
G1 X159.253 Y74.913 E0.00759
G1 X159.497 Y74.714 E0.00763
G1 X159.797 Y74.413 E0.01026
G1 X160.022 Y74.135 E0.00864
G1 X160.196 Y73.873 E0.00761
G1 X160.347 Y73.598 E0.00759
G1 X160.472 Y73.316 E0.00748
G1 X180.465 Y22.261 E1.32605
G1 X180.513 Y22.173 E0.00242
G1 X180.629 Y22.075 E0.00368
G1 X180.790 Y22.038 E0.00399
G1 X196.757 Y22.038 E0.38616
G1 X196.871 Y22.055 E0.00278
G1 X196.960 Y22.098 E0.00240
G1 X197.032 Y22.166 E0.00240
G1 X197.078 Y22.249 E0.00228
G1 X197.101 Y22.380 E0.00323
G1 X197.075 Y22.507 E0.00312
G1 X132.361 Y187.731 E4.29150
G1 X132.270 Y187.867 E0.00396
G1 X132.167 Y187.934 E0.00297
G1 X132.024 Y187.962 E0.00353
G1 X118.293 Y187.962 E0.33207
G1 X118.199 Y187.950 E0.00231
G1 X118.105 Y187.910 E0.00248
G1 X118.043 Y187.859 E0.00193
G1 X117.982 Y187.772 E0.00259
G1 X52.925 Y22.507 E4.29543
G1 X52.900 Y22.381 E0.00312
G1 X52.921 Y22.254 E0.00312
G1 X52.987 Y22.146 E0.00306
G1 X53.090 Y22.072 E0.00306
G1 X53.229 Y22.038 E0.00345
G1 X68.766 Y22.038 E0.37578
G1 X68.864 Y22.054 E0.00238
G1 X68.982 Y22.124 E0.00332
G1 X68.983 Y22.271 F7200.000
G1 X68.728 Y22.426 F7200.000
G1 F1440
G1 X88.527 Y73.604 E1.32714
G1 X88.761 Y74.057 E0.01232
G1 X88.956 Y74.353 E0.00858
G1 X89.176 Y74.631 E0.00858
G1 X89.533 Y74.994 E0.01232
G1 X89.807 Y75.219 E0.00858
G1 X90.100 Y75.419 E0.00858
G1 X90.554 Y75.663 E0.01247
G1 X91.042 Y75.850 E0.01263
G1 X91.543 Y75.970 E0.01247
G1 X91.895 Y76.016 E0.00858
G1 X92.230 Y76.030 E0.00811
G1 X157.075 Y76.030 E1.56827
G1 X157.526 Y76.003 E0.01092
G1 X157.922 Y75.938 E0.00972
G1 X158.419 Y75.796 E0.01248
G1 X158.891 Y75.593 E0.01243
G1 X159.199 Y75.420 E0.00855
G1 X159.485 Y75.224 E0.00839
G1 X159.758 Y75.001 E0.00851
G1 X160.086 Y74.673 E0.01123
G1 X160.334 Y74.365 E0.00956
G1 X160.528 Y74.074 E0.00845
G1 X160.695 Y73.770 E0.00839
G1 X160.830 Y73.465 E0.00808
G1 X180.817 Y22.426 E1.32565
G1 X196.690 Y22.426 E0.38389
G1 X132.001 Y187.572 E4.28952
G1 X118.321 Y187.574 E0.33086
G1 X53.310 Y22.426 E4.29241
G1 X68.668 Y22.426 E0.37142
G1 F5760
G1 X68.731 Y22.431 E-0.02194
G1 F5760
G1 X69.500 Y24.419 E-0.73806
G1 E-0.04000 F2100.00000
G1 X99.035 Y90.341 F7200.000
G1 E0.80000 F2100.00000
G1 F1080
G1 X99.467 Y90.154 E0.01137
G1 X99.772 Y90.060 E0.00773
G1 X100.234 Y89.969 E0.01137
G1 X100.698 Y89.939 E0.01127
G1 X149.604 Y89.942 E1.18278
G1 X149.917 Y89.969 E0.00761
G1 X150.230 Y90.023 E0.00766
G1 X150.682 Y90.153 E0.01137
G1 X151.154 Y90.361 E0.01246
G1 X151.647 Y90.671 E0.01409
G1 X152.005 Y90.978 E0.01140
G1 X152.222 Y91.208 E0.00766
G1 X152.417 Y91.455 E0.00761
G1 X152.591 Y91.717 E0.00761
G1 X152.743 Y91.996 E0.00766
G1 X152.921 Y92.428 E0.01130
G1 X153.010 Y92.732 E0.00766
G1 X153.072 Y93.040 E0.00761
G1 X153.107 Y93.353 E0.00761
G1 X153.115 Y93.668 E0.00761
G1 X153.097 Y93.982 E0.00761
G1 X153.051 Y94.293 E0.00761
G1 X152.979 Y94.599 E0.00761
G1 X152.883 Y94.894 E0.00750
G1 X134.264 Y144.448 E1.28026
G1 X132.855 Y148.263 E0.09835
G1 X132.541 Y149.150 E0.02276
G1 X130.441 Y155.399 E0.15944
G1 X128.428 Y161.860 E0.16368
G1 X128.277 Y162.191 E0.00878
G1 X128.059 Y162.561 E0.01039
G1 X127.772 Y162.933 E0.01139
G1 X127.550 Y163.165 E0.00775
G1 X127.191 Y163.466 E0.01134
G1 X126.927 Y163.644 E0.00769
G1 X126.649 Y163.798 E0.00769
G1 X126.216 Y163.979 E0.01134
G1 X125.911 Y164.070 E0.00769
G1 X125.600 Y164.134 E0.00769
G1 X125.133 Y164.179 E0.01134
G1 X124.815 Y164.176 E0.00769
G1 X124.501 Y164.145 E0.00764
G1 X124.190 Y164.087 E0.00764
G1 X123.886 Y164.003 E0.00764
G1 X123.590 Y163.893 E0.00764
G1 X123.305 Y163.758 E0.00764
G1 X123.032 Y163.599 E0.00764
G1 X122.772 Y163.416 E0.00769
G1 X122.420 Y163.106 E0.01134
G1 X122.205 Y162.871 E0.00769
G1 X122.012 Y162.620 E0.00766
G1 X121.821 Y162.316 E0.00869
G1 X121.631 Y161.931 E0.01039
G1 X121.479 Y161.491 E0.01125
G1 X120.198 Y157.026 E0.11234
G1 X118.059 Y150.250 E0.17185
G1 X116.054 Y144.428 E0.14892
G1 X97.221 Y94.758 E1.28470
G1 X97.103 Y94.306 E0.01132
G1 X97.056 Y93.989 E0.00773
G1 X97.037 Y93.519 E0.01137
G1 X97.079 Y93.049 E0.01143
G1 X97.180 Y92.589 E0.01139
G1 X97.298 Y92.247 E0.00873
G1 X97.480 Y91.859 E0.01036
G1 X97.731 Y91.459 E0.01142
G1 X98.031 Y91.096 E0.01139
G1 X98.291 Y90.846 E0.00873
G1 X98.629 Y90.583 E0.01036
G1 X98.983 Y90.372 E0.00997
G1 X99.056 Y89.942 F7200.000
G1 X98.858 Y89.995 F7200.000
G1 F1440
G1 X99.332 Y89.790 E0.01248
G1 X99.677 Y89.683 E0.00874
G1 X100.184 Y89.584 E0.01248
G1 X100.686 Y89.551 E0.01217
G1 X149.621 Y89.555 E1.18348
G1 X149.967 Y89.584 E0.00841
G1 X150.316 Y89.645 E0.00857
G1 X150.814 Y89.787 E0.01252
G1 X151.336 Y90.017 E0.01380
G1 X151.877 Y90.358 E0.01547
G1 X152.273 Y90.697 E0.01259
G1 X152.516 Y90.954 E0.00857
G1 X152.732 Y91.227 E0.00841
G1 X152.924 Y91.517 E0.00842
G1 X153.093 Y91.829 E0.00857
G1 X153.287 Y92.299 E0.01231
G1 X153.386 Y92.639 E0.00857
G1 X153.455 Y92.980 E0.00842
G1 X153.494 Y93.326 E0.00842
G1 X153.503 Y93.674 E0.00841
G1 X153.483 Y94.021 E0.00841
G1 X153.432 Y94.366 E0.00842
G1 X153.353 Y94.704 E0.00841
G1 X153.249 Y95.023 E0.00810
G1 X134.628 Y144.584 E1.28043
G1 X133.220 Y148.395 E0.09826
G1 X132.908 Y149.276 E0.02262
G1 X130.810 Y155.519 E0.15926
G1 X128.791 Y161.999 E0.16416
G1 X128.622 Y162.370 E0.00985
G1 X128.381 Y162.778 E0.01146
G1 X128.066 Y163.187 E0.01248
G1 X127.816 Y163.448 E0.00876
G1 X127.425 Y163.777 E0.01235
G1 X127.129 Y163.975 E0.00860
G1 X126.818 Y164.147 E0.00860
G1 X126.347 Y164.345 E0.01235
G1 X126.006 Y164.446 E0.00860
G1 X125.658 Y164.518 E0.00860
G1 X125.150 Y164.567 E0.01235
G1 X124.794 Y164.563 E0.00860
G1 X124.446 Y164.529 E0.00845
G1 X124.103 Y164.466 E0.00845
G1 X123.767 Y164.373 E0.00845
G1 X123.439 Y164.251 E0.00845
G1 X123.124 Y164.102 E0.00845
G1 X122.822 Y163.926 E0.00845
G1 X122.531 Y163.721 E0.00860
G1 X122.148 Y163.383 E0.01235
G1 X121.908 Y163.121 E0.00860
G1 X121.693 Y162.842 E0.00850
G1 X121.482 Y162.505 E0.00962
G1 X121.272 Y162.080 E0.01146
G1 X121.109 Y161.608 E0.01208
G1 X119.827 Y157.138 E0.11246
G1 X117.690 Y150.372 E0.17161
G1 X115.689 Y144.560 E0.14866
G1 X96.851 Y94.876 E1.28506
G1 X96.722 Y94.383 E0.01233
G1 X96.669 Y94.026 E0.00874
G1 X96.648 Y93.510 E0.01248
G1 X96.695 Y92.989 E0.01264
G1 X96.807 Y92.483 E0.01254
G1 X96.938 Y92.102 E0.00976
G1 X97.138 Y91.673 E0.01144
G1 X97.416 Y91.232 E0.01261
G1 X97.746 Y90.832 E0.01254
G1 X98.037 Y90.552 E0.00976
G1 X98.410 Y90.262 E0.01144
G1 X98.807 Y90.026 E0.01116
G1 F5760
G1 X99.332 Y89.790 E-0.19941
G1 F5760
G1 X99.677 Y89.683 E-0.12516
G1 F5760
G1 X100.184 Y89.584 E-0.17879
G1 F5760
G1 X100.686 Y89.551 E-0.17434
G1 F5760
G1 X100.924 Y89.551 E-0.08230
G1 E-0.04000 F2100.00000
G1 X96.638 Y95.054 F7200.000
G1 E0.80000 F2100.00000
G1 F1440
G1 X72.799 Y71.214 E0.81635
G1 X73.155 Y72.120 F7200.000
G1 F1440
G1 X96.974 Y95.938 E0.81563
G1 X97.309 Y96.823 F7200.000
G1 F1440
G1 X73.511 Y73.025 E0.81490
G1 X73.868 Y73.931 F7200.000
G1 F1440
G1 X97.644 Y97.707 E0.81418
G1 X97.980 Y98.592 F7200.000
G1 F1440
G1 X74.224 Y74.836 E0.81346
G1 X74.581 Y75.742 F7200.000
G1 F1440
G1 X98.315 Y99.476 E0.81273
G1 X98.650 Y100.361 F7200.000
G1 F1440
G1 X74.937 Y76.648 E0.81201
G1 X75.294 Y77.553 F7200.000
G1 F1440
G1 X98.986 Y101.245 E0.81129
G1 X99.321 Y102.130 F7200.000
G1 F1440
G1 X75.650 Y78.459 E0.81056
G1 X76.007 Y79.364 F7200.000
G1 F1440
G1 X99.656 Y103.014 E0.80984
G1 X99.992 Y103.898 F7200.000
G1 F1440
G1 X76.363 Y80.270 E0.80912
G1 X76.720 Y81.175 F7200.000
G1 F1440
G1 X100.327 Y104.783 E0.80839
G1 X100.663 Y105.667 F7200.000
G1 F1440
G1 X77.076 Y82.081 E0.80767
G1 X77.433 Y82.987 F7200.000
G1 F1440
G1 X100.998 Y106.552 E0.80695
G1 X101.333 Y107.436 F7200.000
G1 F1440
G1 X77.789 Y83.892 E0.80622
G1 X78.146 Y84.798 F7200.000
G1 F1440
G1 X101.669 Y108.321 E0.80550
G1 X102.004 Y109.205 F7200.000
G1 F1440
G1 X78.502 Y85.703 E0.80478
G1 X78.859 Y86.609 F7200.000
G1 F1440
G1 X102.339 Y110.090 E0.80405
G1 X102.675 Y110.974 F7200.000
G1 F1440
G1 X79.215 Y87.515 E0.80333
G1 X79.572 Y88.420 F7200.000
G1 F1440
G1 X103.010 Y111.858 E0.80261
G1 X103.345 Y112.743 F7200.000
G1 F1440
G1 X79.928 Y89.326 E0.80188
G1 X80.285 Y90.231 F7200.000
G1 F1440
G1 X103.681 Y113.627 E0.80116
G1 X104.016 Y114.512 F7200.000
G1 F1440
G1 X80.641 Y91.137 E0.80044
G1 X80.998 Y92.042 F7200.000
G1 F1440
G1 X104.351 Y115.396 E0.79971
G1 X104.687 Y116.281 F7200.000
G1 F1440
G1 X81.354 Y92.948 E0.79899
G1 X81.710 Y93.854 F7200.000
G1 F1440
G1 X105.022 Y117.165 E0.79827
G1 X105.357 Y118.050 F7200.000
G1 F1440
G1 X82.067 Y94.759 E0.79754
G1 X82.423 Y95.665 F7200.000
G1 F1440
G1 X105.693 Y118.934 E0.79682
G1 X106.028 Y119.819 F7200.000
G1 F1440
G1 X82.780 Y96.570 E0.79610
G1 X83.136 Y97.476 F7200.000
G1 F1440
G1 X106.364 Y120.703 E0.79537
G1 X106.699 Y121.587 F7200.000
G1 F1440
G1 X83.493 Y98.381 E0.79465
G1 X83.849 Y99.287 F7200.000
G1 F1440
G1 X107.034 Y122.472 E0.79393
G1 X107.370 Y123.356 F7200.000
G1 F1440
G1 X84.206 Y100.193 E0.79320
G1 X84.562 Y101.098 F7200.000
G1 F1440
G1 X107.705 Y124.241 E0.79248
G1 X108.040 Y125.125 F7200.000
G1 F1440
G1 X84.919 Y102.004 E0.79176
G1 X85.275 Y102.909 F7200.000
G1 F1440
G1 X108.376 Y126.010 E0.79103
G1 X108.711 Y126.894 F7200.000
G1 F1440
G1 X85.632 Y103.815 E0.79031
G1 X85.988 Y104.720 F7200.000
G1 F1440
G1 X109.046 Y127.779 E0.78959
G1 X109.382 Y128.663 F7200.000
G1 F1440
G1 X86.345 Y105.626 E0.78886
G1 X86.701 Y106.532 F7200.000
G1 F1440
G1 X109.717 Y129.548 E0.78814
G1 X110.052 Y130.432 F7200.000
G1 F1440
G1 X87.058 Y107.437 E0.78742
G1 X87.414 Y108.343 F7200.000
G1 F1440
G1 X110.388 Y131.316 E0.78669
G1 X110.723 Y132.201 F7200.000
G1 F1440
G1 X87.771 Y109.248 E0.78597
G1 X88.127 Y110.154 F7200.000
G1 F1440
G1 X111.058 Y133.085 E0.78525
G1 X111.394 Y133.970 F7200.000
G1 F1440
G1 X88.484 Y111.059 E0.78452
G1 X88.840 Y111.965 F7200.000
G1 F1440
G1 X111.729 Y134.854 E0.78380
G1 X112.065 Y135.739 F7200.000
G1 F1440
G1 X89.197 Y112.871 E0.78308
G1 X89.553 Y113.776 F7200.000
G1 F1440
G1 X112.400 Y136.623 E0.78235
G1 X112.735 Y137.508 F7200.000
G1 F1440
G1 X89.909 Y114.682 E0.78163
G1 X90.266 Y115.587 F7200.000
G1 F1440
G1 X113.071 Y138.392 E0.78091
G1 X113.406 Y139.276 F7200.000
G1 F1440
G1 X90.622 Y116.493 E0.78018
G1 X90.979 Y117.399 F7200.000
G1 F1440
G1 X113.741 Y140.161 E0.77946
G1 X114.077 Y141.045 F7200.000
G1 F1440
G1 X91.335 Y118.304 E0.77873
G1 X91.692 Y119.210 F7200.000
G1 F1440
G1 X114.412 Y141.930 E0.77801
G1 X114.747 Y142.814 F7200.000
G1 F1440
G1 X92.048 Y120.115 E0.77729
G1 X92.405 Y121.021 F7200.000
G1 F1440
G1 X115.083 Y143.699 E0.77656
G1 X115.418 Y144.583 F7200.000
G1 F1440
G1 X92.761 Y121.926 E0.77584
G1 X93.118 Y122.832 F7200.000
G1 F1440
G1 X115.715 Y145.429 E0.77381
G1 X116.004 Y146.267 F7200.000
G1 F1440
G1 X93.474 Y123.738 E0.77147
G1 X93.831 Y124.643 F7200.000
G1 F1440
G1 X116.292 Y147.104 E0.76914
G1 X116.580 Y147.942 F7200.000
G1 F1440
G1 X94.187 Y125.549 E0.76681
G1 X94.544 Y126.454 F7200.000
G1 F1440
G1 X116.869 Y148.779 E0.76448
G1 X117.157 Y149.617 F7200.000
G1 F1440
G1 X94.900 Y127.360 E0.76214
G1 X95.257 Y128.265 F7200.000
G1 F1440
G1 X117.445 Y150.454 E0.75981
G1 F5760
G1 X115.894 Y148.903 E-0.76000
G1 E-0.04000 F2100.00000
G1 X121.099 Y162.344 F7200.000
G1 E0.80000 F2100.00000
G1 F1440
G1 X100.604 Y141.849 E0.70182
G1 X100.247 Y140.944 F7200.000
G1 F1440
