; generated by Slic3r 1.3.0-dev on 2016-10-23 at 08:20:50

; external perimeters extrusion width = 0.45mm
; perimeters extrusion width = 0.45mm
; infill extrusion width = 0.45mm
; solid infill extrusion width = 0.45mm
; top infill extrusion width = 0.40mm

M107
M115 U3.0.8 ; tell printer latest fw version
M83  ; extruder relative mode
M104 S200 ; set extruder temp
M140 S55 ; set bed temp
M190 S55 ; wait for bed temp
M109 S200 ; wait for extruder temp
G28 W ; home all without mesh bed level
G80 ; mesh bed leveling
G1 Y-3.0 F1000.0 ; go outside pritn area
G1 X60.0 E9.0  F1000.0 ; intro line
G1 X100.0 E12.5  F1000.0 ; intro line
G21 ; set units to millimeters
G90 ; use absolute coordinates
M83 ; use relative distances for extrusion
G1 E-0.80000 F2100.00000
G1 Z0.150 F7200.000
G1 X94.225 Y25.500 F7200.000
G1 E0.80000 F2100.00000
M204 S1000
G1 F1800
G1 X94.618 Y24.077 E0.03571
G1 X95.685 Y23.056 E0.03571
G1 X97.001 Y22.724 E0.03281
G1 X128.001 Y22.724 E0.74973
G1 X129.424 Y23.117 E0.03571
G1 X130.445 Y24.184 E0.03571
G1 X130.713 Y24.910 E0.01870
G1 X145.098 Y91.010 E1.63604
G1 X145.161 Y91.600 E0.01436
G1 X145.161 Y118.400 E0.64815
G1 X145.098 Y118.990 E0.01436
G1 X130.713 Y185.090 E1.63604
G1 X130.026 Y186.398 E0.03571
G1 X128.767 Y187.168 E0.03571
G1 X128.001 Y187.276 E0.01870
G1 X97.001 Y187.276 E0.74973
G1 X95.577 Y186.883 E0.03571
G1 X94.557 Y185.816 E0.03571
G1 X94.225 Y184.500 E0.03281
G1 X94.225 Y25.560 E3.84395
G1 X94.613 Y25.500 F7200.000
G1 F1800
G1 X95.005 Y24.190 E0.03307
G1 X96.051 Y23.309 E0.03307
G1 X97.001 Y23.112 E0.02346
G1 X128.001 Y23.112 E0.74973
G1 X129.311 Y23.504 E0.03307
G1 X130.334 Y24.992 E0.04368
G1 X144.719 Y91.092 E1.63604
G1 X144.774 Y91.600 E0.01235
G1 X144.774 Y118.400 E0.64815
G1 X144.719 Y118.908 E0.01235
G1 X130.334 Y185.008 E1.63604
G1 X129.673 Y186.205 E0.03307
G1 X128.001 Y186.888 E0.04368
G1 X97.001 Y186.888 E0.74973
G1 X95.690 Y186.496 E0.03307
G1 X94.810 Y185.450 E0.03307
G1 X94.613 Y184.500 E0.02346
G1 X94.613 Y25.560 E3.84395
G1 F5760
G1 X95.005 Y24.190 E-0.49361
G1 F5760
G1 X95.593 Y23.695 E-0.26639
G1 E-0.04000 F2100.00000
G1 X121.599 Y31.902 F7200.000
G1 E0.80000 F2100.00000
G1 F1440
G1 X97.599 Y31.902 E0.58044
G1 X97.599 Y26.098 E0.14038
G1 X127.403 Y26.098 E0.72082
G1 X127.403 Y92.198 E1.59862
G1 X141.788 Y92.198 E0.34790
G1 X141.788 Y96.002 E0.09201
G1 X131.403 Y96.002 E0.25116
G1 X131.403 Y113.998 E0.43522
G1 X141.788 Y113.998 E0.25116
G1 X141.788 Y117.802 E0.09201
G1 X127.403 Y117.802 E0.34790
G1 X127.403 Y183.902 E1.59862
G1 X97.599 Y183.902 E0.72082
G1 X97.599 Y178.098 E0.14038
G1 X121.599 Y178.098 E0.58044
G1 X121.599 Y31.962 E3.53427
G1 X121.211 Y32.290 F7200.000
G1 F1080
G1 X97.211 Y32.290 E0.58044
G1 X97.211 Y25.710 E0.15914
G1 X127.791 Y25.710 E0.73957
G1 X127.791 Y91.810 E1.59862
G1 X142.176 Y91.810 E0.34790
G1 X142.176 Y96.390 E0.11077
G1 X131.791 Y96.390 E0.25116
G1 X131.791 Y113.610 E0.41646
G1 X142.176 Y113.610 E0.25116
G1 X142.176 Y118.190 E0.11077
G1 X127.791 Y118.190 E0.34790
G1 X127.791 Y184.290 E1.59862
G1 X97.211 Y184.290 E0.73957
G1 X97.211 Y177.710 E0.15914
G1 X121.211 Y177.710 E0.58044
G1 X121.211 Y32.350 E3.51551
G1 X121.233 Y31.891 F7200.000
G1 X121.330 Y31.675 F7200.000
G1 F1440
G1 X115.980 Y26.325 E0.18333
G1 X115.431 Y26.325 E0.01332
G1 X120.781 Y31.675 E0.18333
G1 X120.231 Y31.675 E0.01332
G1 X114.881 Y26.325 E0.18333
G1 X114.332 Y26.325 E0.01332
G1 X119.682 Y31.675 E0.18333
G1 X119.132 Y31.675 E0.01332
G1 X113.782 Y26.325 E0.18333
G1 X113.233 Y26.325 E0.01332
G1 X118.583 Y31.675 E0.18333
G1 X118.033 Y31.675 E0.01332
G1 X112.683 Y26.325 E0.18333
G1 X112.134 Y26.325 E0.01332
G1 X117.483 Y31.675 E0.18333
G1 X116.934 Y31.675 E0.01332
G1 X111.584 Y26.325 E0.18333
G1 X111.035 Y26.325 E0.01332
G1 X116.384 Y31.675 E0.18333
G1 X115.835 Y31.675 E0.01332
G1 X110.485 Y26.325 E0.18333
G1 X109.936 Y26.325 E0.01332
G1 X115.285 Y31.675 E0.18333
G1 X114.736 Y31.675 E0.01332
G1 X109.386 Y26.325 E0.18333
G1 X108.837 Y26.325 E0.01332
G1 X114.186 Y31.675 E0.18333
G1 X113.637 Y31.675 E0.01332
G1 X108.287 Y26.325 E0.18333
G1 X107.738 Y26.325 E0.01332
G1 X113.087 Y31.675 E0.18333
G1 X112.538 Y31.675 E0.01332
G1 X107.188 Y26.325 E0.18333
G1 X106.638 Y26.325 E0.01332
G1 X111.988 Y31.675 E0.18333
G1 X111.439 Y31.675 E0.01332
G1 X106.089 Y26.325 E0.18333
G1 X105.539 Y26.325 E0.01332
G1 X110.889 Y31.675 E0.18333
G1 X110.340 Y31.675 E0.01332
G1 X104.990 Y26.325 E0.18333
G1 X104.440 Y26.325 E0.01332
G1 X109.790 Y31.675 E0.18333
G1 X109.241 Y31.675 E0.01332
G1 X103.891 Y26.325 E0.18333
G1 X103.341 Y26.325 E0.01332
G1 X108.691 Y31.675 E0.18333
G1 X108.141 Y31.675 E0.01332
G1 X102.792 Y26.325 E0.18333
G1 X102.242 Y26.325 E0.01332
G1 X107.592 Y31.675 E0.18333
G1 X107.042 Y31.675 E0.01332
G1 X101.693 Y26.325 E0.18333
G1 X101.143 Y26.325 E0.01332
G1 X106.493 Y31.675 E0.18333
G1 X105.943 Y31.675 E0.01332
G1 X100.594 Y26.325 E0.18333
G1 X100.044 Y26.325 E0.01332
G1 X105.394 Y31.675 E0.18333
G1 X104.844 Y31.675 E0.01332
G1 X99.495 Y26.325 E0.18333
G1 X98.945 Y26.325 E0.01332
G1 X104.295 Y31.675 E0.18333
G1 X103.745 Y31.675 E0.01332
G1 X98.396 Y26.325 E0.18333
G1 X97.856 Y26.335 E0.01308
G1 X103.196 Y31.675 E0.18299
G1 X102.646 Y31.675 E0.01332
G1 X97.826 Y26.855 E0.16519
G1 X97.826 Y27.404 E0.01332
G1 X102.097 Y31.675 E0.14636
G1 X101.547 Y31.675 E0.01332
G1 X97.826 Y27.954 E0.12752
G1 X97.826 Y28.503 E0.01332
G1 X100.998 Y31.675 E0.10869
G1 X100.448 Y31.675 E0.01332
G1 X97.826 Y29.053 E0.08986
G1 X97.826 Y29.602 E0.01332
G1 X99.898 Y31.675 E0.07103
G1 X99.349 Y31.675 E0.01332
G1 X97.826 Y30.152 E0.05219
G1 X97.826 Y30.701 E0.01332
G1 X98.799 Y31.675 E0.03336
G1 X98.250 Y31.675 E0.01332
G1 X97.826 Y31.251 E0.01453
G1 F5760
G1 X98.250 Y31.675 E-0.20767
G1 F5760
G1 X98.799 Y31.675 E-0.19033
G1 F5760
G1 X98.060 Y30.936 E-0.36200
G1 E-0.04000 F2100.00000
G1 X127.176 Y26.530 F7200.000
G1 E0.80000 F2100.00000
G1 F1440
G1 X126.971 Y26.325 E0.00701
G1 X126.422 Y26.325 E0.01332
G1 X127.176 Y27.079 E0.02584
G1 X127.176 Y27.629 E0.01332
G1 X125.872 Y26.325 E0.04467
G1 X125.322 Y26.325 E0.01332
G1 X127.176 Y28.178 E0.06351
G1 X127.176 Y28.728 E0.01332
G1 X124.773 Y26.325 E0.08234
G1 X124.223 Y26.325 E0.01332
G1 X127.176 Y29.277 E0.10117
G1 X127.176 Y29.827 E0.01332
G1 X123.674 Y26.325 E0.12000
G1 X123.124 Y26.325 E0.01332
G1 X127.176 Y30.376 E0.13884
G1 X127.176 Y30.926 E0.01332
G1 X122.575 Y26.325 E0.15767
G1 X122.025 Y26.325 E0.01332
G1 X127.176 Y31.475 E0.17650
G1 X127.176 Y32.025 E0.01332
G1 X121.476 Y26.325 E0.19533
G1 X120.926 Y26.325 E0.01332
G1 X127.176 Y32.575 E0.21417
G1 X127.176 Y33.124 E0.01332
G1 X120.377 Y26.325 E0.23300
G1 X119.827 Y26.325 E0.01332
G1 X127.176 Y33.674 E0.25183
G1 X127.176 Y34.223 E0.01332
G1 X119.278 Y26.325 E0.27066
G1 X118.728 Y26.325 E0.01332
G1 X127.176 Y34.773 E0.28950
G1 X127.176 Y35.322 E0.01332
G1 X118.179 Y26.325 E0.30833
G1 X117.629 Y26.325 E0.01332
G1 X127.176 Y35.872 E0.32716
G1 X127.176 Y36.421 E0.01332
G1 X117.080 Y26.325 E0.34599
G1 X116.530 Y26.325 E0.01332
G1 X127.176 Y36.971 E0.36483
G1 X127.176 Y37.520 E0.01332
G1 X121.826 Y32.171 E0.18333
G1 X121.826 Y32.720 E0.01332
G1 X127.176 Y38.070 E0.18333
G1 X127.176 Y38.619 E0.01332
G1 X121.826 Y33.270 E0.18333
G1 X121.826 Y33.819 E0.01332
G1 X127.176 Y39.169 E0.18333
G1 X127.176 Y39.718 E0.01332
G1 X121.826 Y34.369 E0.18333
G1 X121.826 Y34.918 E0.01332
G1 X127.176 Y40.268 E0.18333
G1 X127.176 Y40.817 E0.01332
G1 X121.826 Y35.468 E0.18333
G1 X121.826 Y36.017 E0.01332
G1 X127.176 Y41.367 E0.18333
G1 X127.176 Y41.917 E0.01332
G1 X121.826 Y36.567 E0.18333
G1 X121.826 Y37.116 E0.01332
G1 X127.176 Y42.466 E0.18333
G1 X127.176 Y43.016 E0.01332
G1 X121.826 Y37.666 E0.18333
G1 X121.826 Y38.215 E0.01332
G1 X127.176 Y43.565 E0.18333
G1 X127.176 Y44.115 E0.01332
G1 X121.826 Y38.765 E0.18333
G1 X121.826 Y39.314 E0.01332
G1 X127.176 Y44.664 E0.18333
G1 X127.176 Y45.214 E0.01332
G1 X121.826 Y39.864 E0.18333
G1 X121.826 Y40.414 E0.01332
G1 X127.176 Y45.763 E0.18333
G1 X127.176 Y46.313 E0.01332
G1 X121.826 Y40.963 E0.18333
G1 X121.826 Y41.513 E0.01332
G1 X127.176 Y46.862 E0.18333
G1 X127.176 Y47.412 E0.01332
G1 X121.826 Y42.062 E0.18333
G1 X121.826 Y42.612 E0.01332
G1 X127.176 Y47.961 E0.18333
G1 X127.176 Y48.511 E0.01332
G1 X121.826 Y43.161 E0.18333
G1 X121.826 Y43.711 E0.01332
G1 X127.176 Y49.060 E0.18333
G1 X127.176 Y49.610 E0.01332
G1 X121.826 Y44.260 E0.18333
G1 X121.826 Y44.810 E0.01332
G1 X127.176 Y50.159 E0.18333
G1 X127.176 Y50.709 E0.01332
G1 X121.826 Y45.359 E0.18333
G1 X121.826 Y45.909 E0.01332
G1 X127.176 Y51.259 E0.18333
G1 X127.176 Y51.808 E0.01332
G1 X121.826 Y46.458 E0.18333
G1 X121.826 Y47.008 E0.01332
G1 X127.176 Y52.358 E0.18333
G1 X127.176 Y52.907 E0.01332
G1 X121.826 Y47.557 E0.18333
G1 X121.826 Y48.107 E0.01332
G1 X127.176 Y53.457 E0.18333
G1 X127.176 Y54.006 E0.01332
G1 X121.826 Y48.657 E0.18333
G1 X121.826 Y49.206 E0.01332
G1 X127.176 Y54.556 E0.18333
G1 X127.176 Y55.105 E0.01332
G1 X121.826 Y49.756 E0.18333
G1 X121.826 Y50.305 E0.01332
G1 X127.176 Y55.655 E0.18333
G1 X127.176 Y56.204 E0.01332
G1 X121.826 Y50.855 E0.18333
G1 X121.826 Y51.404 E0.01332
G1 X127.176 Y56.754 E0.18333
G1 X127.176 Y57.303 E0.01332
G1 X121.826 Y51.954 E0.18333
G1 X121.826 Y52.503 E0.01332
G1 X127.176 Y57.853 E0.18333
G1 X127.176 Y58.402 E0.01332
G1 X121.826 Y53.053 E0.18333
G1 X121.826 Y53.602 E0.01332
G1 X127.176 Y58.952 E0.18333
G1 X127.176 Y59.501 E0.01332
G1 X121.826 Y54.152 E0.18333
G1 X121.826 Y54.701 E0.01332
G1 X127.176 Y60.051 E0.18333
G1 X127.176 Y60.601 E0.01332
G1 X121.826 Y55.251 E0.18333
G1 X121.826 Y55.800 E0.01332
G1 X127.176 Y61.150 E0.18333
G1 X127.176 Y61.700 E0.01332
G1 X121.826 Y56.350 E0.18333
G1 X121.826 Y56.899 E0.01332
G1 X127.176 Y62.249 E0.18333
G1 X127.176 Y62.799 E0.01332
G1 X121.826 Y57.449 E0.18333
G1 X121.826 Y57.999 E0.01332
G1 X127.176 Y63.348 E0.18333
G1 X127.176 Y63.898 E0.01332
G1 X121.826 Y58.548 E0.18333
G1 X121.826 Y59.098 E0.01332
G1 X127.176 Y64.447 E0.18333
G1 X127.176 Y64.997 E0.01332
G1 X121.826 Y59.647 E0.18333
G1 X121.826 Y60.197 E0.01332
G1 X127.176 Y65.546 E0.18333
G1 X127.176 Y66.096 E0.01332
G1 X121.826 Y60.746 E0.18333
G1 X121.826 Y61.296 E0.01332
G1 X127.176 Y66.645 E0.18333
G1 X127.176 Y67.195 E0.01332
G1 X121.826 Y61.845 E0.18333
G1 X121.826 Y62.395 E0.01332
G1 X127.176 Y67.744 E0.18333
G1 X127.176 Y68.294 E0.01332
G1 X121.826 Y62.944 E0.18333
G1 X121.826 Y63.494 E0.01332
G1 X127.176 Y68.843 E0.18333
G1 X127.176 Y69.393 E0.01332
G1 X121.826 Y64.043 E0.18333
G1 X121.826 Y64.593 E0.01332
G1 X127.176 Y69.943 E0.18333
G1 X127.176 Y70.492 E0.01332
G1 X121.826 Y65.142 E0.18333
G1 X121.826 Y65.692 E0.01332
G1 X127.176 Y71.042 E0.18333
G1 X127.176 Y71.591 E0.01332
G1 X121.826 Y66.241 E0.18333
G1 X121.826 Y66.791 E0.01332
G1 X127.176 Y72.141 E0.18333
G1 X127.176 Y72.690 E0.01332
G1 X121.826 Y67.341 E0.18333
G1 X121.826 Y67.890 E0.01332
G1 X127.176 Y73.240 E0.18333
G1 X127.176 Y73.789 E0.01332
G1 X121.826 Y68.440 E0.18333
G1 X121.826 Y68.989 E0.01332
G1 X127.176 Y74.339 E0.18333
G1 X127.176 Y74.888 E0.01332
G1 X121.826 Y69.539 E0.18333
G1 X121.826 Y70.088 E0.01332
G1 X127.176 Y75.438 E0.18333
G1 X127.176 Y75.987 E0.01332
G1 X121.826 Y70.638 E0.18333
G1 X121.826 Y71.187 E0.01332
G1 X127.176 Y76.537 E0.18333
G1 X127.176 Y77.086 E0.01332
G1 X121.826 Y71.737 E0.18333
G1 X121.826 Y72.286 E0.01332
G1 X127.176 Y77.636 E0.18333
G1 X127.176 Y78.186 E0.01332
G1 X121.826 Y72.836 E0.18333
G1 X121.826 Y73.385 E0.01332
G1 X127.176 Y78.735 E0.18333
G1 X127.176 Y79.285 E0.01332
G1 X121.826 Y73.935 E0.18333
G1 X121.826 Y74.484 E0.01332
G1 X127.176 Y79.834 E0.18333
G1 X127.176 Y80.384 E0.01332
G1 X121.826 Y75.034 E0.18333
G1 X121.826 Y75.583 E0.01332
G1 X127.176 Y80.933 E0.18333
G1 X127.176 Y81.483 E0.01332
G1 X121.826 Y76.133 E0.18333
G1 X121.826 Y76.683 E0.01332
G1 X127.176 Y82.032 E0.18333
G1 X127.176 Y82.582 E0.01332
G1 X121.826 Y77.232 E0.18333
G1 X121.826 Y77.782 E0.01332
G1 X127.176 Y83.131 E0.18333
G1 X127.176 Y83.681 E0.01332
G1 X121.826 Y78.331 E0.18333
G1 X121.826 Y78.881 E0.01332
G1 X127.176 Y84.230 E0.18333
G1 X127.176 Y84.780 E0.01332
G1 X121.826 Y79.430 E0.18333
G1 X121.826 Y79.980 E0.01332
G1 X127.176 Y85.329 E0.18333
G1 X127.176 Y85.879 E0.01332
G1 X121.826 Y80.529 E0.18333
G1 X121.826 Y81.079 E0.01332
G1 X127.176 Y86.428 E0.18333
G1 X127.176 Y86.978 E0.01332
G1 X121.826 Y81.628 E0.18333
G1 X121.826 Y82.178 E0.01332
G1 X127.176 Y87.528 E0.18333
G1 X127.176 Y88.077 E0.01332
G1 X121.826 Y82.727 E0.18333
G1 X121.826 Y83.277 E0.01332
G1 X127.176 Y88.627 E0.18333
G1 X127.176 Y89.176 E0.01332
G1 X121.826 Y83.826 E0.18333
G1 X121.826 Y84.376 E0.01332
G1 X127.176 Y89.726 E0.18333
G1 X127.176 Y90.275 E0.01332
G1 X121.826 Y84.925 E0.18333
G1 X121.826 Y85.475 E0.01332
G1 X127.176 Y90.825 E0.18333
G1 X127.176 Y91.374 E0.01332
G1 X121.826 Y86.025 E0.18333
G1 X121.826 Y86.574 E0.01332
G1 X127.176 Y91.924 E0.18333
G1 X127.127 Y92.425 E0.01221
G1 X131.176 Y96.473 E0.13873
G1 X131.176 Y97.023 E0.01332
G1 X121.826 Y87.673 E0.32042
G1 X121.826 Y88.223 E0.01332
G1 X131.176 Y97.572 E0.32042
G1 X131.176 Y98.122 E0.01332
G1 X121.826 Y88.772 E0.32042
G1 X121.826 Y89.322 E0.01332
G1 X131.176 Y98.671 E0.32042
G1 X131.176 Y99.221 E0.01332
G1 X121.826 Y89.871 E0.32042
G1 X121.826 Y90.421 E0.01332
G1 X131.176 Y99.770 E0.32042
G1 X131.176 Y100.320 E0.01332
G1 X121.826 Y90.970 E0.32042
G1 X121.826 Y91.520 E0.01332
G1 X131.176 Y100.870 E0.32042
G1 X131.176 Y101.419 E0.01332
G1 X121.826 Y92.069 E0.32042
G1 X121.826 Y92.619 E0.01332
G1 X131.176 Y101.969 E0.32042
G1 X131.176 Y102.518 E0.01332
G1 X121.826 Y93.168 E0.32042
G1 X121.826 Y93.718 E0.01332
G1 X131.176 Y103.068 E0.32042
G1 X131.176 Y103.617 E0.01332
G1 X121.826 Y94.267 E0.32042
G1 X121.826 Y94.817 E0.01332
G1 X131.176 Y104.167 E0.32042
G1 X131.176 Y104.716 E0.01332
G1 X121.826 Y95.367 E0.32042
G1 X121.826 Y95.916 E0.01332
G1 X131.176 Y105.266 E0.32042
G1 X131.176 Y105.815 E0.01332
G1 X121.826 Y96.466 E0.32042
G1 X121.826 Y97.015 E0.01332
G1 X131.176 Y106.365 E0.32042
G1 X131.176 Y106.914 E0.01332
G1 X121.826 Y97.565 E0.32042
G1 X121.826 Y98.114 E0.01332
G1 X131.176 Y107.464 E0.32042
G1 X131.176 Y108.013 E0.01332
G1 X121.826 Y98.664 E0.32042
G1 X121.826 Y99.213 E0.01332
G1 X131.176 Y108.563 E0.32042
G1 X131.176 Y109.112 E0.01332
G1 X121.826 Y99.763 E0.32042
G1 X121.826 Y100.312 E0.01332
G1 X131.176 Y109.662 E0.32042
G1 X131.176 Y110.212 E0.01332
G1 X121.826 Y100.862 E0.32042
G1 X121.826 Y101.411 E0.01332
G1 X131.176 Y110.761 E0.32042
G1 X131.176 Y111.311 E0.01332
G1 X121.826 Y101.961 E0.32042
G1 X121.826 Y102.510 E0.01332
G1 X131.176 Y111.860 E0.32042
G1 X131.176 Y112.410 E0.01332
G1 X121.826 Y103.060 E0.32042
G1 X121.826 Y103.609 E0.01332
G1 X131.176 Y112.959 E0.32042
G1 X131.176 Y113.509 E0.01332
G1 X121.826 Y104.159 E0.32042
G1 X121.826 Y104.709 E0.01332
G1 X134.692 Y117.575 E0.44093
G1 X134.143 Y117.575 E0.01332
G1 X121.826 Y105.258 E0.42210
G1 X121.826 Y105.808 E0.01332
G1 X133.593 Y117.575 E0.40327
G1 X133.044 Y117.575 E0.01332
G1 X121.826 Y106.357 E0.38443
G1 X121.826 Y106.907 E0.01332
G1 X132.494 Y117.575 E0.36560
G1 X131.945 Y117.575 E0.01332
G1 X121.826 Y107.456 E0.34677
G1 X121.826 Y108.006 E0.01332
G1 X131.395 Y117.575 E0.32794
G1 X130.846 Y117.575 E0.01332
G1 X121.826 Y108.555 E0.30910
G1 X121.826 Y109.105 E0.01332
G1 X130.296 Y117.575 E0.29027
G1 X129.746 Y117.575 E0.01332
G1 X121.826 Y109.654 E0.27144
G1 X121.826 Y110.204 E0.01332
G1 X129.197 Y117.575 E0.25261
G1 X128.647 Y117.575 E0.01332
G1 X121.826 Y110.753 E0.23377
G1 X121.826 Y111.303 E0.01332
G1 X128.098 Y117.575 E0.21494
G1 X127.548 Y117.575 E0.01332
G1 X121.826 Y111.852 E0.19611
G1 X121.826 Y112.402 E0.01332
G1 X127.176 Y117.752 E0.18333
G1 X127.176 Y118.301 E0.01332
G1 X121.826 Y112.952 E0.18333
G1 X121.826 Y113.501 E0.01332
G1 X127.176 Y118.851 E0.18333
G1 X127.176 Y119.400 E0.01332
G1 X121.826 Y114.051 E0.18333
G1 X121.826 Y114.600 E0.01332
G1 X127.176 Y119.950 E0.18333
G1 X127.176 Y120.499 E0.01332
G1 X121.826 Y115.150 E0.18333
G1 X121.826 Y115.699 E0.01332
G1 X127.176 Y121.049 E0.18333
G1 X127.176 Y121.598 E0.01332
G1 X121.826 Y116.249 E0.18333
