; generated by Slic3r 1.3.0-dev on 2016-08-16 at 20:13:50

; external perimeters extrusion width = 0.45mm
; perimeters extrusion width = 0.45mm
; infill extrusion width = 0.45mm
; solid infill extrusion width = 0.45mm
; top infill extrusion width = 0.40mm

M107
M83  ; extruder relative mode
M104 S210 ; set extruder temp
M140 S55 ; set bed temp
M190 S55 ; wait for bed temp
M109 S210 ; wait for extruder temp
G28 W ; home all without mesh bed level
G80 ; mesh bed leveling
G1 Y-3.0 F1000.0 ; go outside pritn area
G1 X60.0 E9.0  F1000.0 ; intro line
G1 X100.0 E12.5  F1000.0 ; intro line
G21 ; set units to millimeters
G90 ; use absolute coordinates
M83 ; use relative distances for extrusion
G1 E-0.80000 F2100.00000
G1 Z0.150 F7200.000
G1 X91.801 Y80.418 F7200.000
G1 E0.80000 F2100.00000
M204 S1000
G1 F1800
G1 X100.418 Y71.801 E0.29472
G1 X101.022 Y71.362 E0.01806
G1 X111.880 Y65.828 E0.29473
G1 X112.591 Y65.598 E0.01807
G1 X124.627 Y63.692 E0.29472
G1 X125.373 Y63.692 E0.01806
G1 X137.409 Y65.598 E0.29472
G1 X138.120 Y65.828 E0.01807
G1 X148.978 Y71.361 E0.29473
G1 X149.582 Y71.801 E0.01807
G1 X158.199 Y80.418 E0.29472
G1 X158.639 Y81.022 E0.01807
G1 X164.172 Y91.880 E0.29473
G1 X164.402 Y92.591 E0.01807
G1 X166.308 Y104.627 E0.29472
G1 X166.308 Y105.373 E0.01806
G1 X164.402 Y117.409 E0.29472
G1 X164.172 Y118.120 E0.01807
G1 X158.638 Y128.978 E0.29473
G1 X158.199 Y129.582 E0.01806
G1 X149.582 Y138.199 E0.29472
G1 X148.978 Y138.639 E0.01807
G1 X138.120 Y144.172 E0.29473
G1 X137.409 Y144.402 E0.01807
G1 X125.373 Y146.308 E0.29472
G1 X124.627 Y146.308 E0.01806
G1 X112.591 Y144.402 E0.29472
G1 X111.880 Y144.172 E0.01807
G1 X101.022 Y138.638 E0.29473
G1 X100.418 Y138.199 E0.01806
G1 X91.801 Y129.582 E0.29472
G1 X91.361 Y128.978 E0.01807
G1 X85.828 Y118.120 E0.29473
G1 X85.598 Y117.409 E0.01807
G1 X83.692 Y105.373 E0.29472
G1 X83.692 Y104.627 E0.01806
G1 X85.598 Y92.591 E0.29472
G1 X85.828 Y91.880 E0.01807
G1 X91.361 Y81.022 E0.29473
G1 X91.765 Y80.466 E0.01661
G1 F5760
G1 X93.316 Y78.913 E-0.76000
G1 E-0.04000 F2100.00000
G1 X156.021 Y127.538 F7200.000
G1 E0.80000 F2100.00000
G1 F1440
G1 X147.538 Y136.021 E0.29014
G1 X136.849 Y141.468 E0.29015
G1 X125.000 Y143.345 E0.29014
G1 X113.151 Y141.468 E0.29014
G1 X102.462 Y136.021 E0.29015
G1 X93.979 Y127.538 E0.29014
G1 X88.532 Y116.849 E0.29015
G1 X86.655 Y105.000 E0.29014
G1 X88.532 Y93.151 E0.29014
G1 X93.979 Y82.462 E0.29015
G1 X102.462 Y73.979 E0.29014
G1 X113.151 Y68.532 E0.29015
G1 X125.000 Y66.655 E0.29014
G1 X136.849 Y68.532 E0.29014
G1 X147.538 Y73.979 E0.29015
G1 X156.021 Y82.462 E0.29014
G1 X161.468 Y93.151 E0.29015
G1 X163.345 Y105.000 E0.29014
G1 X161.468 Y116.849 E0.29014
G1 X156.049 Y127.485 E0.28870
G1 X156.339 Y127.769 F7200.000
G1 F1080
G1 X147.769 Y136.339 E0.29312
G1 X136.970 Y141.842 E0.29312
G1 X125.000 Y143.737 E0.29311
G1 X113.030 Y141.842 E0.29311
G1 X102.231 Y136.339 E0.29312
G1 X93.661 Y127.769 E0.29312
G1 X88.158 Y116.970 E0.29312
G1 X86.263 Y105.000 E0.29311
G1 X88.158 Y93.030 E0.29311
G1 X93.661 Y82.231 E0.29312
G1 X102.231 Y73.661 E0.29312
G1 X113.030 Y68.158 E0.29312
G1 X125.000 Y66.263 E0.29311
G1 X136.970 Y68.158 E0.29311
G1 X147.769 Y73.661 E0.29312
G1 X156.339 Y82.231 E0.29312
G1 X161.842 Y93.030 E0.29312
G1 X163.737 Y105.000 E0.29311
G1 X161.842 Y116.970 E0.29311
G1 X156.366 Y127.716 E0.29167
G1 X155.941 Y127.727 F7200.000
G1 F5760
G1 X154.817 Y129.270 E-0.76000
G1 E-0.04000 F2100.00000
G1 X161.315 Y93.723 F7200.000
G1 E0.80000 F2100.00000
G1 F1440
G1 X136.277 Y68.685 E0.85909
G1 X135.623 Y68.582 E0.01606
G1 X161.418 Y94.377 E0.88507
G1 X161.522 Y95.031 E0.01606
G1 X134.969 Y68.478 E0.91105
G1 X134.316 Y68.375 E0.01606
G1 X161.625 Y95.684 E0.93704
G1 X161.729 Y96.338 E0.01606
G1 X133.662 Y68.271 E0.96302
G1 X133.008 Y68.168 E0.01606
G1 X161.832 Y96.992 E0.98900
G1 X161.936 Y97.645 E0.01606
G1 X132.354 Y68.064 E1.01498
G1 X131.701 Y67.961 E0.01606
G1 X162.039 Y98.299 E1.04096
G1 X162.143 Y98.953 E0.01606
G1 X131.047 Y67.857 E1.06694
G1 X130.393 Y67.754 E0.01606
G1 X162.246 Y99.607 E1.09293
G1 X162.350 Y100.260 E0.01606
G1 X129.740 Y67.650 E1.11891
G1 X129.086 Y67.547 E0.01606
G1 X162.453 Y100.914 E1.14489
G1 X162.557 Y101.568 E0.01606
G1 X128.432 Y67.443 E1.17087
G1 X127.778 Y67.339 E0.01606
G1 X162.661 Y102.221 E1.19685
G1 X162.764 Y102.875 E0.01606
G1 X127.125 Y67.236 E1.22284
G1 X126.471 Y67.132 E0.01606
G1 X162.868 Y103.529 E1.24882
G1 X162.971 Y104.183 E0.01606
G1 X125.817 Y67.029 E1.27480
G1 X125.164 Y66.925 E0.01606
G1 X163.075 Y104.836 E1.30078
G1 X163.067 Y105.379 E0.01316
G1 X124.621 Y66.933 E1.31911
G1 X124.146 Y67.009 E0.01167
G1 X162.991 Y105.854 E1.33283
G1 X162.916 Y106.329 E0.01167
G1 X123.671 Y67.084 E1.34654
G1 X123.197 Y67.159 E0.01167
G1 X162.841 Y106.803 E1.36026
G1 X162.766 Y107.278 E0.01167
G1 X122.722 Y67.234 E1.37398
G1 X122.247 Y67.309 E0.01167
G1 X162.691 Y107.753 E1.38769
G1 X162.615 Y108.228 E0.01167
G1 X121.772 Y67.385 E1.40141
G1 X121.297 Y67.460 E0.01167
G1 X162.540 Y108.703 E1.41513
G1 X162.465 Y109.178 E0.01167
G1 X120.822 Y67.535 E1.42884
G1 X120.347 Y67.610 E0.01167
G1 X162.390 Y109.653 E1.44256
G1 X162.314 Y110.128 E0.01167
G1 X119.872 Y67.686 E1.45627
G1 X119.397 Y67.761 E0.01167
G1 X162.239 Y110.603 E1.46999
G1 X162.164 Y111.078 E0.01167
G1 X118.922 Y67.836 E1.48371
G1 X118.447 Y67.911 E0.01167
G1 X162.089 Y111.553 E1.49742
G1 X162.014 Y112.028 E0.01167
G1 X117.972 Y67.986 E1.51114
G1 X117.497 Y68.062 E0.01167
G1 X161.938 Y112.503 E1.52486
G1 X161.863 Y112.978 E0.01167
G1 X117.022 Y68.137 E1.53857
G1 X116.547 Y68.212 E0.01167
G1 X161.788 Y113.453 E1.55229
G1 X161.713 Y113.928 E0.01167
G1 X116.072 Y68.287 E1.56601
G1 X115.597 Y68.362 E0.01167
G1 X161.637 Y114.403 E1.57972
G1 X161.562 Y114.878 E0.01167
G1 X115.122 Y68.438 E1.59344
G1 X114.647 Y68.513 E0.01167
G1 X161.487 Y115.353 E1.60715
G1 X161.412 Y115.828 E0.01167
G1 X114.172 Y68.588 E1.62087
G1 X113.697 Y68.663 E0.01167
G1 X161.337 Y116.303 E1.63459
G1 X161.261 Y116.778 E0.01167
G1 X113.222 Y68.739 E1.64830
G1 X112.844 Y68.911 E0.01007
G1 X161.089 Y117.156 E1.65534
G1 X160.903 Y117.520 E0.00992
G1 X112.480 Y69.097 E1.66147
G1 X112.116 Y69.283 E0.00992
G1 X160.717 Y117.884 E1.66760
G1 X160.532 Y118.249 E0.00992
G1 X111.751 Y69.468 E1.67373
G1 X111.387 Y69.654 E0.00992
G1 X160.346 Y118.613 E1.67987
G1 X160.160 Y118.978 E0.00992
G1 X111.022 Y69.840 E1.68600
G1 X110.658 Y70.026 E0.00992
G1 X159.974 Y119.342 E1.69213
G1 X159.789 Y119.707 E0.00992
G1 X110.293 Y70.211 E1.69827
G1 X109.929 Y70.397 E0.00992
G1 X159.603 Y120.071 E1.70440
G1 X159.417 Y120.436 E0.00992
G1 X109.564 Y70.583 E1.71053
G1 X109.200 Y70.768 E0.00992
G1 X159.232 Y120.800 E1.71667
G1 X159.046 Y121.165 E0.00992
G1 X108.835 Y70.954 E1.72280
G1 X108.471 Y71.140 E0.00992
G1 X158.860 Y121.529 E1.72893
G1 X158.674 Y121.894 E0.00992
G1 X108.106 Y71.326 E1.73506
G1 X107.742 Y71.511 E0.00992
G1 X158.489 Y122.258 E1.74120
G1 X158.303 Y122.623 E0.00992
G1 X107.377 Y71.697 E1.74733
G1 X107.013 Y71.883 E0.00992
G1 X158.117 Y122.987 E1.75346
G1 X157.931 Y123.352 E0.00992
G1 X106.648 Y72.069 E1.75960
G1 X106.284 Y72.254 E0.00992
G1 X157.746 Y123.716 E1.76573
G1 X157.560 Y124.080 E0.00992
G1 X105.920 Y72.440 E1.77186
G1 X105.555 Y72.626 E0.00992
G1 X157.374 Y124.445 E1.77799
G1 X157.189 Y124.809 E0.00992
G1 X105.191 Y72.811 E1.78413
G1 X104.826 Y72.997 E0.00992
G1 X157.003 Y125.174 E1.79026
G1 X156.817 Y125.538 E0.00992
G1 X104.462 Y73.183 E1.79639
G1 X104.097 Y73.369 E0.00992
G1 X156.631 Y125.903 E1.80253
G1 X156.446 Y126.267 E0.00992
G1 X103.733 Y73.554 E1.80866
G1 X103.368 Y73.740 E0.00992
G1 X156.260 Y126.632 E1.81479
G1 X156.074 Y126.996 E0.00992
G1 X103.004 Y73.926 E1.82093
G1 X102.639 Y74.111 E0.00992
G1 X155.889 Y127.361 E1.82706
G1 X155.618 Y127.640 E0.00944
G1 X102.360 Y74.382 E1.82736
G1 X102.085 Y74.657 E0.00944
G1 X155.343 Y127.915 E1.82736
G1 X155.068 Y128.190 E0.00944
G1 X101.810 Y74.932 E1.82736
G1 X101.535 Y75.207 E0.00944
G1 X154.793 Y128.465 E1.82736
G1 X154.517 Y128.741 E0.00944
G1 X101.259 Y75.483 E1.82736
G1 X100.984 Y75.758 E0.00944
G1 X154.242 Y129.016 E1.82736
G1 X153.967 Y129.291 E0.00944
G1 X100.709 Y76.033 E1.82736
G1 X100.434 Y76.308 E0.00944
G1 X153.692 Y129.566 E1.82736
G1 X153.417 Y129.841 E0.00944
G1 X100.159 Y76.583 E1.82736
G1 X99.884 Y76.858 E0.00944
G1 X153.142 Y130.116 E1.82736
G1 X152.867 Y130.391 E0.00944
G1 X99.609 Y77.133 E1.82736
G1 X99.334 Y77.408 E0.00944
G1 X152.592 Y130.666 E1.82736
G1 X152.317 Y130.941 E0.00944
G1 X99.059 Y77.683 E1.82736
G1 X98.784 Y77.958 E0.00944
G1 X152.042 Y131.216 E1.82736
G1 X151.766 Y131.491 E0.00944
G1 X98.509 Y78.234 E1.82736
G1 X98.233 Y78.509 E0.00944
G1 X151.491 Y131.767 E1.82736
G1 X151.216 Y132.042 E0.00944
G1 X97.958 Y78.784 E1.82736
G1 X97.683 Y79.059 E0.00944
G1 X150.941 Y132.317 E1.82736
G1 X150.666 Y132.592 E0.00944
G1 X97.408 Y79.334 E1.82736
G1 X97.133 Y79.609 E0.00944
G1 X150.391 Y132.867 E1.82736
G1 X150.116 Y133.142 E0.00944
G1 X96.858 Y79.884 E1.82736
G1 X96.583 Y80.159 E0.00944
G1 X149.841 Y133.417 E1.82736
G1 X149.566 Y133.692 E0.00944
G1 X96.308 Y80.434 E1.82736
G1 X96.033 Y80.709 E0.00944
G1 X149.291 Y133.967 E1.82736
G1 X149.016 Y134.242 E0.00944
G1 X95.758 Y80.984 E1.82736
G1 X95.482 Y81.260 E0.00944
G1 X148.740 Y134.518 E1.82736
G1 X148.465 Y134.793 E0.00944
G1 X95.207 Y81.535 E1.82736
G1 X94.932 Y81.810 E0.00944
G1 X148.190 Y135.068 E1.82736
G1 X147.915 Y135.343 E0.00944
G1 X94.657 Y82.085 E1.82736
G1 X94.382 Y82.360 E0.00944
G1 X147.640 Y135.618 E1.82736
G1 X147.361 Y135.889 E0.00944
G1 X94.111 Y82.639 E1.82706
G1 X93.926 Y83.004 E0.00992
G1 X146.996 Y136.074 E1.82092
G1 X146.632 Y136.260 E0.00992
G1 X93.740 Y83.368 E1.81479
G1 X93.554 Y83.733 E0.00992
G1 X146.267 Y136.446 E1.80866
G1 X145.903 Y136.631 E0.00992
G1 X93.369 Y84.097 E1.80252
G1 X93.183 Y84.462 E0.00992
G1 X145.538 Y136.817 E1.79639
G1 X145.174 Y137.003 E0.00992
G1 X92.997 Y84.826 E1.79026
G1 X92.811 Y85.191 E0.00992
G1 X144.809 Y137.189 E1.78413
G1 X144.445 Y137.374 E0.00992
G1 X92.626 Y85.555 E1.77799
G1 X92.440 Y85.920 E0.00992
G1 X144.080 Y137.560 E1.77186
G1 X143.716 Y137.746 E0.00992
G1 X92.254 Y86.284 E1.76573
G1 X92.068 Y86.649 E0.00992
G1 X143.351 Y137.932 E1.75959
G1 X142.987 Y138.117 E0.00992
G1 X91.883 Y87.013 E1.75346
G1 X91.697 Y87.378 E0.00992
G1 X142.622 Y138.303 E1.74733
G1 X142.258 Y138.489 E0.00992
G1 X91.511 Y87.742 E1.74120
G1 X91.326 Y88.106 E0.00992
G1 X141.894 Y138.674 E1.73506
G1 X141.529 Y138.860 E0.00992
G1 X91.140 Y88.471 E1.72893
G1 X90.954 Y88.835 E0.00992
G1 X141.165 Y139.046 E1.72280
G1 X140.800 Y139.232 E0.00992
G1 X90.768 Y89.200 E1.71666
G1 X90.583 Y89.564 E0.00992
G1 X140.436 Y139.417 E1.71053
G1 X140.071 Y139.603 E0.00992
G1 X90.397 Y89.929 E1.70440
G1 X90.211 Y90.293 E0.00992
G1 X139.707 Y139.789 E1.69826
G1 X139.342 Y139.975 E0.00992
G1 X90.025 Y90.658 E1.69213
G1 X89.840 Y91.022 E0.00992
G1 X138.978 Y140.160 E1.68600
G1 X138.613 Y140.346 E0.00992
G1 X89.654 Y91.387 E1.67987
G1 X89.468 Y91.751 E0.00992
G1 X138.249 Y140.532 E1.67373
G1 X137.884 Y140.717 E0.00992
G1 X89.283 Y92.116 E1.66760
G1 X89.097 Y92.480 E0.00992
G1 X137.520 Y140.903 E1.66147
G1 X137.155 Y141.089 E0.00992
G1 X88.911 Y92.845 E1.65533
G1 X88.739 Y93.222 E0.01007
G1 X136.778 Y141.261 E1.64830
G1 X136.303 Y141.337 E0.01167
G1 X88.663 Y93.697 E1.63458
G1 X88.588 Y94.172 E0.01167
G1 X135.828 Y141.412 E1.62087
G1 X135.353 Y141.487 E0.01167
G1 X88.513 Y94.647 E1.60715
G1 X88.438 Y95.122 E0.01167
G1 X134.878 Y141.562 E1.59343
G1 X134.403 Y141.638 E0.01167
G1 X88.362 Y95.597 E1.57972
G1 X88.287 Y96.072 E0.01167
G1 X133.928 Y141.713 E1.56600
G1 X133.453 Y141.788 E0.01167
G1 X88.212 Y96.547 E1.55228
G1 X88.137 Y97.022 E0.01167
G1 X132.978 Y141.863 E1.53857
G1 X132.503 Y141.938 E0.01167
G1 X88.062 Y97.497 E1.52485
G1 X87.986 Y97.972 E0.01167
G1 X132.028 Y142.014 E1.51113
G1 X131.553 Y142.089 E0.01167
G1 X87.911 Y98.447 E1.49742
G1 X87.836 Y98.922 E0.01167
G1 X131.078 Y142.164 E1.48370
G1 X130.603 Y142.239 E0.01167
G1 X87.761 Y99.397 E1.46999
G1 X87.686 Y99.872 E0.01167
G1 X130.128 Y142.314 E1.45627
G1 X129.653 Y142.390 E0.01167
G1 X87.610 Y100.347 E1.44255
G1 X87.535 Y100.822 E0.01167
G1 X129.178 Y142.465 E1.42884
G1 X128.703 Y142.540 E0.01167
G1 X87.460 Y101.297 E1.41512
G1 X87.385 Y101.772 E0.01167
G1 X128.228 Y142.615 E1.40140
G1 X127.753 Y142.691 E0.01167
G1 X87.309 Y102.247 E1.38769
G1 X87.234 Y102.722 E0.01167
G1 X127.278 Y142.766 E1.37397
G1 X126.803 Y142.841 E0.01167
G1 X87.159 Y103.197 E1.36026
G1 X87.084 Y103.672 E0.01167
G1 X126.328 Y142.916 E1.34654
G1 X125.853 Y142.991 E0.01167
G1 X87.009 Y104.147 E1.33282
G1 X86.933 Y104.622 E0.01167
G1 X125.378 Y143.067 E1.31911
G1 X124.836 Y143.075 E0.01316
G1 X86.925 Y105.164 E1.30077
G1 X87.029 Y105.818 E0.01606
G1 X124.182 Y142.971 E1.27479
G1 X123.529 Y142.868 E0.01606
G1 X87.132 Y106.471 E1.24881
G1 X87.236 Y107.125 E0.01606
G1 X122.875 Y142.764 E1.22283
G1 X122.221 Y142.660 E0.01606
G1 X87.340 Y107.779 E1.19684
G1 X87.443 Y108.432 E0.01606
G1 X121.568 Y142.557 E1.17086
G1 X120.914 Y142.453 E0.01606
G1 X87.547 Y109.086 E1.14488
G1 X87.650 Y109.740 E0.01606
G1 X120.260 Y142.350 E1.11890
G1 X119.606 Y142.246 E0.01606
G1 X87.754 Y110.394 E1.09292
G1 X87.857 Y111.047 E0.01606
G1 X118.953 Y142.143 E1.06694
G1 X118.299 Y142.039 E0.01606
G1 X87.961 Y111.701 E1.04095
G1 X88.064 Y112.355 E0.01606
G1 X117.645 Y141.936 E1.01497
G1 X116.992 Y141.832 E0.01606
G1 X88.168 Y113.008 E0.98899
G1 X88.271 Y113.662 E0.01606
G1 X116.338 Y141.729 E0.96301
G1 X115.684 Y141.625 E0.01606
G1 X88.375 Y114.316 E0.93703
G1 X88.478 Y114.970 E0.01606
G1 X115.030 Y141.522 E0.91104
G1 X114.377 Y141.418 E0.01606
G1 X88.582 Y115.623 E0.88506
G1 X88.685 Y116.277 E0.01606
G1 X113.723 Y141.315 E0.85908
G1 X112.882 Y141.024 F7200.000
G1 F1440
G1 X88.976 Y117.118 E0.82028
G1 F5760
G1 X90.527 Y118.669 E-0.76000
G1 E-0.04000 F2100.00000
G1 X89.547 Y118.239 F7200.000
G1 E0.80000 F2100.00000
G1 F1440
G1 X111.761 Y140.453 E0.76217
G1 F5760
G1 X110.209 Y138.901 E-0.76000
G1 E-0.04000 F2100.00000
G1 X110.639 Y139.881 F7200.000
G1 E0.80000 F2100.00000
G1 F1440
G1 X90.119 Y119.361 E0.70406
G1 F5760
G1 X91.671 Y120.913 E-0.76000
G1 E-0.04000 F2100.00000
G1 X90.691 Y120.483 F7200.000
G1 E0.80000 F2100.00000
G1 F1440
G1 X109.517 Y139.309 E0.64595
G1 F5760
G1 X107.965 Y137.758 E-0.76000
G1 E-0.04000 F2100.00000
G1 X108.395 Y138.738 F7200.000
G1 E0.80000 F2100.00000
G1 F1440
G1 X91.262 Y121.605 E0.58784
G1 F5760
G1 X92.814 Y123.157 E-0.76000
G1 E-0.04000 F2100.00000
G1 X91.834 Y122.727 F7200.000
G1 E0.80000 F2100.00000
G1 F1440
G1 X107.273 Y138.166 E0.52973
G1 F5760
G1 X105.721 Y136.614 E-0.76000
G1 E-0.04000 F2100.00000
G1 X106.151 Y137.594 F7200.000
G1 E0.80000 F2100.00000
G1 F1440
G1 X92.406 Y123.849 E0.47163
G1 F5760
G1 X93.957 Y125.400 E-0.76000
G1 E-0.04000 F2100.00000
G1 X92.977 Y124.971 F7200.000
G1 E0.80000 F2100.00000
G1 F1440
G1 X105.029 Y137.023 E0.41352
G1 F5760
G1 X103.478 Y135.471 E-0.76000
G1 E-0.04000 F2100.00000
G1 X103.907 Y136.451 F7200.000
G1 E0.80000 F2100.00000
G1 F1440
G1 X93.549 Y126.093 E0.35541
G1 F5760
G1 X95.101 Y127.644 E-0.76000
G1 E-0.04000 F2100.00000
G1 X137.117 Y68.975 F7200.000
G1 E0.80000 F2100.00000
G1 F1440
G1 X161.025 Y92.883 E0.82030
G1 F5760
G1 X159.473 Y91.331 E-0.76000
G1 E-0.04000 F2100.00000
G1 X160.453 Y91.761 F7200.000
G1 E0.80000 F2100.00000
G1 F1440
G1 X138.239 Y69.547 E0.76219
G1 F5760
G1 X139.791 Y71.099 E-0.76000
G1 E-0.04000 F2100.00000
G1 X139.361 Y70.119 F7200.000
G1 E0.80000 F2100.00000
G1 F1440
G1 X159.881 Y90.639 E0.70408
G1 F5760
G1 X158.330 Y89.087 E-0.76000
G1 E-0.04000 F2100.00000
G1 X159.309 Y89.517 F7200.000
G1 E0.80000 F2100.00000
G1 F1440
G1 X140.483 Y70.690 E0.64597
G1 F5760
G1 X142.034 Y72.242 E-0.76000
G1 E-0.04000 F2100.00000
G1 X141.605 Y71.262 F7200.000
G1 E0.80000 F2100.00000
G1 F1440
G1 X158.738 Y88.395 E0.58786
G1 F5760
G1 X157.186 Y86.844 E-0.76000
G1 E-0.04000 F2100.00000
G1 X158.166 Y87.273 F7200.000
G1 E0.80000 F2100.00000
G1 F1440
G1 X142.727 Y71.834 E0.52976
G1 F5760
G1 X144.278 Y73.385 E-0.76000
G1 E-0.04000 F2100.00000
