; generated by Slic3r 1.3.0-dev on 2016-08-21 at 11:53:59

; external perimeters extrusion width = 0.45mm
; perimeters extrusion width = 0.45mm
; infill extrusion width = 0.45mm
; solid infill extrusion width = 0.45mm
; top infill extrusion width = 0.40mm
; support material extrusion width = 0.35mm

M107
M83  ; extruder relative mode
M104 S210 ; set extruder temp
M140 S55 ; set bed temp
M190 S55 ; wait for bed temp
M109 S210 ; wait for extruder temp
G28 W ; home all without mesh bed level
G80 ; mesh bed leveling
G1 Y-3.0 F1000.0 ; go outside pritn area
G1 X60.0 E9.0  F1000.0 ; intro line
G1 X100.0 E12.5  F1000.0 ; intro line
G21 ; set units to millimeters
G90 ; use absolute coordinates
M83 ; use relative distances for extrusion
G1 E-0.80000 F2100.00000
G1 Z0.150 F7200.000
G1 X122.944 Y92.934 F7200.000
G1 E0.80000 F2100.00000
M204 S1000
G1 F1800
G1 X123.981 Y91.744 E0.03817
G1 X125.772 Y91.188 E0.04536
G1 X128.375 Y91.188 E0.06295
G1 X129.903 Y91.581 E0.03817
G1 X131.140 Y92.814 E0.04224
G1 X131.596 Y93.635 E0.02271
G1 X131.934 Y94.554 E0.02367
G1 X133.262 Y101.224 E0.16447
G1 X133.313 Y101.589 E0.00892
G1 X133.401 Y103.065 E0.03576
G1 X133.484 Y105.821 E0.06667
G1 X133.660 Y115.959 E0.24523
G1 X133.286 Y117.492 E0.03817
G1 X132.218 Y118.654 E0.03817
G1 X130.496 Y119.163 E0.04341
G1 X129.743 Y119.163 E0.01822
G1 X128.215 Y118.770 E0.03817
G1 X126.816 Y117.200 E0.05084
G1 X122.489 Y106.649 E0.27580
G1 X122.352 Y106.237 E0.01050
G1 X122.057 Y105.094 E0.02856
G1 X121.958 Y104.305 E0.01922
G1 X121.958 Y95.650 E0.20932
G1 X122.293 Y94.233 E0.03523
G1 X122.917 Y92.987 E0.03370
G1 X123.291 Y93.107 F7200.000
G1 F1800
G1 X124.280 Y92.011 E0.03571
G1 X125.772 Y91.575 E0.03760
G1 X128.375 Y91.575 E0.06295
G1 X129.798 Y91.968 E0.03571
G1 X130.801 Y93.003 E0.03484
G1 X131.257 Y93.824 E0.02271
G1 X131.553 Y94.630 E0.02077
G1 X132.881 Y101.299 E0.16447
G1 X132.926 Y101.620 E0.00783
G1 X133.013 Y103.078 E0.03533
G1 X133.096 Y105.829 E0.06655
G1 X133.272 Y115.964 E0.24515
G1 X132.897 Y117.392 E0.03571
G1 X131.844 Y118.427 E0.03571
G1 X130.496 Y118.776 E0.03366
G1 X129.743 Y118.776 E0.01822
G1 X128.319 Y118.383 E0.03571
G1 X127.175 Y117.053 E0.04243
G1 X122.847 Y106.502 E0.27580
G1 X122.727 Y106.141 E0.00921
G1 X122.433 Y104.997 E0.02856
G1 X122.345 Y104.305 E0.01686
G1 X122.345 Y95.650 E0.20932
G1 X122.640 Y94.407 E0.03091
G1 X123.264 Y93.161 E0.03370
G1 X123.638 Y93.281 F7200.000
G1 F1800
G1 X124.575 Y92.285 E0.03307
G1 X125.772 Y91.963 E0.02999
G1 X128.375 Y91.963 E0.06295
G1 X129.685 Y92.355 E0.03307
G1 X130.462 Y93.191 E0.02761
G1 X130.918 Y94.012 E0.02271
G1 X131.173 Y94.706 E0.01787
G1 X132.501 Y101.375 E0.16447
G1 X132.540 Y101.651 E0.00673
G1 X132.626 Y103.092 E0.03491
G1 X132.708 Y105.838 E0.06644
G1 X132.884 Y115.969 E0.24506
G1 X132.509 Y117.284 E0.03307
G1 X131.474 Y118.178 E0.03307
G1 X130.496 Y118.388 E0.02419
G1 X129.743 Y118.388 E0.01822
G1 X128.433 Y117.996 E0.03307
G1 X127.534 Y116.906 E0.03417
G1 X123.206 Y106.355 E0.27580
G1 X123.103 Y106.044 E0.00793
G1 X122.809 Y104.900 E0.02856
G1 X122.733 Y104.305 E0.01451
G1 X122.733 Y95.650 E0.20932
G1 X122.986 Y94.580 E0.02659
G1 X123.611 Y93.335 E0.03370
G1 F5760
G1 X124.575 Y92.285 E-0.49361
G1 F5760
G1 X125.317 Y92.085 E-0.26639
G1 E-0.04000 F2100.00000
G1 X130.283 Y115.790 F7200.000
G1 E0.80000 F2100.00000
G1 F720
G1 X129.957 Y115.790 E0.00789
G1 X130.120 Y106.384 E0.22752
G1 X130.282 Y115.730 E0.22607
G1 X130.446 Y115.508 F7200.000
G1 F5760
G1 X129.957 Y115.790 E-0.11450
G1 F5760
G1 X129.989 Y113.927 E-0.64550
G1 E-0.04000 F2100.00000
G1 Z0.150 F7200.000
G1 X128.018 Y105.449 F7200.000
G1 E0.80000 F2100.00000
G1 F1800
G1 X128.617 Y104.255 E0.03230
G1 X128.554 Y102.649 E0.03887
G1 X128.891 Y101.977 E0.01819
G1 X127.151 Y105.449 E0.09394
G1 X126.283 Y105.449 E0.02098
G1 X128.900 Y100.227 E0.14127
G1 X128.902 Y98.493 F7200.000
G1 F1800
G1 X125.415 Y105.449 E0.18819
G1 X125.121 Y104.305 E0.02856
G1 X128.617 Y97.331 E0.18867
G1 X128.617 Y95.600 E0.04186
G1 X125.415 Y101.988 E0.17282
G1 X125.415 Y100.257 E0.04186
G1 X128.375 Y94.351 E0.15978
G1 X127.507 Y94.351 E0.02098
G1 X125.415 Y98.526 E0.11295
G1 F5760
G1 X126.398 Y96.564 E-0.76000
G1 E-0.04000 F2100.00000
G1 X125.121 Y97.381 F7200.000
G1 E0.80000 F2100.00000
G1 F1800
G1 X126.640 Y94.351 E0.08197
G1 X125.772 Y94.351 E0.02098
G1 X125.121 Y95.650 E0.03515
G1 F5760
G1 X125.772 Y94.351 E-0.50334
G1 F5760
G1 X126.513 Y94.351 E-0.25666
G1 E-0.04000 F2100.00000
G1 X128.655 Y95.524 F7200.000
G1 E0.80000 F2100.00000
G1 F1800
G1 X128.831 Y95.172 E0.00953
M106 S216.75
G1 F5760
G1 X128.655 Y95.524 E-0.13644
G1 E-0.66356 F2100.00000
G1 Z0.350 F7200.000
G1 X130.137 Y115.368 F7200.000
G1 E0.80000 F2100.00000
M204 S800
G1 F1200
G1 X130.102 Y115.368 E0.00119
G1 X130.120 Y113.269 E0.07106
G1 X130.137 Y115.308 E0.06903
M204 S1000
G1 X130.548 Y115.775 F7200.000
M204 S800
G1 F1800
G1 X129.692 Y115.775 E0.02898
G1 X129.824 Y100.001 E0.53395
G1 X129.824 Y94.225 E0.19551
G1 X130.416 Y94.225 E0.02003
G1 X130.416 Y100.001 E0.19551
G1 X130.547 Y115.715 E0.53192
M204 S1000
G1 X130.201 Y115.576 F7200.000
G1 F5760
G1 X129.692 Y115.775 E-0.29710
G1 F5760
G1 X129.703 Y114.439 E-0.46290
G1 E-0.04000 F2100.00000
G1 X130.120 Y113.065 F7200.000
G1 E0.80000 F2100.00000
G1 F2400
G1 X130.120 Y107.840 E0.15527
G1 F2400
G1 X130.120 Y102.615 E0.11782
G1 F2400
G1 X130.120 Y94.429 E0.12592
G1 F5760
G1 X130.120 Y96.623 E-0.76000
G1 E-0.04000 F2100.00000
G1 X123.258 Y101.368 F7200.000
G1 E0.80000 F2100.00000
M204 S800
G1 F1200
G1 X122.296 Y101.368 E0.03254
G1 X122.296 Y98.632 E0.09261
G1 X123.258 Y98.632 E0.03254
G1 X123.258 Y101.308 E0.09057
M204 S1000
G1 X123.665 Y101.775 F7200.000
M204 S800
G1 F1200
G1 X121.889 Y101.775 E0.06010
G1 X121.889 Y98.225 E0.12016
G1 X123.665 Y98.225 E0.06010
G1 X123.665 Y101.715 E0.11813
M204 S1000
G1 X123.292 Y101.631 F7200.000
G1 F5760
G1 X121.889 Y101.775 E-0.61533
G1 F5760
G1 X121.889 Y101.357 E-0.14467
G1 E-0.04000 F2100.00000
G1 X122.782 Y101.119 F7200.000
G1 E0.80000 F2100.00000
M106 S255
G1 F1200
G1 X123.009 Y100.892 E0.02409
G1 X122.545 Y100.606 E0.04092
G1 X123.009 Y100.143 E0.04924
G1 X122.545 Y99.857 E0.04092
G1 X123.009 Y99.394 E0.04924
G1 X122.545 Y99.108 E0.04092
G1 X122.772 Y98.881 E0.02409
M106 S216.75
G1 F5760
G1 X122.545 Y99.108 E-0.11100
G1 F5760
G1 X123.009 Y99.394 E-0.18856
G1 F5760
G1 X122.545 Y99.857 E-0.22691
G1 F5760
G1 X123.009 Y100.143 E-0.18856
G1 F5760
G1 X122.917 Y100.235 E-0.04497
G1 E-0.04000 F2100.00000
G1 Z0.400 F7200.000
G1 X125.427 Y98.875 F7200.000
G1 E0.80000 F2100.00000
G1 F3000
G1 X126.179 Y97.375 E0.05166
G1 X125.831 Y97.375 E0.01072
G1 X125.427 Y98.181 E0.02775
G1 X125.373 Y97.594 E0.01814
G1 X125.483 Y97.375 E0.00754
G1 F5760
G1 X125.373 Y97.594 E-0.08479
G1 F5760
G1 X125.427 Y98.181 E-0.20397
G1 F5760
G1 X125.831 Y97.375 E-0.31198
G1 F5760
G1 X126.179 Y97.375 E-0.12051
G1 F5760
G1 X126.128 Y97.475 E-0.03875
G1 E-0.04000 F2100.00000
G1 X125.427 Y99.569 F7200.000
G1 E0.80000 F2100.00000
G1 F3000
G1 X126.526 Y97.375 E0.07558
G1 X126.874 Y97.375 E0.01072
G1 X125.427 Y100.263 E0.09950
G1 X125.427 Y100.958 F7200.000
G1 F3000
G1 X127.222 Y97.375 E0.12342
G1 X127.570 Y97.375 E0.01072
G1 X125.427 Y101.652 E0.14734
G1 X125.427 Y102.346 F7200.000
G1 F3000
G1 X127.918 Y97.375 E0.17125
G1 X128.266 Y97.375 E0.01072
G1 X125.635 Y102.625 E0.18086
G1 X125.983 Y102.625 E0.01072
G1 X128.614 Y97.375 E0.18086
G1 X128.890 Y97.520 E0.00958
G1 X126.331 Y102.625 E0.17589
G1 X126.679 Y102.625 E0.01072
G1 X128.890 Y98.214 E0.15197
G1 X128.890 Y98.908 F7200.000
G1 F3000
G1 X127.027 Y102.625 E0.12805
G1 X127.375 Y102.625 E0.01072
G1 X128.890 Y99.602 E0.10413
G1 X128.888 Y100.300 F7200.000
G1 F3000
G1 X127.723 Y102.625 E0.08008
G1 X128.071 Y102.625 E0.01072
G1 X128.884 Y101.002 E0.05590
G1 X128.880 Y101.704 F7200.000
G1 F3000
G1 X128.419 Y102.625 E0.03173
G1 X128.877 Y102.405 E0.01564
G1 X128.767 Y102.625 E0.00756
G1 F5760
G1 X128.877 Y102.405 E-0.08496
G1 F5760
G1 X128.419 Y102.625 E-0.17583
G1 F5760
G1 X128.880 Y101.704 E-0.35678
G1 E-0.18243 F2100.00000
G1 X128.360 Y103.636 F7200.000
G1 E0.80000 F2100.00000
G1 F3000
G1 X125.397 Y103.636 E0.09126
G1 F5760
G1 X127.592 Y103.636 E-0.76000
G1 E-0.04000 F2100.00000
G1 X128.544 Y104.400 F7200.000
G1 E0.80000 F2100.00000
G1 F3000
G1 X128.544 Y102.875 E0.04697
G1 X125.193 Y102.875 E0.10323
G1 X125.193 Y105.325 E0.07546
G1 X128.729 Y105.325 E0.10891
G1 X128.734 Y104.400 E0.02849
G1 X128.544 Y104.400 E0.00585
G1 F5760
G1 X128.734 Y104.400 E-0.06576
G1 F5760
G1 X128.729 Y105.325 E-0.32038
G1 F5760
G1 X127.650 Y105.325 E-0.37386
G1 E-0.04000 F2100.00000
G1 X128.360 Y96.407 F7200.000
G1 E0.80000 F2100.00000
G1 F3000
G1 X125.397 Y96.407 E0.09126
G1 F5760
G1 X127.592 Y96.407 E-0.76000
G1 E-0.04000 F2100.00000
G1 X128.759 Y95.400 F7200.000
G1 E0.80000 F2100.00000
G1 F3000
G1 X128.759 Y94.475 E0.02849
G1 X125.193 Y94.475 E0.10983
G1 X125.193 Y97.125 E0.08162
G1 X128.544 Y97.125 E0.10323
G1 X128.544 Y95.400 E0.05313
G1 X128.759 Y95.400 E0.00661
G1 F5760
G1 X128.544 Y95.400 E-0.07432
G1 F5760
G1 X128.544 Y97.125 E-0.59746
G1 F5760
G1 X128.290 Y97.125 E-0.08822
G1 E-0.04000 F2100.00000
G1 Z0.550 F7200.000
G1 X130.027 Y94.632 F7200.000
G1 E0.80000 F2100.00000
M204 S800
G1 F2400
G1 X130.212 Y94.632 E0.00625
G1 X130.212 Y100.002 E0.18177
G1 X130.310 Y115.368 E0.52013
G1 X129.930 Y115.368 E0.01287
G1 X130.027 Y100.002 E0.52013
G1 X130.027 Y94.692 E0.17973
M204 S1000
G1 X129.620 Y94.225 F7200.000
M204 S800
G1 F1800
G1 X130.619 Y94.225 E0.03381
G1 X130.619 Y100.001 E0.19550
G1 X130.719 Y115.775 E0.53395
G1 X129.520 Y115.775 E0.04061
G1 X129.620 Y100.001 E0.53395
G1 X129.620 Y94.285 E0.19347
M204 S1000
G1 X129.966 Y94.426 F7200.000
G1 F5760
G1 X130.619 Y94.225 E-0.34654
G1 F5760
G1 X130.619 Y95.419 E-0.41346
G1 E-0.04000 F2100.00000
G1 X123.784 Y98.632 F7200.000
G1 E0.80000 F2100.00000
M204 S800
G1 F1200
G1 X123.784 Y101.368 E0.09261
G1 X121.769 Y101.368 E0.06819
G1 X121.769 Y98.632 E0.09261
G1 X123.724 Y98.632 E0.06615
M204 S1000
G1 X124.191 Y98.225 F7200.000
M204 S800
G1 F1200
G1 X124.191 Y101.775 E0.12016
G1 X121.362 Y101.775 E0.09574
G1 X121.362 Y98.225 E0.12016
G1 X124.131 Y98.225 E0.09371
M204 S1000
G1 X124.102 Y98.615 F7200.000
G1 F5760
G1 X124.168 Y100.419 E-0.76000
G1 E-0.04000 F2100.00000
G1 X123.544 Y99.084 F7200.000
G1 E0.80000 F2100.00000
M204 S2000
G1 F2400
G1 X123.331 Y98.872 E0.01191
G1 X122.658 Y98.872 E0.02665
G1 X123.544 Y99.758 E0.04960
G1 X123.544 Y100.431 E0.02665
G1 X122.017 Y98.904 E0.08549
G1 X122.009 Y99.569 E0.02634
G1 X123.536 Y101.096 E0.08549
G1 X122.895 Y101.128 E0.02541
G1 X122.009 Y100.242 E0.04960
G1 X122.009 Y100.916 E0.02665
G1 X122.222 Y101.128 E0.01191
M204 S1000
G1 F5760
G1 X122.009 Y100.916 E-0.10419
G1 F5760
G1 X122.009 Y100.242 E-0.23318
G1 F5760
G1 X122.872 Y101.105 E-0.42263
G1 E-0.04000 F2100.00000
G1 Z0.700 F7200.000
G1 X125.367 Y102.530 F7200.000
G1 E0.80000 F2100.00000
G1 F3000
G1 X125.488 Y102.289 E0.00961
G1 X125.986 Y102.419 E0.01834
G1 X125.878 Y102.636 E0.00864
G1 X125.847 Y102.475 F7200.000
G1 F3000
G1 X126.012 Y102.189 E0.01178
G1 X125.749 Y101.734 E0.01870
G1 X125.487 Y101.734 E0.00935
G1 X125.487 Y101.068 E0.02371
G1 X125.749 Y101.068 E0.00935
G1 X126.012 Y100.614 E0.01870
G1 X125.749 Y100.159 E0.01870
G1 X125.487 Y100.159 E0.00935
G1 X125.487 Y99.493 E0.02371
G1 X125.749 Y99.493 E0.00935
G1 X126.012 Y99.039 E0.01870
G1 X125.749 Y98.584 E0.01870
G1 X125.487 Y98.584 E0.00935
G1 X125.487 Y97.972 E0.02179
G1 X125.695 Y97.972 E0.00743
G1 X125.954 Y97.525 E0.01840
G1 X126.469 Y97.525 F7200.000
G1 F3000
G1 X126.703 Y97.930 E0.01665
G1 X127.228 Y97.930 E0.01870
G1 X127.461 Y97.525 E0.01665
G1 X127.293 Y97.638 F7200.000
G1 F3000
G1 X127.457 Y97.310 E0.01308
G1 X128.204 Y97.330 E0.02659
G1 X128.042 Y97.653 E0.01286
G1 X128.044 Y97.525 F7200.000
G1 F3000
G1 X128.278 Y97.930 E0.01665
G1 F3000
G1 X128.803 Y97.930 E0.01870
G1 X128.830 Y97.883 E0.00193
G1 X128.830 Y98.306 E0.01507
G1 X128.567 Y98.306 E0.00935
G1 X128.305 Y98.760 E0.01870
G1 X128.567 Y99.215 E0.01870
G1 X128.830 Y99.215 E0.00935
G1 X128.830 Y99.544 E0.01173
G1 X128.567 Y99.544 E0.00935
G1 X128.305 Y99.999 E0.01870
G1 X128.567 Y100.454 E0.01870
G1 X128.827 Y100.454 E0.00927
G1 X128.824 Y101.119 E0.02371
G1 X128.559 Y101.119 E0.00944
G1 X128.296 Y101.574 E0.01870
G1 X128.559 Y102.029 E0.01870
G1 X128.819 Y102.029 E0.00927
G1 X128.817 Y102.475 E0.01590
G1 X128.689 Y102.475 F7200.000
G1 F3000
G1 X128.455 Y102.070 E0.01665
G1 X127.930 Y102.070 E0.01870
G1 X127.696 Y102.475 E0.01665
G1 X127.731 Y102.630 F7200.000
G1 F3000
G1 X127.835 Y102.422 E0.00826
G1 X127.535 Y102.266 E0.01204
G1 X127.353 Y102.630 E0.01450
G1 X127.086 Y102.408 E0.01236
G1 X126.985 Y102.610 E0.00804
G1 X127.114 Y102.475 F7200.000
G1 F3000
G1 X126.880 Y102.070 E0.01665
G1 X126.355 Y102.070 E0.01870
G1 X126.121 Y102.475 E0.01665
G1 F5760
G1 X126.355 Y102.070 E-0.16184
G1 F5760
G1 X126.880 Y102.070 E-0.18184
G1 F5760
G1 X127.114 Y102.475 E-0.16184
G1 E-0.29449 F2100.00000
G1 X127.076 Y102.991 F7200.000
G1 E0.80000 F2100.00000
G1 F3000
G1 X127.182 Y102.778 E0.00849
G1 X127.535 Y102.778 E0.01257
G1 X127.076 Y103.696 E0.03655
G1 X127.076 Y104.400 F7200.000
G1 F3000
G1 X127.888 Y102.778 E0.06461
G1 X128.241 Y102.778 E0.01257
G1 X127.076 Y105.104 E0.09266
G1 X127.269 Y105.422 E0.01326
G1 X128.584 Y102.799 E0.10452
G1 X128.603 Y103.465 F7200.000
G1 F3000
G1 X127.622 Y105.422 E0.07798
G1 X127.975 Y105.422 E0.01257
G1 X128.603 Y104.169 E0.04992
G1 X128.792 Y104.496 E0.01346
G1 X128.328 Y105.422 E0.03688
G1 X128.788 Y105.208 E0.01806
G1 X128.681 Y105.422 E0.00851
G1 F5760
G1 X128.788 Y105.208 E-0.08274
G1 F5760
G1 X128.328 Y105.422 E-0.17564
G1 F5760
G1 X128.792 Y104.496 E-0.35861
G1 F5760
G1 X128.603 Y104.169 E-0.13086
G1 F5760
G1 X128.587 Y104.200 E-0.01215
G1 E-0.04000 F2100.00000
G1 X127.635 Y101.693 F7200.000
G1 E0.80000 F2100.00000
G1 F3000
G1 X127.807 Y101.350 E0.01365
G1 X127.903 Y101.158 F7200.000
G1 F3000
G1 X128.169 Y100.627 E0.02118
G1 X127.846 Y100.066 E0.02307
G1 X127.032 Y101.689 E0.06466
G1 X126.448 Y101.648 E0.02087
G1 X127.854 Y98.842 E0.11181
G1 X127.515 Y98.311 E0.02244
G1 X126.430 Y100.476 E0.08626
G1 F5760
G1 X127.414 Y98.514 E-0.76000
G1 E-0.04000 F2100.00000
G1 X126.502 Y99.127 F7200.000
G1 E0.80000 F2100.00000
G1 F3000
G1 X126.890 Y98.352 E0.03087
G1 X126.360 Y98.202 E0.01961
G1 X126.205 Y98.511 E0.01233
G1 X126.449 Y97.689 F7200.000
G1 F3000
G1 X126.647 Y97.294 E0.01575
G1 X127.023 Y96.518 F7200.000
G1 F3000
G1 X128.148 Y94.274 E0.08942
G1 X128.870 Y94.654 E0.02908
G1 X127.531 Y97.326 E0.10648
G1 X128.655 Y96.904 E0.04280
G1 X128.444 Y97.326 E0.01684
G1 F5760
G1 X128.655 Y96.904 E-0.16370
G1 F5760
G1 X127.531 Y97.326 E-0.41612
G1 F5760
G1 X127.764 Y96.861 E-0.18018
G1 E-0.04000 F2100.00000
G1 X127.023 Y94.696 F7200.000
G1 E0.80000 F2100.00000
G1 F3000
G1 X127.235 Y94.274 E0.01684
G1 F5760
G1 X127.023 Y94.696 E-0.16370
G1 E-0.63630 F2100.00000
G1 X126.611 Y96.407 F7200.000
G1 E0.80000 F2100.00000
G1 F3000
G1 X125.387 Y96.407 E0.04360
G1 F5760
G1 X126.611 Y96.407 E-0.42394
G1 E-0.37606 F2100.00000
G1 X126.784 Y97.125 F7200.000
G1 E0.80000 F2100.00000
G1 F3000
G1 X126.784 Y94.475 E0.09440
G1 X125.193 Y94.475 E0.05668
G1 X125.193 Y97.125 E0.09440
G1 X126.784 Y97.125 E0.05668
G1 F5760
G1 X125.193 Y97.125 E-0.55105
G1 F5760
G1 X125.193 Y96.522 E-0.20895
G1 E-0.04000 F2100.00000
G1 X126.611 Y103.636 F7200.000
G1 E0.80000 F2100.00000
G1 F3000
G1 X125.387 Y103.636 E0.04360
G1 F5760
G1 X126.611 Y103.636 E-0.42394
G1 E-0.37606 F2100.00000
G1 X126.784 Y105.325 F7200.000
G1 E0.80000 F2100.00000
G1 F3000
G1 X126.784 Y102.875 E0.08728
G1 X125.193 Y102.875 E0.05668
G1 X125.193 Y105.325 E0.08728
G1 X126.784 Y105.325 E0.05668
G1 F5760
G1 X125.193 Y105.325 E-0.55105
G1 F5760
G1 X125.193 Y104.722 E-0.20895
G1 E-0.04000 F2100.00000
G1 Z0.750 F7200.000
G1 X129.916 Y94.632 F7200.000
G1 E0.80000 F2100.00000
M204 S800
G1 F2400
G1 X130.323 Y94.632 E0.01378
G1 X130.323 Y100.002 E0.18176
G1 X130.409 Y115.368 E0.52013
G1 X129.830 Y115.368 E0.01961
G1 X129.916 Y100.002 E0.52013
G1 X129.916 Y94.692 E0.17973
