; generated by Slic3r 1.3.0-dev on 2016-08-29 at 22:52:52

; external perimeters extrusion width = 0.45mm
; perimeters extrusion width = 0.45mm
; infill extrusion width = 0.45mm
; solid infill extrusion width = 0.45mm
; top infill extrusion width = 0.40mm

M107
M83  ; extruder relative mode
M104 S210 ; set extruder temp
M140 S55 ; set bed temp
M190 S55 ; wait for bed temp
M109 S210 ; wait for extruder temp
G28 W ; home all without mesh bed level
G80 ; mesh bed leveling
G1 Y-3.0 F1000.0 ; go outside pritn area
G1 X60.0 E9.0  F1000.0 ; intro line
G1 X100.0 E12.5  F1000.0 ; intro line
G21 ; set units to millimeters
G90 ; use absolute coordinates
M83 ; use relative distances for extrusion
G1 E-0.80000 F2100.00000
G1 Z0.150 F7200.000
G1 X88.004 Y73.690 F7200.000
G1 E0.80000 F2100.00000
M204 S1000
G1 F1800
G1 X89.050 Y72.809 E0.03307
G1 X90.000 Y72.612 E0.02346
G1 X159.764 Y72.612 E1.68723
G1 X161.074 Y73.004 E0.03307
G1 X161.954 Y74.051 E0.03307
G1 X162.151 Y75.000 E0.02345
G1 X162.151 Y134.925 E1.44928
G1 X161.760 Y136.235 E0.03307
G1 X161.035 Y136.946 E0.02455
G1 X160.814 Y137.072 E0.00614
G1 X160.478 Y137.217 E0.00886
G1 X160.178 Y137.307 E0.00756
G1 X159.864 Y137.365 E0.00772
G1 X159.500 Y137.388 E0.00883
G1 X90.000 Y137.388 E1.68085
G1 X88.690 Y136.996 E0.03307
G1 X87.809 Y135.950 E0.03307
G1 X87.612 Y135.000 E0.02346
G1 X87.612 Y75.000 E1.45109
G1 X87.987 Y73.747 E0.03162
G1 F5760
G1 X89.050 Y72.809 E-0.49117
G1 F5760
G1 X89.810 Y72.652 E-0.26883
G1 E-0.04000 F2100.00000
G1 X159.553 Y134.780 F7200.000
G1 E0.80000 F2100.00000
G1 F1080
G1 X90.210 Y134.790 E1.67706
G1 X90.210 Y75.210 E1.44094
G1 X159.553 Y75.210 E1.67706
G1 X159.553 Y134.720 E1.43924
G1 X159.484 Y134.770 F7200.000
G1 X159.166 Y134.402 F7200.000
G1 F1440
G1 X90.598 Y134.402 E1.65830
G1 X90.598 Y75.598 E1.42218
G1 X159.165 Y75.598 E1.65830
G1 X159.166 Y134.342 E1.42073
G1 F5760
G1 X156.971 Y134.344 E-0.76000
G1 E-0.04000 F2100.00000
G1 X158.938 Y76.030 F7200.000
G1 E0.80000 F2100.00000
G1 F1440
G1 X158.734 Y75.825 E0.00702
G1 X158.183 Y75.825 E0.01336
G1 X158.938 Y76.580 E0.02592
G1 X158.938 Y77.131 E0.01336
G1 X157.633 Y75.825 E0.04481
G1 X157.082 Y75.825 E0.01336
G1 X158.938 Y77.681 E0.06371
G1 X158.938 Y78.231 E0.01336
G1 X156.532 Y75.825 E0.08260
G1 X155.981 Y75.825 E0.01336
G1 X158.938 Y78.782 E0.10150
G1 X158.938 Y79.332 E0.01336
G1 X155.431 Y75.825 E0.12040
G1 X154.880 Y75.825 E0.01336
G1 X158.938 Y79.883 E0.13929
G1 X158.938 Y80.433 E0.01336
G1 X154.330 Y75.825 E0.15819
G1 X153.779 Y75.825 E0.01336
G1 X158.938 Y80.984 E0.17708
G1 X158.938 Y81.534 E0.01336
G1 X153.229 Y75.825 E0.19598
G1 X152.679 Y75.825 E0.01336
G1 X158.938 Y82.085 E0.21488
G1 X158.938 Y82.635 E0.01336
G1 X152.128 Y75.825 E0.23377
G1 X151.578 Y75.825 E0.01336
G1 X158.938 Y83.186 E0.25267
G1 X158.938 Y83.736 E0.01336
G1 X151.027 Y75.825 E0.27156
G1 X150.477 Y75.825 E0.01336
G1 X158.938 Y84.286 E0.29046
G1 X158.938 Y84.837 E0.01336
G1 X149.926 Y75.825 E0.30936
G1 X149.376 Y75.825 E0.01336
G1 X158.938 Y85.387 E0.32825
G1 X158.938 Y85.938 E0.01336
G1 X148.825 Y75.825 E0.34715
G1 X148.275 Y75.825 E0.01336
G1 X158.938 Y86.488 E0.36604
G1 X158.938 Y87.039 E0.01336
G1 X147.724 Y75.825 E0.38494
G1 X147.174 Y75.825 E0.01336
G1 X158.938 Y87.589 E0.40383
G1 X158.938 Y88.140 E0.01336
G1 X146.624 Y75.825 E0.42273
G1 X146.073 Y75.825 E0.01336
G1 X158.938 Y88.690 E0.44163
G1 X158.938 Y89.241 E0.01336
G1 X145.523 Y75.825 E0.46052
G1 X144.972 Y75.825 E0.01336
G1 X158.938 Y89.791 E0.47942
G1 X158.938 Y90.341 E0.01336
G1 X144.422 Y75.825 E0.49831
G1 X143.871 Y75.825 E0.01336
G1 X158.938 Y90.892 E0.51721
G1 X158.938 Y91.442 E0.01336
G1 X143.321 Y75.825 E0.53611
G1 X142.770 Y75.825 E0.01336
G1 X158.938 Y91.993 E0.55500
G1 X158.938 Y92.543 E0.01336
G1 X142.220 Y75.825 E0.57390
G1 X141.669 Y75.825 E0.01336
G1 X158.938 Y93.094 E0.59279
G1 X158.938 Y93.644 E0.01336
G1 X141.119 Y75.825 E0.61169
G1 X140.569 Y75.825 E0.01336
G1 X158.938 Y94.195 E0.63059
G1 X158.938 Y94.745 E0.01336
G1 X140.018 Y75.825 E0.64948
G1 X139.468 Y75.825 E0.01336
G1 X158.938 Y95.296 E0.66838
G1 X158.938 Y95.846 E0.01336
G1 X138.917 Y75.825 E0.68727
G1 X138.367 Y75.825 E0.01336
G1 X158.938 Y96.396 E0.70617
G1 X158.938 Y96.947 E0.01336
G1 X137.816 Y75.825 E0.72507
G1 X137.266 Y75.825 E0.01336
G1 X158.938 Y97.497 E0.74396
G1 X158.938 Y98.048 E0.01336
G1 X136.715 Y75.825 E0.76286
G1 X136.165 Y75.825 E0.01336
G1 X158.938 Y98.598 E0.78175
G1 X158.938 Y99.149 E0.01336
G1 X135.614 Y75.825 E0.80065
G1 X135.064 Y75.825 E0.01336
G1 X158.938 Y99.699 E0.81954
G1 X158.938 Y100.250 E0.01336
G1 X134.514 Y75.825 E0.83844
G1 X133.963 Y75.825 E0.01336
G1 X158.938 Y100.800 E0.85734
G1 X158.938 Y101.351 E0.01336
G1 X133.413 Y75.825 E0.87623
G1 X132.862 Y75.825 E0.01336
G1 X158.938 Y101.901 E0.89513
G1 X158.938 Y102.452 E0.01336
G1 X132.312 Y75.825 E0.91402
G1 X131.761 Y75.825 E0.01336
G1 X158.938 Y103.002 E0.93292
G1 X158.938 Y103.552 E0.01336
G1 X131.211 Y75.825 E0.95182
G1 X130.660 Y75.825 E0.01336
G1 X158.938 Y104.103 E0.97071
G1 X158.938 Y104.653 E0.01336
G1 X130.110 Y75.825 E0.98961
G1 X129.559 Y75.825 E0.01336
G1 X158.938 Y105.204 E1.00850
G1 X158.938 Y105.754 E0.01336
G1 X129.009 Y75.825 E1.02740
G1 X128.459 Y75.825 E0.01336
G1 X158.938 Y106.305 E1.04630
G1 X158.938 Y106.855 E0.01336
G1 X127.908 Y75.825 E1.06519
G1 X127.358 Y75.825 E0.01336
G1 X158.938 Y107.406 E1.08409
G1 X158.938 Y107.956 E0.01336
G1 X126.807 Y75.825 E1.10298
G1 X126.257 Y75.825 E0.01336
G1 X158.938 Y108.507 E1.12188
G1 X158.938 Y109.057 E0.01336
G1 X125.706 Y75.825 E1.14077
G1 X125.156 Y75.825 E0.01336
G1 X158.938 Y109.607 E1.15967
G1 X158.938 Y110.158 E0.01336
G1 X124.605 Y75.825 E1.17857
G1 X124.055 Y75.825 E0.01336
G1 X158.938 Y110.708 E1.19746
G1 X158.938 Y111.259 E0.01336
G1 X123.505 Y75.825 E1.21636
G1 X122.954 Y75.825 E0.01336
G1 X158.938 Y111.809 E1.23525
G1 X158.938 Y112.360 E0.01336
G1 X122.404 Y75.825 E1.25415
G1 X121.853 Y75.825 E0.01336
G1 X158.938 Y112.910 E1.27305
G1 X158.938 Y113.461 E0.01336
G1 X121.303 Y75.825 E1.29194
G1 X120.752 Y75.825 E0.01336
G1 X158.938 Y114.011 E1.31084
G1 X158.938 Y114.562 E0.01336
G1 X120.202 Y75.825 E1.32973
G1 X119.651 Y75.825 E0.01336
G1 X158.938 Y115.112 E1.34863
G1 X158.938 Y115.662 E0.01336
G1 X119.101 Y75.825 E1.36753
G1 X118.550 Y75.825 E0.01336
G1 X158.938 Y116.213 E1.38642
G1 X158.938 Y116.763 E0.01336
G1 X118.000 Y75.825 E1.40532
G1 X117.450 Y75.825 E0.01336
G1 X158.938 Y117.314 E1.42421
G1 X158.938 Y117.864 E0.01336
G1 X116.899 Y75.825 E1.44311
G1 X116.349 Y75.825 E0.01336
G1 X158.938 Y118.415 E1.46201
G1 X158.938 Y118.965 E0.01336
G1 X115.798 Y75.825 E1.48090
G1 X115.248 Y75.825 E0.01336
G1 X158.938 Y119.516 E1.49980
G1 X158.938 Y120.066 E0.01336
G1 X114.697 Y75.825 E1.51869
G1 X114.147 Y75.825 E0.01336
G1 X158.938 Y120.617 E1.53759
G1 X158.938 Y121.167 E0.01336
G1 X113.596 Y75.825 E1.55648
G1 X113.046 Y75.825 E0.01336
G1 X158.938 Y121.717 E1.57538
G1 X158.938 Y122.268 E0.01336
G1 X112.495 Y75.825 E1.59428
G1 X111.945 Y75.825 E0.01336
G1 X158.938 Y122.818 E1.61317
G1 X158.938 Y123.369 E0.01336
G1 X111.395 Y75.825 E1.63207
G1 X110.844 Y75.825 E0.01336
G1 X158.938 Y123.919 E1.65096
G1 X158.938 Y124.470 E0.01336
G1 X110.294 Y75.825 E1.66986
G1 X109.743 Y75.825 E0.01336
G1 X158.938 Y125.020 E1.68876
G1 X158.938 Y125.571 E0.01336
G1 X109.193 Y75.825 E1.70765
G1 X108.642 Y75.825 E0.01336
G1 X158.938 Y126.121 E1.72655
G1 X158.938 Y126.672 E0.01336
G1 X108.092 Y75.825 E1.74544
G1 X107.541 Y75.825 E0.01336
G1 X158.938 Y127.222 E1.76434
G1 X158.938 Y127.772 E0.01336
G1 X106.991 Y75.825 E1.78324
G1 X106.440 Y75.825 E0.01336
G1 X158.938 Y128.323 E1.80213
G1 X158.938 Y128.873 E0.01336
G1 X105.890 Y75.825 E1.82103
G1 X105.340 Y75.825 E0.01336
G1 X158.938 Y129.424 E1.83992
G1 X158.938 Y129.974 E0.01336
G1 X104.789 Y75.825 E1.85882
G1 X104.239 Y75.825 E0.01336
G1 X158.938 Y130.525 E1.87771
G1 X158.938 Y131.075 E0.01336
G1 X103.688 Y75.825 E1.89661
G1 X103.138 Y75.825 E0.01336
G1 X158.938 Y131.626 E1.91551
G1 X158.938 Y132.176 E0.01336
G1 X102.587 Y75.825 E1.93440
G1 X102.037 Y75.825 E0.01336
G1 X158.938 Y132.727 E1.95330
G1 X158.938 Y133.277 E0.01336
G1 X101.486 Y75.825 E1.97219
G1 X100.936 Y75.825 E0.01336
G1 X158.938 Y133.827 E1.99109
G1 X158.735 Y134.175 E0.00977
G1 X100.385 Y75.825 E2.00302
G1 X99.835 Y75.825 E0.01336
G1 X158.185 Y134.175 E2.00302
G1 X157.634 Y134.175 E0.01336
G1 X99.285 Y75.825 E2.00302
G1 X98.734 Y75.825 E0.01336
G1 X157.084 Y134.175 E2.00302
G1 X156.533 Y134.175 E0.01336
G1 X98.184 Y75.825 E2.00302
G1 X97.633 Y75.825 E0.01336
G1 X155.983 Y134.175 E2.00302
G1 X155.432 Y134.175 E0.01336
G1 X97.083 Y75.825 E2.00302
G1 X96.532 Y75.825 E0.01336
G1 X154.882 Y134.175 E2.00302
G1 X154.332 Y134.175 E0.01336
G1 X95.982 Y75.825 E2.00302
G1 X95.431 Y75.825 E0.01336
G1 X153.781 Y134.175 E2.00302
G1 X153.231 Y134.175 E0.01336
G1 X94.881 Y75.825 E2.00302
G1 X94.330 Y75.825 E0.01336
G1 X152.680 Y134.175 E2.00302
G1 X152.130 Y134.175 E0.01336
G1 X93.780 Y75.825 E2.00302
G1 X93.230 Y75.825 E0.01336
G1 X151.579 Y134.175 E2.00302
G1 X151.029 Y134.175 E0.01336
G1 X92.679 Y75.825 E2.00302
G1 X92.129 Y75.825 E0.01336
G1 X150.478 Y134.175 E2.00302
G1 X149.928 Y134.175 E0.01336
G1 X91.578 Y75.825 E2.00302
G1 X91.028 Y75.825 E0.01336
G1 X149.377 Y134.175 E2.00302
G1 X148.827 Y134.175 E0.01336
G1 X90.825 Y76.173 E1.99108
G1 X90.825 Y76.723 E0.01336
G1 X148.277 Y134.175 E1.97218
G1 X147.726 Y134.175 E0.01336
G1 X90.825 Y77.274 E1.95328
G1 X90.825 Y77.824 E0.01336
G1 X147.176 Y134.175 E1.93439
G1 X146.625 Y134.175 E0.01336
G1 X90.825 Y78.375 E1.91549
G1 X90.825 Y78.925 E0.01336
G1 X146.075 Y134.175 E1.89660
G1 X145.524 Y134.175 E0.01336
G1 X90.825 Y79.476 E1.87770
G1 X90.825 Y80.026 E0.01336
G1 X144.974 Y134.175 E1.85881
G1 X144.423 Y134.175 E0.01336
G1 X90.825 Y80.577 E1.83991
G1 X90.825 Y81.127 E0.01336
G1 X143.873 Y134.175 E1.82101
G1 X143.322 Y134.175 E0.01336
G1 X90.825 Y81.677 E1.80212
G1 X90.825 Y82.228 E0.01336
G1 X142.772 Y134.175 E1.78322
G1 X142.222 Y134.175 E0.01336
G1 X90.825 Y82.778 E1.76433
G1 X90.825 Y83.329 E0.01336
G1 X141.671 Y134.175 E1.74543
G1 X141.121 Y134.175 E0.01336
G1 X90.825 Y83.879 E1.72653
G1 X90.825 Y84.430 E0.01336
G1 X140.570 Y134.175 E1.70764
G1 X140.020 Y134.175 E0.01336
G1 X90.825 Y84.980 E1.68874
G1 X90.825 Y85.531 E0.01336
G1 X139.469 Y134.175 E1.66985
G1 X138.919 Y134.175 E0.01336
G1 X90.825 Y86.081 E1.65095
G1 X90.825 Y86.632 E0.01336
G1 X138.368 Y134.175 E1.63206
G1 X137.818 Y134.175 E0.01336
G1 X90.825 Y87.182 E1.61316
G1 X90.825 Y87.732 E0.01336
G1 X137.268 Y134.175 E1.59426
G1 X136.717 Y134.175 E0.01336
G1 X90.825 Y88.283 E1.57537
G1 X90.825 Y88.833 E0.01336
G1 X136.167 Y134.175 E1.55647
G1 X135.616 Y134.175 E0.01336
G1 X90.825 Y89.384 E1.53758
G1 X90.825 Y89.934 E0.01336
G1 X135.066 Y134.175 E1.51868
G1 X134.515 Y134.175 E0.01336
G1 X90.825 Y90.485 E1.49978
G1 X90.825 Y91.035 E0.01336
G1 X133.965 Y134.175 E1.48089
G1 X133.414 Y134.175 E0.01336
G1 X90.825 Y91.586 E1.46199
G1 X90.825 Y92.136 E0.01336
G1 X132.864 Y134.175 E1.44310
G1 X132.313 Y134.175 E0.01336
G1 X90.825 Y92.687 E1.42420
G1 X90.825 Y93.237 E0.01336
G1 X131.763 Y134.175 E1.40531
G1 X131.213 Y134.175 E0.01336
G1 X90.825 Y93.787 E1.38641
G1 X90.825 Y94.338 E0.01336
G1 X130.662 Y134.175 E1.36751
G1 X130.112 Y134.175 E0.01336
G1 X90.825 Y94.888 E1.34862
G1 X90.825 Y95.439 E0.01336
G1 X129.561 Y134.175 E1.32972
G1 X129.011 Y134.175 E0.01336
G1 X90.825 Y95.989 E1.31083
G1 X90.825 Y96.540 E0.01336
G1 X128.460 Y134.175 E1.29193
G1 X127.910 Y134.175 E0.01336
G1 X90.825 Y97.090 E1.27303
G1 X90.825 Y97.641 E0.01336
G1 X127.359 Y134.175 E1.25414
G1 X126.809 Y134.175 E0.01336
G1 X90.825 Y98.191 E1.23524
G1 X90.825 Y98.742 E0.01336
G1 X126.258 Y134.175 E1.21635
G1 X125.708 Y134.175 E0.01336
G1 X90.825 Y99.292 E1.19745
G1 X90.825 Y99.842 E0.01336
G1 X125.158 Y134.175 E1.17856
G1 X124.607 Y134.175 E0.01336
G1 X90.825 Y100.393 E1.15966
G1 X90.825 Y100.943 E0.01336
G1 X124.057 Y134.175 E1.14076
G1 X123.506 Y134.175 E0.01336
G1 X90.825 Y101.494 E1.12187
G1 X90.825 Y102.044 E0.01336
G1 X122.956 Y134.175 E1.10297
G1 X122.405 Y134.175 E0.01336
G1 X90.825 Y102.595 E1.08408
G1 X90.825 Y103.145 E0.01336
G1 X121.855 Y134.175 E1.06518
G1 X121.304 Y134.175 E0.01336
G1 X90.825 Y103.696 E1.04628
G1 X90.825 Y104.246 E0.01336
G1 X120.754 Y134.175 E1.02739
G1 X120.203 Y134.175 E0.01336
G1 X90.825 Y104.797 E1.00849
G1 X90.825 Y105.347 E0.01336
G1 X119.653 Y134.175 E0.98960
G1 X119.103 Y134.175 E0.01336
G1 X90.825 Y105.897 E0.97070
G1 X90.825 Y106.448 E0.01336
G1 X118.552 Y134.175 E0.95181
G1 X118.002 Y134.175 E0.01336
G1 X90.825 Y106.998 E0.93291
G1 X90.825 Y107.549 E0.01336
G1 X117.451 Y134.175 E0.91401
G1 X116.901 Y134.175 E0.01336
G1 X90.825 Y108.099 E0.89512
G1 X90.825 Y108.650 E0.01336
G1 X116.350 Y134.175 E0.87622
G1 X115.800 Y134.175 E0.01336
G1 X90.825 Y109.200 E0.85733
G1 X90.825 Y109.751 E0.01336
G1 X115.249 Y134.175 E0.83843
G1 X114.699 Y134.175 E0.01336
G1 X90.825 Y110.301 E0.81953
G1 X90.825 Y110.852 E0.01336
G1 X114.148 Y134.175 E0.80064
G1 X113.598 Y134.175 E0.01336
G1 X90.825 Y111.402 E0.78174
G1 X90.825 Y111.952 E0.01336
G1 X113.048 Y134.175 E0.76285
G1 X112.497 Y134.175 E0.01336
G1 X90.825 Y112.503 E0.74395
G1 X90.825 Y113.053 E0.01336
G1 X111.947 Y134.175 E0.72506
G1 X111.396 Y134.175 E0.01336
G1 X90.825 Y113.604 E0.70616
G1 X90.825 Y114.154 E0.01336
G1 X110.846 Y134.175 E0.68726
G1 X110.295 Y134.175 E0.01336
G1 X90.825 Y114.705 E0.66837
G1 X90.825 Y115.255 E0.01336
G1 X109.745 Y134.175 E0.64947
G1 X109.194 Y134.175 E0.01336
G1 X90.825 Y115.806 E0.63058
G1 X90.825 Y116.356 E0.01336
G1 X108.644 Y134.175 E0.61168
G1 X108.093 Y134.175 E0.01336
G1 X90.825 Y116.907 E0.59278
G1 X90.825 Y117.457 E0.01336
G1 X107.543 Y134.175 E0.57389
G1 X106.993 Y134.175 E0.01336
G1 X90.825 Y118.007 E0.55499
G1 X90.825 Y118.558 E0.01336
G1 X106.442 Y134.175 E0.53610
G1 X105.892 Y134.175 E0.01336
G1 X90.825 Y119.108 E0.51720
G1 X90.825 Y119.659 E0.01336
G1 X105.341 Y134.175 E0.49830
G1 X104.791 Y134.175 E0.01336
G1 X90.825 Y120.209 E0.47941
G1 X90.825 Y120.760 E0.01336
G1 X104.240 Y134.175 E0.46051
G1 X103.690 Y134.175 E0.01336
G1 X90.825 Y121.310 E0.44162
G1 X90.825 Y121.861 E0.01336
G1 X103.139 Y134.175 E0.42272
G1 X102.589 Y134.175 E0.01336
G1 X90.825 Y122.411 E0.40383
G1 X90.825 Y122.961 E0.01336
G1 X102.039 Y134.175 E0.38493
G1 X101.488 Y134.175 E0.01336
G1 X90.825 Y123.512 E0.36603
G1 X90.825 Y124.062 E0.01336
G1 X100.938 Y134.175 E0.34714
G1 X100.387 Y134.175 E0.01336
G1 X90.825 Y124.613 E0.32824
G1 X90.825 Y125.163 E0.01336
G1 X99.837 Y134.175 E0.30935
G1 X99.286 Y134.175 E0.01336
G1 X90.825 Y125.714 E0.29045
G1 X90.825 Y126.264 E0.01336
G1 X98.736 Y134.175 E0.27155
G1 X98.185 Y134.175 E0.01336
G1 X90.825 Y126.815 E0.25266
G1 X90.825 Y127.365 E0.01336
G1 X97.635 Y134.175 E0.23376
G1 X97.084 Y134.175 E0.01336
G1 X90.825 Y127.916 E0.21487
G1 X90.825 Y128.466 E0.01336
G1 X96.534 Y134.175 E0.19597
G1 X95.984 Y134.175 E0.01336
G1 X90.825 Y129.016 E0.17708
G1 X90.825 Y129.567 E0.01336
G1 X95.433 Y134.175 E0.15818
G1 X94.883 Y134.175 E0.01336
G1 X90.825 Y130.117 E0.13928
G1 X90.825 Y130.668 E0.01336
G1 X94.332 Y134.175 E0.12039
G1 X93.782 Y134.175 E0.01336
G1 X90.825 Y131.218 E0.10149
G1 X90.825 Y131.769 E0.01336
G1 X93.231 Y134.175 E0.08260
G1 X92.681 Y134.175 E0.01336
G1 X90.825 Y132.319 E0.06370
G1 X90.825 Y132.870 E0.01336
G1 X92.130 Y134.175 E0.04480
G1 X91.580 Y134.175 E0.01336
G1 X90.825 Y133.420 E0.02591
M106 S216.75
G1 F5760
G1 X91.580 Y134.175 E-0.36969
G1 F5760
G1 X92.130 Y134.175 E-0.19065
G1 F5760
G1 X91.723 Y133.767 E-0.19966
G1 E-0.04000 F2100.00000
G1 Z0.350 F7200.000
G1 X159.637 Y134.743 F7200.000
G1 E0.80000 F2100.00000
M204 S800
G1 F1800
G1 X159.488 Y134.775 E0.00516
G1 X90.225 Y134.775 E2.34447
G1 X90.225 Y75.225 E2.01570
G1 X159.708 Y75.225 E2.35192
G1 X159.708 Y134.664 E2.01193
G1 X159.677 Y134.698 E0.00156
M204 S1000
G1 X159.559 Y134.717 F7200.000
G1 X159.301 Y134.368 F7200.000
M204 S800
G1 F2400
G1 X90.632 Y134.368 E2.32436
G1 X90.632 Y75.632 E1.98814
G1 X159.301 Y75.632 E2.32436
G1 X159.301 Y134.308 E1.98611
M204 S1000
