; generated by Slic3r 1.3.0-dev on 2016-09-11 at 11:33:14

; external perimeters extrusion width = 0.45mm
; perimeters extrusion width = 0.45mm
; infill extrusion width = 0.45mm
; solid infill extrusion width = 0.45mm
; top infill extrusion width = 0.40mm

M107
M83  ; extruder relative mode
M104 S215 ; set extruder temp
M140 S60 ; set bed temp
M190 S60 ; wait for bed temp
M109 S215 ; wait for extruder temp
G28 W ; home all without mesh bed level
G80 ; mesh bed leveling
G1 Y-3.0 F1000.0 ; go outside pritn area
G1 X60.0 E9.0  F1000.0 ; intro line
G1 X100.0 E12.5  F1000.0 ; intro line
G21 ; set units to millimeters
G90 ; use absolute coordinates
M83 ; use relative distances for extrusion
G1 E-0.80000 F2100.00000
G1 Z0.300 F7200.000
G1 X80.585 Y72.393 F7200.000
G1 E0.80000 F2100.00000
M204 S1000
G1 F1800
G1 X81.063 Y71.903 E0.03038
G1 X81.704 Y71.370 E0.03700
G1 X82.282 Y70.984 E0.03079
G1 X83.011 Y70.599 E0.03659
G1 X83.656 Y70.341 E0.03079
G1 X84.449 Y70.115 E0.03659
G1 X85.133 Y69.995 E0.03079
G1 X85.956 Y69.938 E0.03660
G1 X166.750 Y69.937 E3.58359
G1 X167.150 Y69.955 E0.01776
G1 X167.456 Y69.993 E0.01366
G1 X168.056 Y70.131 E0.02731
G1 X168.347 Y70.230 E0.01366
G1 X168.741 Y70.401 E0.01903
G1 X169.275 Y70.710 E0.02738
G1 X169.760 Y71.089 E0.02730
G1 X170.192 Y71.533 E0.02746
G1 X170.488 Y71.923 E0.02171
G1 X170.651 Y72.184 E0.01365
G1 X170.923 Y72.736 E0.02731
G1 X171.030 Y73.025 E0.01366
G1 X171.146 Y73.440 E0.01910
G1 X171.230 Y73.926 E0.02187
G1 X171.261 Y74.448 E0.02321
G1 X171.261 Y85.648 E0.49677
G1 X171.214 Y86.218 E0.02536
G1 X171.088 Y86.736 E0.02367
G1 X171.002 Y86.971 E0.01109
G1 X170.845 Y87.307 E0.01643
G1 X144.932 Y135.178 E2.41443
G1 X144.465 Y135.804 E0.03466
G1 X141.000 Y139.269 E0.21734
G1 X139.729 Y139.985 E0.06472
G1 X138.270 Y139.939 E0.06472
G1 X137.166 Y139.269 E0.05729
G1 X84.840 Y86.943 E3.28226
G1 X80.537 Y82.049 E0.28905
G1 X80.221 Y81.661 E0.02219
G1 X79.870 Y81.153 E0.02741
G1 X79.479 Y80.451 E0.03562
G1 X79.238 Y79.903 E0.02654
G1 X79.037 Y79.313 E0.02766
G1 X78.853 Y78.531 E0.03562
G1 X78.772 Y77.944 E0.02629
G1 X78.740 Y77.316 E0.02791
G1 X78.778 Y76.499 E0.03625
G1 X78.847 Y75.998 E0.02247
G1 X78.994 Y75.335 E0.03012
G1 X79.145 Y74.846 E0.02269
G1 X79.335 Y74.360 E0.02313
G1 X79.700 Y73.626 E0.03638
G1 X80.065 Y73.050 E0.03026
G1 X80.546 Y72.439 E0.03446
G1 X80.856 Y72.623 F7200.000
G1 F1800
G1 X81.300 Y72.167 E0.02825
G1 X81.922 Y71.651 E0.03585
G1 X82.458 Y71.293 E0.02860
G1 X83.166 Y70.919 E0.03550
G1 X83.765 Y70.679 E0.02861
G1 X84.535 Y70.460 E0.03550
G1 X85.170 Y70.349 E0.02861
G1 X85.969 Y70.294 E0.03551
G1 X166.750 Y70.292 E3.58305
G1 X167.395 Y70.343 E0.02871
G1 X167.948 Y70.469 E0.02516
G1 X168.217 Y70.561 E0.01258
G1 X168.588 Y70.722 E0.01795
G1 X169.080 Y71.008 E0.02524
G1 X169.527 Y71.357 E0.02515
G1 X169.924 Y71.766 E0.02529
G1 X170.190 Y72.118 E0.01958
G1 X170.341 Y72.358 E0.01258
G1 X170.592 Y72.867 E0.02516
G1 X170.691 Y73.133 E0.01259
G1 X170.801 Y73.524 E0.01802
G1 X170.877 Y73.962 E0.01972
G1 X170.906 Y74.448 E0.02159
G1 X170.906 Y85.648 E0.49677
G1 X170.864 Y86.157 E0.02267
G1 X170.749 Y86.629 E0.02152
G1 X170.532 Y87.137 E0.02453
G1 X144.619 Y135.009 E2.41443
G1 X144.214 Y135.553 E0.03012
G1 X140.749 Y139.018 E0.21734
G1 X139.552 Y139.660 E0.06024
G1 X138.200 Y139.536 E0.06024
G1 X137.417 Y139.018 E0.04163
G1 X85.091 Y86.692 E3.28226
G1 X80.804 Y81.815 E0.28803
G1 X80.503 Y81.445 E0.02114
G1 X80.174 Y80.969 E0.02567
G1 X79.795 Y80.289 E0.03453
G1 X79.569 Y79.772 E0.02504
G1 X79.381 Y79.220 E0.02588
G1 X79.202 Y78.462 E0.03453
G1 X79.126 Y77.907 E0.02482
G1 X79.096 Y77.320 E0.02610
G1 X79.133 Y76.528 E0.03515
G1 X79.199 Y76.051 E0.02137
G1 X79.336 Y75.434 E0.02802
G1 X79.479 Y74.969 E0.02160
G1 X79.658 Y74.507 E0.02195
G1 X80.013 Y73.795 E0.03529
G1 X80.353 Y73.259 E0.02814
G1 X80.817 Y72.669 E0.03330
G1 F5760
G1 X80.960 Y72.509 E-0.07436
G1 F5760
G1 X80.963 Y72.505 E-0.00166
G1 F5760
G1 X80.969 Y72.499 E-0.00295
G1 F5760
G1 X81.188 Y72.275 E-0.10873
G1 F5760
G1 X81.300 Y72.167 E-0.05375
G1 F5760
G1 X81.304 Y72.164 E-0.00166
G1 F5760
G1 X81.310 Y72.159 E-0.00278
G1 F5760
G1 X81.544 Y71.950 E-0.10873
G1 F5760
G1 X81.664 Y71.850 E-0.05406
G1 F5760
G1 X81.668 Y71.847 E-0.00166
G1 F5760
G1 X81.674 Y71.843 E-0.00247
G1 F5760
G1 X81.922 Y71.651 E-0.10873
G1 F5760
G1 X82.049 Y71.559 E-0.05418
G1 F5760
G1 X82.053 Y71.557 E-0.00166
G1 F5760
G1 X82.059 Y71.553 E-0.00235
G1 F5760
G1 X82.320 Y71.378 E-0.10873
G1 F5760
G1 X82.458 Y71.293 E-0.05649
G1 F5760
G1 X82.496 Y71.271 E-0.01502
G1 E-0.04000 F2100.00000
G1 X141.748 Y133.887 F7200.000
G1 E0.80000 F2100.00000
G1 F1440
G1 X139.083 Y136.552 E0.16716
G1 X87.557 Y85.026 E3.23208
G1 X90.222 Y82.361 E0.16716
G1 X141.706 Y133.845 E3.22942
G1 X142.251 Y133.887 F7200.000
G1 F1080
G1 X139.083 Y137.055 E0.19871
G1 X87.054 Y85.026 E3.26363
G1 X90.222 Y81.858 E0.19871
G1 X142.208 Y133.845 E3.26097
G1 X141.867 Y133.999 F7200.000
G1 X141.396 Y133.963 F7200.000
G1 F1440
G1 X90.146 Y82.713 E3.57554
G1 X89.867 Y82.993 E0.01951
G1 X141.116 Y134.242 E3.57554
G1 X140.837 Y134.522 E0.01951
G1 X89.587 Y83.273 E3.57554
G1 X89.307 Y83.552 E0.01951
G1 X140.557 Y134.802 E3.57554
G1 X140.277 Y135.081 E0.01951
G1 X89.028 Y83.832 E3.57554
G1 X88.748 Y84.112 E0.01951
G1 X139.997 Y135.361 E3.57554
G1 X139.718 Y135.641 E0.01951
G1 X88.468 Y84.391 E3.57554
G1 X88.189 Y84.671 E0.01951
G1 X139.438 Y135.920 E3.57554
G1 X139.158 Y136.200 E0.01951
G1 X87.909 Y84.951 E3.57554
G1 F5760
G1 X89.461 Y86.502 E-0.76000
G1 E-0.04000 F2100.00000
G1 X88.690 Y79.792 F7200.000
G1 E0.80000 F2100.00000
G1 F720
G1 X88.340 Y80.111 E0.02100
G1 X88.108 Y80.282 E0.01278
G1 X87.700 Y80.522 E0.02100
G1 X87.438 Y80.641 E0.01278
G1 X86.989 Y80.792 E0.02100
G1 X86.717 Y80.853 E0.01237
G1 X86.456 Y80.892 E0.01170
G1 X85.974 Y80.914 E0.02140
G1 X85.454 Y80.866 E0.02316
G1 X84.983 Y80.756 E0.02143
G1 X84.711 Y80.661 E0.01278
G1 X84.283 Y80.460 E0.02100
G1 X84.036 Y80.311 E0.01278
G1 X83.658 Y80.026 E0.02100
G1 X83.447 Y79.830 E0.01278
G1 X83.136 Y79.473 E0.02100
G1 X82.976 Y79.245 E0.01237
G1 X82.840 Y79.018 E0.01171
G1 X82.634 Y78.582 E0.02140
G1 X82.479 Y78.083 E0.02316
G1 X82.401 Y77.606 E0.02143
G1 X82.384 Y77.318 E0.01279
G1 X82.407 Y76.837 E0.02136
G1 X82.448 Y76.564 E0.01228
G1 X82.570 Y76.094 E0.02151
G1 X82.667 Y75.835 E0.01228
G1 X82.883 Y75.401 E0.02151
G1 X83.026 Y75.175 E0.01185
G1 X83.183 Y74.963 E0.01170
G1 X83.516 Y74.597 E0.02194
G1 X83.909 Y74.271 E0.02267
G1 X84.330 Y74.010 E0.02195
G1 X84.579 Y73.890 E0.01228
G1 X85.036 Y73.725 E0.02151
G1 X85.295 Y73.661 E0.01185
G1 X85.555 Y73.615 E0.01170
G1 X86.038 Y73.582 E0.02150
G1 X86.312 Y73.591 E0.01212
G1 X86.785 Y73.656 E0.02120
G1 X87.050 Y73.721 E0.01211
G1 X87.501 Y73.881 E0.02120
G1 X87.747 Y73.998 E0.01211
G1 X88.156 Y74.247 E0.02120
G1 X88.373 Y74.412 E0.01211
G1 X88.722 Y74.738 E0.02120
G1 X88.902 Y74.944 E0.01211
G1 X89.177 Y75.334 E0.02120
G1 X89.311 Y75.573 E0.01211
G1 X89.501 Y76.011 E0.02120
G1 X89.584 Y76.271 E0.01211
G1 X89.683 Y76.749 E0.02164
G1 X89.717 Y77.256 E0.02256
G1 X89.683 Y77.737 E0.02138
G1 X89.638 Y77.997 E0.01170
G1 X89.571 Y78.268 E0.01237
G1 X89.407 Y78.722 E0.02144
G1 X89.164 Y79.184 E0.02316
G1 X88.882 Y79.577 E0.02144
G1 X88.730 Y79.747 E0.01012
G1 X88.437 Y79.542 F7200.000
G1 F720
G1 X88.114 Y79.836 E0.01936
G1 X87.912 Y79.985 E0.01114
G1 X87.536 Y80.206 E0.01936
G1 X87.307 Y80.310 E0.01114
G1 X86.893 Y80.449 E0.01936
G1 X86.652 Y80.503 E0.01099
G1 X86.421 Y80.537 E0.01033
G1 X85.982 Y80.558 E0.01951
G1 X85.511 Y80.514 E0.02097
G1 X85.083 Y80.414 E0.01952
G1 X84.845 Y80.331 E0.01114
G1 X84.450 Y80.146 E0.01936
G1 X84.235 Y80.016 E0.01114
G1 X83.887 Y79.753 E0.01936
G1 X83.703 Y79.582 E0.01114
G1 X83.416 Y79.253 E0.01936
G1 X83.274 Y79.050 E0.01099
G1 X83.154 Y78.851 E0.01033
G1 X82.967 Y78.453 E0.01951
G1 X82.826 Y78.001 E0.02097
G1 X82.755 Y77.567 E0.01952
G1 X82.740 Y77.316 E0.01114
G1 X82.761 Y76.872 E0.01971
G1 X82.797 Y76.635 E0.01064
G1 X82.910 Y76.201 E0.01987
G1 X82.994 Y75.977 E0.01064
G1 X83.193 Y75.576 E0.01987
G1 X83.320 Y75.376 E0.01048
G1 X83.458 Y75.189 E0.01034
G1 X83.762 Y74.855 E0.02003
G1 X84.118 Y74.560 E0.02048
G1 X84.502 Y74.322 E0.02003
G1 X84.718 Y74.218 E0.01064
G1 X85.139 Y74.066 E0.01987
G1 X85.368 Y74.009 E0.01048
G1 X85.598 Y73.969 E0.01034
G1 X86.045 Y73.938 E0.01987
G1 X86.281 Y73.946 E0.01050
G1 X86.719 Y74.006 E0.01958
G1 X86.948 Y74.062 E0.01049
G1 X87.364 Y74.210 E0.01958
G1 X87.578 Y74.312 E0.01049
G1 X87.955 Y74.541 E0.01958
G1 X88.144 Y74.684 E0.01049
G1 X88.466 Y74.985 E0.01958
G1 X88.622 Y75.164 E0.01049
G1 X88.876 Y75.525 E0.01958
G1 X88.992 Y75.731 E0.01049
G1 X89.168 Y76.136 E0.01958
G1 X89.239 Y76.361 E0.01049
G1 X89.330 Y76.797 E0.01975
G1 X89.360 Y77.256 E0.02039
G1 X89.330 Y77.695 E0.01950
G1 X89.290 Y77.924 E0.01033
G1 X89.231 Y78.165 E0.01099
G1 X89.081 Y78.579 E0.01952
G1 X88.861 Y78.997 E0.02097
G1 X88.604 Y79.354 E0.01952
G1 X88.477 Y79.497 E0.00848
G1 X88.544 Y79.927 F7200.000
G1 F5760
G1 X88.114 Y79.836 E-0.17185
G1 F5760
G1 X87.912 Y79.985 E-0.08698
G1 F5760
G1 X87.536 Y80.206 E-0.15117
G1 F5760
G1 X87.307 Y80.310 E-0.08698
G1 F5760
G1 X86.893 Y80.449 E-0.15117
G1 F5760
G1 X86.652 Y80.503 E-0.08580
G1 F5760
G1 X86.577 Y80.514 E-0.02605
G1 E-0.04000 F2100.00000
G1 X90.097 Y76.582 F7200.000
G1 E0.80000 F2100.00000
G1 F1440
G1 X90.074 Y77.523 E0.04173
G1 X90.044 Y77.809 E0.01277
G1 X89.929 Y78.354 E0.02468
G1 X89.842 Y78.621 E0.01247
G1 X89.617 Y79.131 E0.02471
G1 X89.322 Y79.606 E0.02481
G1 X88.967 Y80.034 E0.02468
G1 X88.765 Y80.230 E0.01247
G1 X88.329 Y80.576 E0.02468
G1 X88.092 Y80.727 E0.01247
G1 X87.594 Y80.974 E0.02468
G1 X87.330 Y81.073 E0.01247
G1 X86.801 Y81.210 E0.02424
G1 X86.225 Y81.277 E0.02571
G1 X85.679 Y81.264 E0.02424
G1 X85.127 Y81.174 E0.02482
G1 X84.604 Y81.013 E0.02427
G1 X84.079 Y80.766 E0.02571
G1 X83.621 Y80.468 E0.02424
G1 X83.402 Y80.291 E0.01247
G1 X83.009 Y79.898 E0.02468
G1 X82.832 Y79.679 E0.01248
G1 X82.528 Y79.213 E0.02468
G1 X82.399 Y78.963 E0.01247
G1 X82.198 Y78.444 E0.02468
G1 X82.069 Y77.900 E0.02481
G1 X82.019 Y77.355 E0.02428
G1 X82.045 Y76.779 E0.02559
G1 X82.148 Y76.225 E0.02497
G1 X82.224 Y75.972 E0.01174
G1 X82.443 Y75.442 E0.02545
G1 X82.719 Y74.973 E0.02411
G1 X83.069 Y74.531 E0.02500
G1 X83.477 Y74.143 E0.02499
G1 X83.935 Y73.813 E0.02501
G1 X84.412 Y73.562 E0.02391
G1 X84.955 Y73.366 E0.02565
G1 X85.208 Y73.303 E0.01153
G1 X85.771 Y73.225 E0.02521
G1 X166.833 Y73.218 E3.59548
G1 X166.991 Y73.239 E0.00711
G1 X167.250 Y73.321 E0.01203
G1 X167.382 Y73.390 E0.00660
G1 X167.590 Y73.548 E0.01160
G1 X167.756 Y73.738 E0.01118
G1 X167.884 Y73.964 E0.01153
G1 X167.934 Y74.106 E0.00668
G1 X167.980 Y74.374 E0.01203
G1 X167.982 Y85.635 E0.49948
G1 X167.957 Y85.738 E0.00472
G1 X167.915 Y85.802 E0.00341
G1 X167.838 Y85.861 E0.00428
G1 X167.757 Y85.880 E0.00372
G1 X167.255 Y85.868 E0.02227
G1 X167.117 Y85.827 E0.00636
G1 X166.944 Y85.726 E0.00891
G1 X164.816 Y83.613 E0.13303
G1 X164.816 Y83.564 E0.00217
G1 X167.616 Y83.564 E0.12420
G1 X167.614 Y74.546 E0.39998
G1 X167.535 Y74.220 E0.01487
G1 X167.335 Y73.915 E0.01618
G1 X167.044 Y73.694 E0.01619
G1 X166.706 Y73.587 E0.01574
G1 X160.984 Y73.582 E0.25378
G1 X160.984 Y75.414 E0.08125
G1 X165.484 Y75.414 E0.19960
G1 X165.484 Y76.582 E0.05184
G1 X90.157 Y76.582 E3.34114
G1 X90.444 Y76.938 F7200.000
G1 F1080
G1 X90.430 Y77.546 E0.02697
G1 X90.396 Y77.865 E0.01422
G1 X90.273 Y78.445 E0.02632
G1 X90.175 Y78.748 E0.01412
G1 X89.935 Y79.291 E0.02633
G1 X89.786 Y79.552 E0.01332
G1 X89.608 Y79.819 E0.01427
G1 X89.228 Y80.276 E0.02632
G1 X89.001 Y80.498 E0.01412
G1 X88.535 Y80.866 E0.02632
G1 X88.267 Y81.037 E0.01412
G1 X87.735 Y81.301 E0.02632
G1 X87.437 Y81.412 E0.01412
G1 X86.867 Y81.561 E0.02616
G1 X86.242 Y81.633 E0.02790
G1 X85.652 Y81.619 E0.02616
G1 X85.333 Y81.579 E0.01427
G1 X85.039 Y81.519 E0.01332
G1 X84.475 Y81.345 E0.02617
G1 X83.906 Y81.078 E0.02790
G1 X83.411 Y80.756 E0.02616
G1 X83.164 Y80.556 E0.01412
G1 X82.745 Y80.136 E0.02632
G1 X82.544 Y79.889 E0.01412
G1 X82.220 Y79.392 E0.02632
G1 X82.074 Y79.109 E0.01412
G1 X81.860 Y78.556 E0.02632
G1 X81.775 Y78.246 E0.01427
G1 X81.717 Y77.951 E0.01332
G1 X81.662 Y77.363 E0.02617
G1 X81.690 Y76.738 E0.02778
G1 X81.802 Y76.141 E0.02690
G1 X81.888 Y75.852 E0.01338
G1 X82.122 Y75.288 E0.02708
G1 X82.265 Y75.024 E0.01333
G1 X82.429 Y74.767 E0.01354
G1 X82.806 Y74.291 E0.02692
G1 X83.249 Y73.868 E0.02718
G1 X83.742 Y73.514 E0.02692
G1 X84.003 Y73.365 E0.01333
G1 X84.273 Y73.234 E0.01333
G1 X84.852 Y73.025 E0.02729
G1 X85.140 Y72.954 E0.01317
G1 X85.746 Y72.869 E0.02713
G1 X166.857 Y72.862 E3.59765
G1 X167.070 Y72.891 E0.00954
G1 X167.386 Y72.992 E0.01473
G1 X167.573 Y73.088 E0.00930
G1 X167.834 Y73.287 E0.01457
G1 X168.048 Y73.532 E0.01442
G1 X168.208 Y73.817 E0.01450
G1 X168.279 Y74.016 E0.00938
G1 X168.336 Y74.343 E0.01473
G1 X168.338 Y85.677 E0.50273
G1 X168.288 Y85.882 E0.00933
G1 X168.179 Y86.049 E0.00885
G1 X168.014 Y86.173 E0.00917
G1 X167.909 Y86.215 E0.00502
G1 X167.787 Y86.236 E0.00549
G1 X167.317 Y86.235 E0.02082
G1 X167.179 Y86.217 E0.00618
G1 X166.975 Y86.155 E0.00947
G1 X166.726 Y86.011 E0.01277
G1 X164.460 Y83.761 E0.14165
G1 X164.460 Y83.208 E0.02451
G1 X167.260 Y83.208 E0.12420
G1 X167.259 Y74.589 E0.38231
G1 X167.204 Y74.364 E0.01026
G1 X167.071 Y74.161 E0.01075
G1 X166.878 Y74.015 E0.01075
G1 X166.651 Y73.943 E0.01058
G1 X161.340 Y73.938 E0.23556
G1 X161.340 Y75.058 E0.04969
G1 X165.840 Y75.058 E0.19960
G1 X165.840 Y76.938 E0.08339
G1 X90.504 Y76.938 E3.34151
G1 X90.044 Y76.935 F7200.000
G1 F5760
G1 X90.430 Y77.546 E-0.21215
G1 F5760
G1 X90.396 Y77.865 E-0.11107
G1 F5760
G1 X90.273 Y78.445 E-0.20551
G1 F5760
G1 X90.175 Y78.748 E-0.11022
G1 F5760
G1 X90.034 Y79.068 E-0.12104
G1 E-0.04000 F2100.00000
G1 X87.958 Y76.947 F7200.000
G1 E0.80000 F2100.00000
G1 F720
G1 X87.979 Y77.348 E0.01781
G1 X87.914 Y77.757 E0.01835
G1 X87.832 Y77.995 E0.01118
G1 X87.631 Y78.357 E0.01835
G1 X87.367 Y78.661 E0.01789
G1 X87.044 Y78.904 E0.01792
G1 X86.678 Y79.075 E0.01794
G1 X86.427 Y79.143 E0.01150
G1 X86.016 Y79.179 E0.01831
G1 X85.615 Y79.130 E0.01792
G1 X85.232 Y78.998 E0.01794
G1 X85.005 Y78.873 E0.01150
G1 X84.684 Y78.614 E0.01831
G1 X84.430 Y78.299 E0.01797
G1 X84.247 Y77.941 E0.01780
G1 X84.143 Y77.551 E0.01791
G1 X84.121 Y77.148 E0.01791
G1 X84.186 Y76.739 E0.01834
G1 X84.268 Y76.501 E0.01118
G1 X84.469 Y76.139 E0.01835
G1 X84.732 Y75.836 E0.01781
G1 X85.054 Y75.593 E0.01791
G1 X85.420 Y75.422 E0.01791
G1 X85.823 Y75.329 E0.01834
G1 X86.075 Y75.316 E0.01118
G1 X86.485 Y75.366 E0.01834
G1 X86.867 Y75.498 E0.01791
G1 X87.211 Y75.705 E0.01781
G1 X87.507 Y75.980 E0.01791
G1 X87.744 Y76.319 E0.01834
G1 X87.851 Y76.547 E0.01118
G1 X87.942 Y76.889 E0.01569
G1 X88.311 Y76.891 F7200.000
G1 F720
G1 X88.336 Y77.366 E0.02111
G1 X88.261 Y77.843 E0.02139
G1 X88.158 Y78.140 E0.01395
G1 X87.924 Y78.562 E0.02139
G1 X87.610 Y78.922 E0.02120
G1 X87.228 Y79.210 E0.02123
G1 X86.800 Y79.410 E0.02095
G1 X86.490 Y79.495 E0.01427
G1 X86.010 Y79.536 E0.02137
G1 X85.535 Y79.478 E0.02123
G1 X85.088 Y79.325 E0.02095
G1 X84.806 Y79.170 E0.01427
G1 X84.432 Y78.866 E0.02137
G1 X84.130 Y78.493 E0.02128
G1 X83.914 Y78.069 E0.02111
G1 X83.790 Y77.607 E0.02123
G1 X83.764 Y77.129 E0.02122
G1 X83.839 Y76.653 E0.02139
G1 X83.942 Y76.356 E0.01395
G1 X84.176 Y75.934 E0.02139
G1 X84.488 Y75.575 E0.02111
G1 X84.870 Y75.287 E0.02123
G1 X85.304 Y75.084 E0.02122
G1 X85.773 Y74.976 E0.02139
G1 X86.088 Y74.959 E0.01395
G1 X86.566 Y75.018 E0.02139
G1 X87.018 Y75.174 E0.02123
G1 X87.426 Y75.419 E0.02111
G1 X87.777 Y75.745 E0.02123
G1 X88.053 Y76.140 E0.02139
G1 X88.186 Y76.425 E0.01395
G1 X88.295 Y76.833 E0.01873
G1 X87.997 Y77.139 F7200.000
G1 X87.435 Y76.337 F7200.000
G1 F1440
G1 X86.937 Y75.839 E0.03169
G1 X86.128 Y75.541 F7200.000
G1 F1440
G1 X87.758 Y77.171 E0.10388
G1 X87.732 Y77.655 E0.02185
G1 X85.644 Y75.567 E0.13303
G1 X85.262 Y75.697 E0.01814
G1 X87.603 Y78.037 E0.14912
G1 X87.402 Y78.347 E0.01663
G1 X84.951 Y75.896 E0.15615
G1 X84.695 Y76.152 E0.01627
G1 X87.146 Y78.602 E0.15615
G1 X86.834 Y78.801 E0.01667
