; generated by Slic3r 1.3.0-dev on 2016-09-08 at 22:47:12

; external perimeters extrusion width = 0.45mm
; perimeters extrusion width = 0.45mm
; infill extrusion width = 0.45mm
; solid infill extrusion width = 0.45mm
; top infill extrusion width = 0.40mm

M107
M83  ; extruder relative mode
M104 S210 ; set extruder temp
M140 S55 ; set bed temp
M190 S55 ; wait for bed temp
M109 S210 ; wait for extruder temp
G28 W ; home all without mesh bed level
G80 ; mesh bed leveling
G1 Y-3.0 F1000.0 ; go outside pritn area
G1 X60.0 E9.0  F1000.0 ; intro line
G1 X100.0 E12.5  F1000.0 ; intro line
G21 ; set units to millimeters
G90 ; use absolute coordinates
M83 ; use relative distances for extrusion
G1 E-0.80000 F2100.00000
G1 Z0.150 F7200.000
G1 X68.811 Y80.181 F7200.000
G1 E0.80000 F2100.00000
M204 S1000
G1 F1800
G1 X69.320 Y79.787 E0.01557
G1 X69.730 Y79.519 E0.01185
G1 X70.153 Y79.284 E0.01171
G1 X70.887 Y78.960 E0.01941
G1 X71.346 Y78.806 E0.01171
G1 X71.977 Y78.650 E0.01571
G1 X72.771 Y78.539 E0.01941
G1 X73.338 Y78.515 E0.01371
G1 X154.038 Y78.515 E1.95172
G1 X154.688 Y78.566 E0.01579
G1 X154.969 Y78.620 E0.00692
G1 X155.363 Y78.731 E0.00989
G1 X155.891 Y78.948 E0.01382
G1 X156.390 Y79.238 E0.01396
G1 X156.836 Y79.587 E0.01369
G1 X157.234 Y79.997 E0.01382
G1 X172.667 Y99.292 E0.59754
G1 X172.913 Y99.637 E0.01027
G1 X173.100 Y99.962 E0.00906
G1 X173.304 Y100.421 E0.01216
G1 X173.439 Y100.847 E0.01080
G1 X173.526 Y101.276 E0.01059
G1 X173.570 Y101.787 E0.01240
G1 X173.571 Y113.133 E0.27440
G1 X173.530 Y113.603 E0.01142
G1 X173.428 Y114.036 E0.01077
G1 X173.312 Y114.349 E0.00806
G1 X173.129 Y114.712 E0.00982
G1 X153.091 Y148.409 E0.94815
G1 X152.727 Y148.877 E0.01434
G1 X149.263 Y152.342 E0.11851
G1 X148.059 Y152.991 E0.03307
G1 X147.021 Y152.976 E0.02510
G1 X125.818 Y147.930 E0.52713
G1 X124.682 Y147.295 E0.03146
G1 X72.356 Y94.969 E1.78968
G1 X68.010 Y90.023 E0.15924
G1 X67.533 Y89.391 E0.01914
G1 X67.240 Y88.915 E0.01353
G1 X66.977 Y88.393 E0.01414
G1 X66.691 Y87.655 E0.01914
G1 X66.540 Y87.121 E0.01340
G1 X66.429 Y86.542 E0.01427
G1 X66.355 Y85.754 E0.01914
G1 X66.361 Y85.111 E0.01554
G1 X66.455 Y84.300 E0.01974
G1 X66.592 Y83.680 E0.01537
G1 X66.741 Y83.202 E0.01211
G1 X67.047 Y82.463 E0.01935
G1 X67.351 Y81.900 E0.01547
G1 X67.810 Y81.230 E0.01964
G1 X68.224 Y80.741 E0.01549
G1 X68.766 Y80.221 E0.01818
G1 F5760
G1 X68.932 Y80.080 E-0.07548
G1 F5760
G1 X68.934 Y80.078 E-0.00083
G1 F5760
G1 X68.940 Y80.073 E-0.00259
G1 F5760
G1 X69.190 Y79.880 E-0.10956
G1 F5760
G1 X69.320 Y79.787 E-0.05530
G1 F5760
G1 X69.322 Y79.785 E-0.00083
G1 F5760
G1 X69.326 Y79.782 E-0.00200
G1 F5760
G1 X69.589 Y79.606 E-0.10956
G1 F5760
G1 X69.730 Y79.519 E-0.05729
G1 F5760
G1 X70.007 Y79.361 E-0.11039
G1 F5760
G1 X70.153 Y79.284 E-0.05731
G1 F5760
G1 X70.440 Y79.145 E-0.11039
G1 F5760
G1 X70.591 Y79.078 E-0.05731
G1 F5760
G1 X70.621 Y79.066 E-0.01116
G1 E-0.04000 F2100.00000
G1 X147.574 Y149.808 F7200.000
G1 E0.80000 F2100.00000
G1 F1440
G1 X110.236 Y112.469 E1.27707
G1 X112.855 Y109.850 E0.08959
G1 X150.194 Y147.188 E1.27707
G1 X147.617 Y149.765 E0.08814
G1 X147.574 Y150.356 F7200.000
G1 F1080
G1 X109.687 Y112.469 E1.29583
G1 X112.855 Y109.301 E0.10835
G1 X150.742 Y147.188 E1.29583
G1 X147.617 Y150.314 E0.10690
G1 X147.299 Y150.066 F7200.000
G1 X147.656 Y149.424 F7200.000
G1 F1440
G1 X110.620 Y112.387 E1.42098
G1 X110.927 Y112.079 E0.01180
G1 X147.964 Y149.116 E1.42098
G1 X148.272 Y148.809 E0.01180
G1 X111.235 Y111.772 E1.42098
G1 X111.543 Y111.464 E0.01180
G1 X148.579 Y148.501 E1.42098
G1 X148.887 Y148.193 E0.01180
G1 X111.850 Y111.157 E1.42098
G1 X112.158 Y110.849 E0.01180
G1 X149.195 Y147.886 E1.42098
G1 X149.502 Y147.578 E0.01180
G1 X112.465 Y110.541 E1.42098
G1 X112.773 Y110.234 E0.01180
G1 X149.810 Y147.271 E1.42098
G1 F5760
G1 X148.258 Y145.719 E-0.76000
G1 E-0.04000 F2100.00000
G1 X110.866 Y107.678 F7200.000
G1 E0.80000 F2100.00000
G1 F720
G1 X110.532 Y107.894 E0.00962
G1 X110.187 Y108.070 E0.00936
G1 X109.826 Y108.209 E0.00936
G1 X109.446 Y108.311 E0.00952
G1 X108.823 Y108.388 E0.01518
G1 X108.425 Y108.381 E0.00962
G1 X108.041 Y108.334 E0.00936
G1 X107.664 Y108.246 E0.00936
G1 X107.292 Y108.118 E0.00952
G1 X106.732 Y107.834 E0.01518
G1 X106.406 Y107.606 E0.00962
G1 X106.114 Y107.352 E0.00936
G1 X105.850 Y107.069 E0.00936
G1 X105.611 Y106.751 E0.00962
G1 X105.308 Y106.205 E0.01509
G1 X105.166 Y105.834 E0.00962
G1 X105.063 Y105.450 E0.00962
G1 X104.985 Y104.820 E0.01534
G1 X105.019 Y104.187 E0.01534
G1 X105.095 Y103.796 E0.00962
G1 X105.208 Y103.426 E0.00936
G1 X105.359 Y103.070 E0.00936
G1 X105.547 Y102.731 E0.00936
G1 X105.769 Y102.414 E0.00936
G1 X106.023 Y102.122 E0.00936
G1 X106.306 Y101.858 E0.00936
G1 X106.623 Y101.619 E0.00962
G1 X107.178 Y101.311 E0.01534
G1 X107.778 Y101.104 E0.01534
G1 X108.169 Y101.029 E0.00962
G1 X108.554 Y100.995 E0.00936
G1 X108.941 Y101.002 E0.00936
G1 X109.336 Y101.050 E0.00962
G1 X109.939 Y101.211 E0.01509
G1 X110.305 Y101.367 E0.00962
G1 X110.643 Y101.555 E0.00936
G1 X110.960 Y101.777 E0.00936
G1 X111.253 Y102.031 E0.00936
G1 X111.517 Y102.314 E0.00936
G1 X111.756 Y102.631 E0.00962
G1 X112.058 Y103.177 E0.01509
G1 X112.201 Y103.548 E0.00962
G1 X112.304 Y103.932 E0.00962
G1 X112.380 Y104.552 E0.01510
G1 X112.373 Y104.949 E0.00961
G1 X112.325 Y105.340 E0.00952
G1 X112.163 Y105.947 E0.01518
G1 X112.007 Y106.313 E0.00962
G1 X111.820 Y106.651 E0.00936
G1 X111.598 Y106.968 E0.00936
G1 X111.340 Y107.266 E0.00952
G1 X110.911 Y107.638 E0.01373
G1 X110.632 Y107.367 F7200.000
G1 F720
G1 X110.338 Y107.558 E0.00847
G1 X110.030 Y107.715 E0.00838
G1 X109.706 Y107.839 E0.00838
G1 X109.372 Y107.929 E0.00838
G1 X108.802 Y107.999 E0.01387
G1 X108.452 Y107.993 E0.00847
G1 X108.108 Y107.951 E0.00838
G1 X107.771 Y107.873 E0.00838
G1 X107.443 Y107.760 E0.00838
G1 X106.932 Y107.501 E0.01387
G1 X106.645 Y107.300 E0.00847
G1 X106.384 Y107.072 E0.00838
G1 X106.147 Y106.819 E0.00838
G1 X105.937 Y106.539 E0.00847
G1 X105.661 Y106.041 E0.01378
G1 X105.535 Y105.714 E0.00847
G1 X105.444 Y105.376 E0.00847
G1 X105.375 Y104.807 E0.01387
G1 X105.405 Y104.234 E0.01387
G1 X105.471 Y103.890 E0.00847
G1 X105.573 Y103.559 E0.00838
G1 X105.708 Y103.240 E0.00838
G1 X105.876 Y102.937 E0.00838
G1 X106.075 Y102.653 E0.00838
G1 X106.302 Y102.392 E0.00838
G1 X106.556 Y102.155 E0.00838
G1 X106.835 Y101.945 E0.00847
G1 X107.337 Y101.667 E0.01387
G1 X107.879 Y101.480 E0.01387
G1 X108.223 Y101.413 E0.00847
G1 X108.568 Y101.383 E0.00838
G1 X108.914 Y101.389 E0.00838
G1 X109.262 Y101.432 E0.00847
G1 X109.812 Y101.579 E0.01378
G1 X110.134 Y101.716 E0.00847
G1 X110.438 Y101.884 E0.00838
G1 X110.721 Y102.083 E0.00838
G1 X110.983 Y102.310 E0.00838
G1 X111.219 Y102.563 E0.00838
G1 X111.430 Y102.843 E0.00847
G1 X111.706 Y103.341 E0.01378
G1 X111.832 Y103.668 E0.00847
G1 X111.922 Y104.006 E0.00847
G1 X111.992 Y104.572 E0.01379
G1 X111.986 Y104.922 E0.00847
G1 X111.943 Y105.266 E0.00838
G1 X111.795 Y105.820 E0.01387
G1 X111.658 Y106.142 E0.00847
G1 X111.490 Y106.446 E0.00838
G1 X111.292 Y106.729 E0.00838
G1 X111.065 Y106.991 E0.00838
G1 X110.677 Y107.328 E0.01242
G1 X110.673 Y107.715 F7200.000
G1 F5760
G1 X110.338 Y107.558 E-0.14191
G1 F5760
G1 X110.030 Y107.715 E-0.12001
G1 F5760
G1 X109.706 Y107.839 E-0.11999
G1 F5760
G1 X109.372 Y107.929 E-0.11998
G1 F5760
G1 X108.802 Y107.999 E-0.19861
G1 F5760
G1 X108.631 Y107.996 E-0.05950
G1 E-0.04000 F2100.00000
G1 X112.699 Y103.993 F7200.000
G1 E0.80000 F2100.00000
G1 F1440
G1 X112.675 Y104.970 E0.02363
G1 X112.624 Y105.388 E0.01018
G1 X112.567 Y105.656 E0.00663
G1 X112.443 Y106.061 E0.01025
G1 X112.279 Y106.447 E0.01013
G1 X112.076 Y106.813 E0.01013
G1 X111.923 Y107.040 E0.00663
G1 X111.656 Y107.370 E0.01025
G1 X111.360 Y107.666 E0.01013
G1 X111.034 Y107.929 E0.01013
G1 X110.807 Y108.083 E0.00663
G1 X110.436 Y108.288 E0.01025
G1 X110.051 Y108.452 E0.01013
G1 X109.650 Y108.574 E0.01013
G1 X109.382 Y108.631 E0.00663
G1 X108.962 Y108.683 E0.01025
G1 X108.543 Y108.690 E0.01013
G1 X108.125 Y108.654 E0.01013
G1 X107.855 Y108.606 E0.00663
G1 X107.446 Y108.496 E0.01025
G1 X107.055 Y108.346 E0.01013
G1 X106.682 Y108.156 E0.01013
G1 X106.331 Y107.928 E0.01013
G1 X106.005 Y107.664 E0.01013
G1 X105.808 Y107.474 E0.00663
G1 X105.530 Y107.154 E0.01025
G1 X105.290 Y106.811 E0.01013
G1 X105.087 Y106.445 E0.01013
G1 X104.923 Y106.059 E0.01013
G1 X104.801 Y105.659 E0.01013
G1 X104.743 Y105.391 E0.00663
G1 X104.692 Y104.970 E0.01025
G1 X104.684 Y104.551 E0.01013
G1 X104.721 Y104.130 E0.01023
G1 X104.768 Y103.864 E0.00653
G1 X104.878 Y103.455 E0.01025
G1 X105.028 Y103.064 E0.01013
G1 X105.220 Y102.687 E0.01023
G1 X105.363 Y102.458 E0.00653
G1 X105.618 Y102.119 E0.01025
G1 X105.904 Y101.813 E0.01013
G1 X106.220 Y101.538 E0.01013
G1 X106.563 Y101.298 E0.01013
G1 X106.933 Y101.093 E0.01023
G1 X107.180 Y100.983 E0.00653
G1 X107.580 Y100.845 E0.01025
G1 X107.989 Y100.751 E0.01013
G1 X108.399 Y100.700 E0.01000
G1 X169.409 Y100.690 E1.47552
G1 X169.633 Y100.717 E0.00545
G1 X169.828 Y100.777 E0.00493
G1 X170.058 Y100.899 E0.00631
G1 X170.217 Y101.028 E0.00494
G1 X170.354 Y101.186 E0.00506
G1 X170.459 Y101.361 E0.00493
G1 X170.548 Y101.606 E0.00631
G1 X170.581 Y101.813 E0.00507
G1 X170.584 Y113.074 E0.27234
G1 X170.535 Y113.218 E0.00368
G1 X170.462 Y113.267 E0.00214
G1 X170.365 Y113.292 E0.00241
G1 X169.884 Y113.277 E0.01163
G1 X169.743 Y113.232 E0.00358
G1 X169.614 Y113.160 E0.00358
G1 X167.481 Y111.044 E0.07267
G1 X170.281 Y111.039 E0.06772
G1 X170.281 Y102.011 E0.21834
G1 X170.210 Y101.676 E0.00827
G1 X170.006 Y101.350 E0.00930
G1 X169.703 Y101.114 E0.00930
G1 X169.348 Y100.998 E0.00903
G1 X163.586 Y100.993 E0.13936
G1 X163.586 Y102.889 E0.04586
G1 X168.086 Y102.889 E0.10883
G1 X168.086 Y103.993 E0.02671
G1 X112.759 Y103.993 E1.33806
G1 X113.078 Y104.381 F7200.000
G1 F1080
G1 X113.062 Y104.999 E0.01494
G1 X113.007 Y105.452 E0.01104
G1 X112.943 Y105.753 E0.00745
G1 X112.808 Y106.194 E0.01115
G1 X112.628 Y106.617 E0.01111
G1 X112.407 Y107.016 E0.01103
G1 X112.235 Y107.271 E0.00745
G1 X111.945 Y107.630 E0.01115
G1 X111.620 Y107.954 E0.01111
G1 X111.265 Y108.241 E0.01103
G1 X111.010 Y108.414 E0.00745
G1 X110.607 Y108.637 E0.01115
G1 X110.184 Y108.817 E0.01111
G1 X109.748 Y108.950 E0.01103
G1 X109.446 Y109.014 E0.00745
G1 X108.989 Y109.070 E0.01115
G1 X108.529 Y109.078 E0.01111
G1 X108.075 Y109.039 E0.01103
G1 X107.772 Y108.985 E0.00745
G1 X107.326 Y108.866 E0.01115
G1 X106.897 Y108.701 E0.01111
G1 X106.488 Y108.492 E0.01111
G1 X106.103 Y108.242 E0.01111
G1 X105.748 Y107.955 E0.01103
G1 X105.526 Y107.741 E0.00745
G1 X105.224 Y107.393 E0.01115
G1 X104.960 Y107.017 E0.01111
G1 X104.738 Y106.615 E0.01111
G1 X104.558 Y106.192 E0.01111
G1 X104.425 Y105.756 E0.01103
G1 X104.360 Y105.455 E0.00745
G1 X104.304 Y104.997 E0.01115
G1 X104.296 Y104.538 E0.01112
G1 X104.336 Y104.079 E0.01113
G1 X104.389 Y103.780 E0.00735
G1 X104.508 Y103.335 E0.01116
G1 X104.673 Y102.906 E0.01111
G1 X104.882 Y102.496 E0.01113
G1 X105.043 Y102.238 E0.00735
G1 X105.321 Y101.869 E0.01116
G1 X105.634 Y101.533 E0.01111
G1 X105.981 Y101.232 E0.01111
G1 X106.357 Y100.968 E0.01111
G1 X106.760 Y100.745 E0.01113
G1 X107.037 Y100.622 E0.00735
G1 X107.473 Y100.471 E0.01116
G1 X107.921 Y100.368 E0.01111
G1 X108.375 Y100.312 E0.01107
G1 X169.433 Y100.302 E1.47667
G1 X169.714 Y100.337 E0.00684
G1 X169.977 Y100.417 E0.00665
G1 X170.273 Y100.575 E0.00811
G1 X170.487 Y100.748 E0.00667
G1 X170.669 Y100.957 E0.00670
G1 X170.811 Y101.193 E0.00666
G1 X170.926 Y101.508 E0.00811
G1 X170.969 Y101.782 E0.00671
G1 X170.971 Y113.121 E0.27423
G1 X170.917 Y113.339 E0.00543
G1 X170.873 Y113.419 E0.00222
G1 X170.797 Y113.509 E0.00284
G1 X170.622 Y113.627 E0.00511
G1 X170.413 Y113.679 E0.00521
G1 X169.990 Y113.680 E0.01024
G1 X169.802 Y113.658 E0.00457
G1 X169.588 Y113.590 E0.00543
G1 X169.392 Y113.480 E0.00543
G1 X169.245 Y113.356 E0.00467
G1 X167.093 Y111.204 E0.07358
G1 X167.093 Y110.651 E0.01337
G1 X169.893 Y110.651 E0.06772
G1 X169.893 Y102.052 E0.20798
G1 X169.845 Y101.824 E0.00563
G1 X169.713 Y101.614 E0.00599
G1 X169.518 Y101.461 E0.00599
G1 X169.286 Y101.386 E0.00590
G1 X163.973 Y101.381 E0.12849
G1 X163.973 Y102.501 E0.02709
G1 X168.473 Y102.501 E0.10883
G1 X168.473 Y104.381 E0.04547
G1 X113.138 Y104.381 E1.33829
G1 X112.678 Y104.379 F7200.000
G1 F5760
G1 X113.062 Y104.999 E-0.21544
G1 F5760
G1 X113.007 Y105.452 E-0.15815
G1 F5760
G1 X112.943 Y105.753 E-0.10671
G1 F5760
G1 X112.808 Y106.194 E-0.15973
G1 F5760
G1 X112.672 Y106.513 E-0.11998
G1 E-0.04000 F2100.00000
G1 X110.582 Y104.592 F7200.000
G1 E0.80000 F2100.00000
G1 F720
G1 X110.582 Y104.780 E0.00456
G1 X110.533 Y105.129 E0.00852
G1 X110.481 Y105.310 E0.00456
G1 X110.407 Y105.495 E0.00481
G1 X110.202 Y105.835 E0.00961
G1 X109.940 Y106.118 E0.00931
G1 X109.653 Y106.326 E0.00857
G1 X109.302 Y106.489 E0.00936
G1 X108.927 Y106.576 E0.00931
G1 X108.573 Y106.589 E0.00857
G1 X108.204 Y106.530 E0.00905
G1 X107.870 Y106.409 E0.00857
G1 X107.539 Y106.210 E0.00936
G1 X107.256 Y105.947 E0.00935
G1 X107.049 Y105.661 E0.00853
G1 X106.886 Y105.310 E0.00936
G1 X106.798 Y104.934 E0.00935
G1 X106.786 Y104.581 E0.00853
G1 X106.845 Y104.209 E0.00911
G1 X106.965 Y103.878 E0.00852
G1 X107.159 Y103.556 E0.00911
G1 X107.395 Y103.294 E0.00852
G1 X107.695 Y103.067 E0.00909
G1 X108.012 Y102.913 E0.00853
G1 X108.386 Y102.813 E0.00936
G1 X108.772 Y102.792 E0.00935
G1 X109.121 Y102.841 E0.00853
G1 X109.487 Y102.968 E0.00936
G1 X109.819 Y103.167 E0.00936
G1 X110.081 Y103.402 E0.00852
G1 X110.307 Y103.703 E0.00909
G1 X110.462 Y104.020 E0.00853
G1 X110.520 Y104.199 E0.00456
G1 X110.576 Y104.532 E0.00816
G1 X110.970 Y104.571 F7200.000
G1 F720
G1 X110.970 Y104.807 E0.00571
G1 X110.913 Y105.210 E0.00983
G1 X110.848 Y105.437 E0.00571
G1 X110.759 Y105.659 E0.00580
G1 X110.646 Y105.870 E0.00580
G1 X110.512 Y106.069 E0.00580
G1 X110.190 Y106.415 E0.01144
G1 X109.859 Y106.656 E0.00989
G1 X109.429 Y106.856 E0.01149
G1 X108.968 Y106.963 E0.01143
G1 X108.560 Y106.977 E0.00989
G1 X108.097 Y106.904 E0.01134
G1 X107.712 Y106.765 E0.00989
G1 X107.305 Y106.520 E0.01149
G1 X106.958 Y106.196 E0.01147
G1 X106.719 Y105.867 E0.00984
G1 X106.518 Y105.437 E0.01149
G1 X106.411 Y104.974 E0.01147
G1 X106.397 Y104.568 E0.00984
G1 X106.471 Y104.102 E0.01140
G1 X106.610 Y103.720 E0.00983
G1 X106.853 Y103.316 E0.01140
G1 X107.125 Y103.014 E0.00983
G1 X107.500 Y102.731 E0.01138
G1 X107.866 Y102.552 E0.00984
G1 X108.091 Y102.479 E0.00571
G1 X108.325 Y102.430 E0.00580
G1 X108.564 Y102.405 E0.00580
G1 X108.799 Y102.405 E0.00569
G1 X109.202 Y102.461 E0.00984
G1 X109.429 Y102.526 E0.00571
G1 X109.651 Y102.616 E0.00580
G1 X110.058 Y102.860 E0.01149
G1 X110.360 Y103.132 E0.00983
G1 X110.644 Y103.508 E0.01138
G1 X110.822 Y103.874 E0.00984
G1 X110.895 Y104.099 E0.00571
G1 X110.964 Y104.512 E0.01013
G1 X110.772 Y104.700 F7200.000
G1 F5760
G1 X110.970 Y104.807 E-0.10243
G1 F5760
G1 X110.913 Y105.210 E-0.14076
G1 F5760
G1 X110.848 Y105.437 E-0.08174
G1 F5760
G1 X110.759 Y105.659 E-0.08301
G1 F5760
G1 X110.646 Y105.870 E-0.08301
G1 F5760
G1 X110.512 Y106.069 E-0.08301
G1 F5760
G1 X110.358 Y106.253 E-0.08302
G1 F5760
G1 X110.190 Y106.415 E-0.08101
G1 F5760
G1 X110.138 Y106.453 E-0.02201
G1 E-0.04000 F2100.00000
G1 X110.020 Y103.810 F7200.000
G1 E0.80000 F2100.00000
G1 F1440
G1 X109.535 Y103.325 E0.01678
G1 X108.677 Y103.021 F7200.000
G1 F1440
G1 X110.345 Y104.689 E0.05764
G1 X110.294 Y105.192 E0.01237
G1 X108.185 Y103.083 E0.07290
G1 X107.791 Y103.243 E0.01040
G1 X110.127 Y105.579 E0.08073
G1 X109.874 Y105.880 E0.00961
G1 X107.493 Y103.499 E0.08230
G1 X107.241 Y103.801 E0.00962
G1 X109.579 Y106.139 E0.08080
G1 X109.185 Y106.300 E0.01039
G1 X107.071 Y104.185 E0.07308
G1 X107.020 Y104.689 E0.01237
G1 X108.691 Y106.360 E0.05776
G1 X107.838 Y106.061 F7200.000
G1 F1440
G1 X107.331 Y105.554 E0.01752
G1 F5760
G1 X107.838 Y106.061 E-0.24826
G1 E-0.55174 F2100.00000
G1 X109.669 Y100.916 F7200.000
G1 E0.80000 F2100.00000
G1 F1440
G1 X110.416 Y101.028 E0.00505
G1 X110.938 Y100.927 F7200.000
G1 F1440
G1 X113.777 Y103.766 E0.09751
G1 X114.328 Y103.766 E0.01338
G1 X111.489 Y100.927 E0.09751
