; generated by Slic3r 1.3.0-dev on 2016-09-11 at 11:33:30

; external perimeters extrusion width = 0.45mm
; perimeters extrusion width = 0.45mm
; infill extrusion width = 0.45mm
; solid infill extrusion width = 0.45mm
; top infill extrusion width = 0.40mm

M107
M83  ; extruder relative mode
M104 S215 ; set extruder temp
M140 S60 ; set bed temp
M190 S60 ; wait for bed temp
M109 S215 ; wait for extruder temp
G28 W ; home all without mesh bed level
G80 ; mesh bed leveling
G1 Y-3.0 F1000.0 ; go outside pritn area
G1 X60.0 E9.0  F1000.0 ; intro line
G1 X100.0 E12.5  F1000.0 ; intro line
G21 ; set units to millimeters
G90 ; use absolute coordinates
M83 ; use relative distances for extrusion
G1 E-0.80000 F2100.00000
G1 Z0.300 F7200.000
G1 X90.590 Y79.457 F7200.000
G1 E0.80000 F2100.00000
M204 S1000
G1 F1800
G1 X91.127 Y78.914 E0.03392
G1 X91.713 Y78.434 E0.03357
G1 X92.216 Y78.094 E0.02694
G1 X92.888 Y77.727 E0.03394
G1 X93.508 Y77.464 E0.02989
G1 X94.238 Y77.236 E0.03393
G1 X94.986 Y77.086 E0.03381
G1 X95.748 Y77.014 E0.03394
G1 X156.750 Y77.008 E2.70575
G1 X157.174 Y77.028 E0.01885
G1 X157.645 Y77.098 E0.02110
G1 X158.039 Y77.196 E0.01801
G1 X158.337 Y77.296 E0.01397
G1 X158.910 Y77.558 E0.02792
G1 X159.440 Y77.898 E0.02792
G1 X159.917 Y78.307 E0.02791
G1 X160.334 Y78.779 E0.02792
G1 X160.516 Y79.036 E0.01396
G1 X160.710 Y79.359 E0.01670
G1 X160.974 Y79.936 E0.02818
G1 X161.152 Y80.535 E0.02770
G1 X161.231 Y81.001 E0.02096
G1 X161.261 Y81.519 E0.02303
G1 X161.261 Y92.719 E0.49677
G1 X161.246 Y93.040 E0.01423
G1 X161.193 Y93.408 E0.01653
G1 X161.033 Y93.964 E0.02565
G1 X160.926 Y94.216 E0.01212
G1 X160.773 Y94.505 E0.01450
G1 X140.736 Y128.202 E1.73890
G1 X140.323 Y128.733 E0.02986
G1 X136.858 Y132.198 E0.21734
G1 X135.587 Y132.914 E0.06472
G1 X134.128 Y132.868 E0.06472
G1 X133.024 Y132.198 E0.05729
G1 X94.840 Y94.014 E2.39516
G1 X90.419 Y88.981 E0.29714
G1 X90.011 Y88.440 E0.03005
G1 X89.695 Y87.933 E0.02651
G1 X89.388 Y87.331 E0.02996
G1 X89.164 Y86.775 E0.02661
G1 X88.967 Y86.131 E0.02986
G1 X88.842 Y85.542 E0.02671
G1 X88.760 Y84.875 E0.02979
G1 X88.739 Y84.272 E0.02677
G1 X88.775 Y83.591 E0.03025
G1 X88.859 Y83.003 E0.02635
G1 X89.012 Y82.339 E0.03019
G1 X89.196 Y81.774 E0.02639
G1 X89.462 Y81.149 E0.03012
G1 X89.742 Y80.622 E0.02646
G1 X90.112 Y80.053 E0.03011
G1 X90.550 Y79.503 E0.03121
G1 X90.858 Y79.691 F7200.000
G1 F1800
G1 X91.369 Y79.174 E0.03227
G1 X91.932 Y78.714 E0.03226
G1 X92.540 Y78.314 E0.03225
G1 X93.181 Y77.983 E0.03204
G1 X93.710 Y77.769 E0.02528
G1 X94.407 Y77.560 E0.03229
G1 X95.123 Y77.426 E0.03229
G1 X95.848 Y77.367 E0.03229
G1 X156.750 Y77.363 E2.70128
G1 X157.143 Y77.382 E0.01747
G1 X157.573 Y77.446 E0.01925
G1 X158.133 Y77.600 E0.02576
G1 X158.664 Y77.831 E0.02571
G1 X159.159 Y78.133 E0.02573
G1 X159.390 Y78.310 E0.01289
G1 X159.666 Y78.559 E0.01647
G1 X160.088 Y79.043 E0.02850
G1 X160.400 Y79.534 E0.02579
G1 X160.642 Y80.063 E0.02582
G1 X160.756 Y80.413 E0.01632
G1 X160.823 Y80.696 E0.01288
G1 X160.887 Y81.125 E0.01927
G1 X160.906 Y81.519 E0.01748
G1 X160.906 Y92.719 E0.49677
G1 X160.892 Y93.008 E0.01285
G1 X160.845 Y93.334 E0.01459
G1 X160.701 Y93.837 E0.02320
G1 X160.468 Y94.323 E0.02392
G1 X140.430 Y128.020 E1.73890
G1 X140.071 Y128.482 E0.02594
G1 X136.607 Y131.947 E0.21734
G1 X135.410 Y132.589 E0.06024
G1 X134.058 Y132.465 E0.06024
G1 X133.275 Y131.947 E0.04163
G1 X95.091 Y93.763 E2.39516
G1 X90.695 Y88.758 E0.29549
G1 X90.303 Y88.237 E0.02891
G1 X90.006 Y87.760 E0.02490
G1 X89.711 Y87.181 E0.02883
G1 X89.500 Y86.659 E0.02499
G1 X89.311 Y86.039 E0.02874
G1 X89.193 Y85.486 E0.02507
G1 X89.114 Y84.844 E0.02868
G1 X89.095 Y84.278 E0.02513
G1 X89.129 Y83.623 E0.02908
G1 X89.208 Y83.071 E0.02476
G1 X89.355 Y82.433 E0.02903
G1 X89.528 Y81.901 E0.02479
G1 X89.784 Y81.300 E0.02897
G1 X90.047 Y80.806 E0.02485
G1 X90.403 Y80.258 E0.02896
G1 X90.818 Y79.737 E0.02957
G1 F5760
G1 X90.909 Y79.634 E-0.04730
G1 F5760
G1 X91.017 Y79.519 E-0.05478
G1 F5760
G1 X91.021 Y79.514 E-0.00207
G1 F5760
G1 X91.022 Y79.513 E-0.00083
G1 F5760
G1 X91.075 Y79.458 E-0.02642
G1 F5760
G1 X91.187 Y79.346 E-0.05478
G1 F5760
G1 X91.191 Y79.343 E-0.00167
G1 F5760
G1 X91.192 Y79.341 E-0.00083
G1 F5760
G1 X91.248 Y79.287 E-0.02680
G1 F5760
G1 X91.364 Y79.179 E-0.05478
G1 F5760
G1 X91.368 Y79.176 E-0.00179
G1 F5760
G1 X91.369 Y79.174 E-0.00083
G1 F5760
G1 X91.427 Y79.123 E-0.02668
G1 F5760
G1 X91.546 Y79.019 E-0.05478
G1 F5760
G1 X91.550 Y79.016 E-0.00173
G1 F5760
G1 X91.552 Y79.014 E-0.00083
G1 F5760
G1 X91.611 Y78.964 E-0.02675
G1 F5760
G1 X91.734 Y78.865 E-0.05478
G1 F5760
G1 X91.737 Y78.862 E-0.00139
G1 F5760
G1 X91.739 Y78.861 E-0.00083
G1 F5760
G1 X91.800 Y78.813 E-0.02708
G1 F5760
G1 X91.927 Y78.718 E-0.05478
G1 F5760
G1 X91.930 Y78.715 E-0.00152
G1 F5760
G1 X91.932 Y78.714 E-0.00083
G1 F5760
G1 X91.995 Y78.668 E-0.02697
G1 F5760
G1 X92.125 Y78.577 E-0.05478
G1 F5760
G1 X92.128 Y78.575 E-0.00123
G1 F5760
G1 X92.130 Y78.574 E-0.00083
G1 F5760
G1 X92.195 Y78.530 E-0.02725
G1 F5760
G1 X92.327 Y78.444 E-0.05478
G1 F5760
G1 X92.331 Y78.442 E-0.00128
G1 F5760
G1 X92.333 Y78.440 E-0.00083
G1 F5760
G1 X92.399 Y78.399 E-0.02720
G1 F5760
G1 X92.498 Y78.339 E-0.03999
G1 E-0.04000 F2100.00000
G1 X137.606 Y126.816 F7200.000
G1 E0.80000 F2100.00000
G1 F1440
G1 X134.941 Y129.481 E0.16716
G1 X97.557 Y92.097 E2.34498
G1 X100.222 Y89.432 E0.16716
G1 X137.563 Y126.774 E2.34232
G1 X138.109 Y126.816 F7200.000
G1 F1080
G1 X134.941 Y129.984 E0.19871
G1 X97.054 Y92.097 E2.37653
G1 X100.222 Y88.929 E0.19871
G1 X138.066 Y126.774 E2.37387
G1 X137.725 Y126.930 F7200.000
G1 X137.254 Y126.892 F7200.000
G1 F1440
G1 X100.146 Y89.784 E2.58888
G1 X99.867 Y90.064 E0.01951
G1 X136.974 Y127.171 E2.58888
G1 X136.694 Y127.451 E0.01951
G1 X99.587 Y90.344 E2.58888
G1 X99.307 Y90.623 E0.01951
G1 X136.415 Y127.731 E2.58888
G1 X136.135 Y128.010 E0.01951
G1 X99.028 Y90.903 E2.58888
G1 X98.748 Y91.183 E0.01951
G1 X135.855 Y128.290 E2.58888
G1 X135.576 Y128.570 E0.01951
G1 X98.468 Y91.462 E2.58888
G1 X98.189 Y91.742 E0.01951
G1 X135.296 Y128.849 E2.58888
G1 X135.016 Y129.129 E0.01951
G1 X97.909 Y92.022 E2.58888
G1 F5760
G1 X99.461 Y93.573 E-0.76000
G1 E-0.04000 F2100.00000
G1 X98.686 Y86.868 F7200.000
G1 E0.80000 F2100.00000
G1 F720
G1 X98.213 Y87.280 E0.02781
G1 X97.883 Y87.494 E0.01748
G1 X97.541 Y87.669 E0.01702
G1 X97.183 Y87.806 E0.01701
G1 X96.810 Y87.906 E0.01712
G1 X96.188 Y87.983 E0.02781
G1 X95.794 Y87.976 E0.01748
G1 X95.413 Y87.930 E0.01702
G1 X95.039 Y87.843 E0.01701
G1 X94.674 Y87.718 E0.01712
G1 X94.115 Y87.434 E0.02781
G1 X93.793 Y87.208 E0.01748
G1 X93.503 Y86.956 E0.01702
G1 X93.241 Y86.676 E0.01702
G1 X93.004 Y86.361 E0.01746
G1 X92.704 Y85.819 E0.02747
G1 X92.563 Y85.452 E0.01746
G1 X92.461 Y85.072 E0.01746
G1 X92.384 Y84.447 E0.02792
G1 X92.417 Y83.818 E0.02792
G1 X92.493 Y83.432 E0.01746
G1 X92.605 Y83.065 E0.01702
G1 X92.755 Y82.712 E0.01702
G1 X92.941 Y82.376 E0.01702
G1 X93.161 Y82.062 E0.01702
G1 X93.413 Y81.772 E0.01702
G1 X93.693 Y81.510 E0.01702
G1 X94.008 Y81.273 E0.01746
G1 X94.549 Y80.973 E0.02748
G1 X94.917 Y80.832 E0.01746
G1 X95.297 Y80.730 E0.01747
G1 X95.914 Y80.655 E0.02755
G1 X96.306 Y80.662 E0.01739
G1 X96.687 Y80.708 E0.01702
G1 X97.061 Y80.795 E0.01702
G1 X97.423 Y80.920 E0.01702
G1 X97.771 Y81.082 E0.01702
G1 X98.109 Y81.285 E0.01746
G1 X98.590 Y81.674 E0.02748
G1 X98.859 Y81.962 E0.01746
G1 X99.096 Y82.277 E0.01746
G1 X99.396 Y82.819 E0.02748
G1 X99.537 Y83.186 E0.01746
G1 X99.639 Y83.566 E0.01746
G1 X99.714 Y84.182 E0.02750
G1 X99.707 Y84.575 E0.01745
G1 X99.661 Y84.958 E0.01712
G1 X99.499 Y85.564 E0.02781
G1 X99.345 Y85.927 E0.01748
G1 X99.159 Y86.262 E0.01702
G1 X98.939 Y86.576 E0.01701
G1 X98.725 Y86.823 E0.01446
G1 X98.434 Y86.616 F7200.000
G1 F720
G1 X97.999 Y86.995 E0.02560
G1 X97.705 Y87.186 E0.01554
G1 X97.396 Y87.343 E0.01537
G1 X97.073 Y87.467 E0.01536
G1 X96.742 Y87.556 E0.01520
G1 X96.169 Y87.627 E0.02560
G1 X95.819 Y87.621 E0.01554
G1 X95.475 Y87.579 E0.01537
G1 X95.137 Y87.501 E0.01536
G1 X94.813 Y87.390 E0.01520
G1 X94.299 Y87.128 E0.02560
G1 X94.012 Y86.927 E0.01554
G1 X93.750 Y86.700 E0.01537
G1 X93.514 Y86.447 E0.01537
G1 X93.303 Y86.167 E0.01553
G1 X93.027 Y85.669 E0.02527
G1 X92.902 Y85.342 E0.01553
G1 X92.811 Y85.004 E0.01553
G1 X92.741 Y84.435 E0.02543
G1 X92.771 Y83.862 E0.02543
G1 X92.838 Y83.518 E0.01553
G1 X92.939 Y83.187 E0.01537
G1 X93.075 Y82.868 E0.01537
G1 X93.243 Y82.565 E0.01537
G1 X93.441 Y82.281 E0.01537
G1 X93.669 Y82.020 E0.01537
G1 X93.922 Y81.783 E0.01537
G1 X94.202 Y81.572 E0.01553
G1 X94.700 Y81.296 E0.02527
G1 X95.027 Y81.171 E0.01553
G1 X95.365 Y81.080 E0.01553
G1 X95.932 Y81.011 E0.02534
G1 X96.281 Y81.017 E0.01546
G1 X96.625 Y81.059 E0.01537
G1 X96.962 Y81.137 E0.01537
G1 X97.290 Y81.250 E0.01537
G1 X97.604 Y81.396 E0.01537
G1 X97.904 Y81.577 E0.01553
G1 X98.347 Y81.935 E0.02527
G1 X98.586 Y82.191 E0.01553
G1 X98.797 Y82.471 E0.01553
G1 X99.073 Y82.969 E0.02527
G1 X99.198 Y83.296 E0.01553
G1 X99.289 Y83.634 E0.01553
G1 X99.358 Y84.200 E0.02530
G1 X99.352 Y84.550 E0.01553
G1 X99.311 Y84.891 E0.01520
G1 X99.162 Y85.448 E0.02560
G1 X99.025 Y85.771 E0.01554
G1 X98.857 Y86.074 E0.01537
G1 X98.658 Y86.357 E0.01536
G1 X98.473 Y86.571 E0.01254
G1 X98.535 Y87.003 F7200.000
G1 F5760
G1 X97.999 Y86.995 E-0.22049
G1 F5760
G1 X97.705 Y87.186 E-0.12133
G1 F5760
G1 X97.396 Y87.343 E-0.12000
G1 F5760
G1 X97.073 Y87.467 E-0.11997
G1 F5760
G1 X96.742 Y87.556 E-0.11868
G1 F5760
G1 X96.571 Y87.577 E-0.05953
G1 E-0.04000 F2100.00000
G1 X100.098 Y83.653 F7200.000
G1 E0.80000 F2100.00000
G1 F1440
G1 X100.074 Y84.602 E0.04210
G1 X100.023 Y85.018 E0.01856
G1 X99.964 Y85.294 E0.01252
G1 X99.839 Y85.702 E0.01892
G1 X99.674 Y86.090 E0.01873
G1 X99.472 Y86.455 E0.01847
G1 X99.314 Y86.689 E0.01252
G1 X99.046 Y87.020 E0.01892
G1 X98.747 Y87.319 E0.01873
G1 X98.423 Y87.581 E0.01848
G1 X98.189 Y87.739 E0.01252
G1 X97.816 Y87.945 E0.01892
G1 X97.427 Y88.110 E0.01873
G1 X97.029 Y88.232 E0.01848
G1 X96.753 Y88.291 E0.01252
G1 X96.330 Y88.343 E0.01892
G1 X95.907 Y88.350 E0.01873
G1 X95.492 Y88.314 E0.01848
G1 X95.214 Y88.265 E0.01252
G1 X94.802 Y88.155 E0.01892
G1 X94.408 Y88.003 E0.01872
G1 X94.032 Y87.812 E0.01872
G1 X93.678 Y87.582 E0.01873
G1 X93.354 Y87.320 E0.01848
G1 X93.151 Y87.124 E0.01252
G1 X92.871 Y86.802 E0.01892
G1 X92.629 Y86.456 E0.01872
G1 X92.424 Y86.087 E0.01872
G1 X92.259 Y85.698 E0.01873
G1 X92.137 Y85.300 E0.01848
G1 X92.078 Y85.024 E0.01252
G1 X92.026 Y84.600 E0.01892
G1 X92.019 Y84.178 E0.01874
G1 X92.056 Y83.755 E0.01884
G1 X92.103 Y83.485 E0.01215
G1 X92.214 Y83.072 E0.01894
G1 X92.365 Y82.678 E0.01873
G1 X92.557 Y82.302 E0.01873
G1 X92.787 Y81.948 E0.01873
G1 X93.054 Y81.618 E0.01884
G1 X93.244 Y81.421 E0.01215
G1 X93.567 Y81.140 E0.01894
G1 X93.913 Y80.898 E0.01873
G1 X94.282 Y80.694 E0.01873
G1 X94.671 Y80.529 E0.01873
G1 X95.077 Y80.404 E0.01884
G1 X95.345 Y80.347 E0.01215
G1 X95.764 Y80.296 E0.01872
G1 X156.777 Y80.286 E2.70625
G1 X157.006 Y80.314 E0.01023
G1 X157.207 Y80.375 E0.00930
G1 X157.443 Y80.501 E0.01186
G1 X157.606 Y80.633 E0.00931
G1 X157.747 Y80.795 E0.00953
G1 X157.858 Y80.979 E0.00953
G1 X157.933 Y81.175 E0.00931
G1 X157.980 Y81.443 E0.01208
G1 X157.982 Y92.705 E0.49954
G1 X157.950 Y92.835 E0.00594
G1 X157.924 Y92.870 E0.00193
G1 X157.842 Y92.925 E0.00439
G1 X157.736 Y92.952 E0.00485
G1 X157.244 Y92.937 E0.02180
G1 X157.097 Y92.890 E0.00685
G1 X156.962 Y92.814 E0.00685
G1 X154.816 Y90.685 E0.13412
G1 X154.816 Y90.635 E0.00222
G1 X157.616 Y90.635 E0.12419
G1 X157.615 Y81.642 E0.39886
G1 X157.546 Y81.316 E0.01476
G1 X157.348 Y81.000 E0.01655
G1 X157.054 Y80.770 E0.01655
G1 X156.709 Y80.658 E0.01609
G1 X150.984 Y80.653 E0.25393
G1 X150.984 Y82.485 E0.08125
G1 X155.484 Y82.485 E0.19960
G1 X155.484 Y83.653 E0.05184
G1 X100.158 Y83.653 E2.45401
G1 X100.444 Y84.009 F7200.000
G1 F1080
G1 X100.429 Y84.628 E0.02748
G1 X100.374 Y85.076 E0.02001
G1 X100.309 Y85.383 E0.01390
G1 X100.174 Y85.824 E0.02045
G1 X99.994 Y86.246 E0.02038
G1 X99.776 Y86.640 E0.01998
G1 X99.601 Y86.900 E0.01390
G1 X99.310 Y87.259 E0.02045
G1 X98.985 Y87.583 E0.02038
G1 X98.635 Y87.867 E0.01998
G1 X98.375 Y88.042 E0.01390
G1 X97.972 Y88.266 E0.02045
G1 X97.549 Y88.445 E0.02038
G1 X97.118 Y88.577 E0.01998
G1 X96.812 Y88.642 E0.01390
G1 X96.354 Y88.698 E0.02045
G1 X95.895 Y88.706 E0.02038
G1 X95.446 Y88.667 E0.01998
G1 X95.137 Y88.613 E0.01390
G1 X94.692 Y88.493 E0.02045
G1 X94.263 Y88.329 E0.02037
G1 X93.854 Y88.120 E0.02037
G1 X93.469 Y87.870 E0.02038
G1 X93.119 Y87.586 E0.01998
G1 X92.893 Y87.369 E0.01390
G1 X92.590 Y87.021 E0.02045
G1 X92.327 Y86.645 E0.02037
G1 X92.104 Y86.243 E0.02037
G1 X91.925 Y85.820 E0.02038
G1 X91.793 Y85.389 E0.01998
G1 X91.727 Y85.083 E0.01390
G1 X91.671 Y84.625 E0.02045
G1 X91.663 Y84.166 E0.02039
G1 X91.703 Y83.708 E0.02036
G1 X91.756 Y83.408 E0.01353
G1 X91.875 Y82.962 E0.02046
G1 X92.040 Y82.533 E0.02038
G1 X92.248 Y82.124 E0.02038
G1 X92.499 Y81.739 E0.02038
G1 X92.788 Y81.382 E0.02036
G1 X92.999 Y81.162 E0.01353
G1 X93.348 Y80.860 E0.02046
G1 X93.724 Y80.596 E0.02038
G1 X94.126 Y80.374 E0.02038
G1 X94.549 Y80.194 E0.02038
G1 X94.988 Y80.060 E0.02036
G1 X95.286 Y79.996 E0.01353
G1 X95.742 Y79.940 E0.02038
G1 X156.799 Y79.930 E2.70818
G1 X157.080 Y79.965 E0.01257
G1 X157.344 Y80.045 E0.01220
G1 X157.640 Y80.203 E0.01490
G1 X157.854 Y80.376 E0.01220
G1 X158.036 Y80.585 E0.01229
G1 X158.178 Y80.822 E0.01229
G1 X158.277 Y81.079 E0.01220
G1 X158.336 Y81.412 E0.01498
G1 X158.338 Y92.749 E0.50286
G1 X158.284 Y92.967 E0.00995
G1 X158.239 Y93.047 E0.00406
G1 X158.164 Y93.137 E0.00520
G1 X157.989 Y93.255 E0.00939
G1 X157.780 Y93.307 E0.00955
G1 X157.356 Y93.308 E0.01878
G1 X157.169 Y93.286 E0.00839
G1 X156.955 Y93.218 E0.00996
G1 X156.759 Y93.108 E0.00996
G1 X156.611 Y92.983 E0.00856
G1 X154.460 Y90.832 E0.13495
G1 X154.460 Y90.279 E0.02453
G1 X157.260 Y90.279 E0.12419
G1 X157.260 Y81.679 E0.38143
G1 X157.211 Y81.452 E0.01033
G1 X157.080 Y81.242 E0.01098
G1 X156.885 Y81.089 E0.01099
G1 X156.653 Y81.014 E0.01082
G1 X151.340 Y81.009 E0.23566
G1 X151.340 Y82.129 E0.04969
G1 X155.840 Y82.129 E0.19960
G1 X155.840 Y84.009 E0.08339
G1 X100.504 Y84.009 E2.45440
G1 X100.044 Y84.007 F7200.000
G1 F5760
G1 X100.429 Y84.628 E-0.21613
G1 F5760
G1 X100.374 Y85.076 E-0.15626
G1 F5760
G1 X100.309 Y85.383 E-0.10856
G1 F5760
G1 X100.174 Y85.824 E-0.15968
G1 F5760
G1 X100.039 Y86.141 E-0.11938
G1 E-0.04000 F2100.00000
G1 X97.981 Y84.218 F7200.000
G1 E0.80000 F2100.00000
G1 F720
G1 X97.981 Y84.420 E0.00898
G1 X97.920 Y84.809 E0.01744
G1 X97.798 Y85.145 E0.01588
G1 X97.594 Y85.483 E0.01749
G1 X97.329 Y85.769 E0.01732
G1 X97.036 Y85.982 E0.01603
G1 X96.679 Y86.147 E0.01747
G1 X96.300 Y86.236 E0.01729
G1 X95.938 Y86.249 E0.01603
G1 X95.563 Y86.190 E0.01684
G1 X95.224 Y86.067 E0.01603
G1 X94.886 Y85.863 E0.01747
G1 X94.598 Y85.596 E0.01744
G1 X94.388 Y85.306 E0.01588
G1 X94.222 Y84.949 E0.01749
G1 X94.133 Y84.566 E0.01744
G1 X94.120 Y84.218 E0.01544
G1 X94.169 Y83.875 E0.01538
G1 X94.298 Y83.502 E0.01749
G1 X94.500 Y83.165 E0.01744
G1 X94.732 Y82.906 E0.01544
G1 X95.005 Y82.692 E0.01538
G1 X95.357 Y82.514 E0.01749
G1 X95.748 Y82.409 E0.01793
G1 X96.140 Y82.388 E0.01744
G1 X96.495 Y82.438 E0.01588
G1 X96.867 Y82.567 E0.01749
G1 X97.205 Y82.769 E0.01749
G1 X97.471 Y83.008 E0.01582
G1 X97.701 Y83.314 E0.01700
G1 X97.858 Y83.636 E0.01588
G1 X97.918 Y83.819 E0.00853
G1 X97.975 Y84.158 E0.01527
G1 X98.337 Y84.199 F7200.000
G1 F720
G1 X98.337 Y84.439 E0.01063
G1 X98.263 Y84.907 E0.02101
G1 X98.123 Y85.290 E0.01808
G1 X97.879 Y85.697 E0.02107
G1 X97.558 Y86.042 E0.02089
G1 X97.225 Y86.284 E0.01824
G1 X96.795 Y86.484 E0.02106
G1 X96.337 Y86.590 E0.02085
G1 X95.926 Y86.605 E0.01824
G1 X95.465 Y86.533 E0.02068
G1 X95.079 Y86.392 E0.01824
G1 X94.672 Y86.148 E0.02106
G1 X94.325 Y85.825 E0.02101
G1 X94.086 Y85.495 E0.01808
G1 X93.885 Y85.064 E0.02107
G1 X93.778 Y84.603 E0.02101
G1 X93.764 Y84.199 E0.01792
G1 X93.820 Y83.800 E0.01786
G1 X93.975 Y83.351 E0.02107
G1 X94.219 Y82.945 E0.02101
G1 X94.489 Y82.645 E0.01792
G1 X94.806 Y82.397 E0.01786
G1 X95.010 Y82.279 E0.01047
G1 X95.229 Y82.181 E0.01063
