; generated by Slic3r 1.3.0-dev on 2016-09-13 at 07:59:49

; external perimeters extrusion width = 0.45mm
; perimeters extrusion width = 0.45mm
; infill extrusion width = 0.45mm
; solid infill extrusion width = 0.45mm
; top infill extrusion width = 0.45mm

M107
M83  ; extruder relative mode
M104 S210 ; set extruder temp
M140 S55 ; set bed temp
M190 S55 ; wait for bed temp
M109 S210 ; wait for extruder temp
G28 W ; home all without mesh bed level
G80 ; mesh bed leveling
G1 Y-3.0 F1000.0 ; go outside pritn area
G1 X60.0 E9.0  F1000.0 ; intro line
G1 X100.0 E12.5  F1000.0 ; intro line
G21 ; set units to millimeters
G90 ; use absolute coordinates
M83 ; use relative distances for extrusion
G1 E-0.80000 F2100.00000
G1 Z0.150 F7200.000
G1 X114.449 Y96.065 F7200.000
G1 E0.80000 F2100.00000
M204 S1000
G1 F1800
G1 X114.884 Y95.576 E0.01584
G1 X115.500 Y94.955 E0.02114
G1 X115.871 Y94.615 E0.01217
G1 X116.339 Y94.252 E0.01434
G1 X119.811 Y92.240 E0.09704
G1 X120.562 Y91.906 E0.01988
G1 X121.542 Y91.614 E0.02474
G1 X122.362 Y91.429 E0.02032
G1 X122.897 Y91.335 E0.01314
G1 X123.909 Y91.217 E0.02465
G1 X125.073 Y91.174 E0.02815
G1 X125.946 Y91.207 E0.02114
G1 X126.598 Y91.267 E0.01584
G1 X127.103 Y91.335 E0.01233
G1 X127.962 Y91.495 E0.02114
G1 X128.598 Y91.651 E0.01584
G1 X129.429 Y91.902 E0.02099
G1 X129.979 Y92.126 E0.01437
G1 X130.195 Y92.242 E0.00592
G1 X133.456 Y94.126 E0.09110
G1 X134.121 Y94.609 E0.01988
G1 X134.500 Y94.955 E0.01241
G1 X135.093 Y95.551 E0.02032
G1 X135.783 Y96.346 E0.02546
G1 X136.472 Y97.284 E0.02816
G1 X136.937 Y98.024 E0.02114
G1 X137.186 Y98.469 E0.01233
G1 X137.692 Y99.517 E0.02815
G1 X137.886 Y99.989 E0.01233
G1 X138.177 Y100.813 E0.02114
G1 X138.477 Y101.913 E0.02757
G1 X138.558 Y102.286 E0.00925
G1 X138.639 Y102.879 E0.01446
G1 X138.645 Y106.886 E0.09692
G1 X138.559 Y107.704 E0.01988
G1 X138.322 Y108.699 E0.02474
G1 X138.072 Y109.501 E0.02032
G1 X137.886 Y110.011 E0.01314
G1 X137.634 Y110.616 E0.01584
G1 X137.254 Y111.403 E0.02114
G1 X136.937 Y111.976 E0.01584
G1 X136.472 Y112.716 E0.02114
G1 X136.094 Y113.250 E0.01584
G1 X135.551 Y113.935 E0.02114
G1 X135.116 Y114.424 E0.01584
G1 X134.500 Y115.045 E0.02114
G1 X134.129 Y115.385 E0.01217
G1 X133.657 Y115.751 E0.01444
G1 X130.189 Y117.760 E0.09694
G1 X129.438 Y118.094 E0.01988
G1 X128.458 Y118.386 E0.02473
G1 X127.962 Y118.505 E0.01233
G1 X127.103 Y118.665 E0.02114
G1 X126.091 Y118.783 E0.02465
G1 X125.437 Y118.819 E0.01583
G1 X124.597 Y118.820 E0.02032
G1 X124.054 Y118.793 E0.01314
G1 X123.402 Y118.733 E0.01583
G1 X122.571 Y118.610 E0.02032
G1 X122.038 Y118.505 E0.01314
G1 X121.402 Y118.349 E0.01584
G1 X120.571 Y118.098 E0.02099
G1 X120.020 Y117.874 E0.01439
G1 X119.805 Y117.758 E0.00590
G1 X116.544 Y115.874 E0.09110
G1 X115.879 Y115.391 E0.01988
G1 X115.238 Y114.791 E0.02123
G1 X114.884 Y114.424 E0.01233
G1 X114.217 Y113.654 E0.02465
G1 X113.528 Y112.716 E0.02815
G1 X113.251 Y112.288 E0.01233
G1 X112.814 Y111.531 E0.02114
G1 X112.308 Y110.483 E0.02816
G1 X111.987 Y109.670 E0.02114
G1 X111.823 Y109.187 E0.01233
G1 X111.523 Y108.087 E0.02757
G1 X111.442 Y107.714 E0.00925
G1 X111.361 Y107.126 E0.01436
G1 X111.355 Y103.114 E0.09703
G1 X111.441 Y102.296 E0.01988
G1 X111.678 Y101.301 E0.02474
G1 X111.938 Y100.467 E0.02114
G1 X112.168 Y99.854 E0.01584
G1 X112.504 Y99.084 E0.02032
G1 X112.746 Y98.597 E0.01314
G1 X113.063 Y98.024 E0.01583
G1 X113.528 Y97.284 E0.02114
G1 X113.906 Y96.750 E0.01583
G1 X114.411 Y96.111 E0.01969
G1 X114.748 Y96.312 F7200.000
G1 F1800
G1 X115.164 Y95.844 E0.01514
G1 X115.770 Y95.233 E0.02079
G1 X116.131 Y94.903 E0.01185
G1 X116.554 Y94.575 E0.01293
G1 X120.005 Y92.576 E0.09646
G1 X120.682 Y92.274 E0.01792
G1 X121.634 Y91.990 E0.02404
G1 X122.440 Y91.808 E0.01998
G1 X122.961 Y91.718 E0.01279
G1 X123.945 Y91.603 E0.02396
G1 X125.065 Y91.562 E0.02712
G1 X125.925 Y91.594 E0.02079
G1 X126.548 Y91.651 E0.01514
G1 X127.039 Y91.718 E0.01198
G1 X127.884 Y91.875 E0.02079
G1 X128.492 Y92.024 E0.01514
G1 X129.310 Y92.271 E0.02066
G1 X129.806 Y92.473 E0.01295
G1 X130.001 Y92.578 E0.00534
G1 X133.262 Y94.462 E0.09110
G1 X133.862 Y94.897 E0.01792
G1 X134.230 Y95.233 E0.01206
G1 X134.812 Y95.819 E0.01998
G1 X135.483 Y96.593 E0.02477
G1 X136.148 Y97.496 E0.02712
G1 X136.605 Y98.224 E0.02079
G1 X136.847 Y98.657 E0.01198
G1 X137.334 Y99.666 E0.02712
G1 X137.522 Y100.125 E0.01198
G1 X137.809 Y100.935 E0.02079
G1 X138.098 Y101.996 E0.02659
G1 X138.179 Y102.368 E0.00921
G1 X138.252 Y102.902 E0.01304
G1 X138.257 Y106.886 E0.09635
G1 X138.180 Y107.623 E0.01792
G1 X137.950 Y108.590 E0.02404
G1 X137.704 Y109.379 E0.01998
G1 X137.522 Y109.875 E0.01279
G1 X137.282 Y110.453 E0.01514
G1 X136.908 Y111.228 E0.02079
G1 X136.605 Y111.776 E0.01514
G1 X136.148 Y112.504 E0.02079
G1 X135.786 Y113.015 E0.01514
G1 X135.252 Y113.688 E0.02079
G1 X134.836 Y114.156 E0.01515
G1 X134.230 Y114.767 E0.02079
G1 X133.869 Y115.097 E0.01185
G1 X133.443 Y115.427 E0.01302
G1 X129.995 Y117.424 E0.09637
G1 X129.318 Y117.726 E0.01792
G1 X128.366 Y118.010 E0.02403
G1 X127.884 Y118.125 E0.01198
G1 X127.039 Y118.282 E0.02079
G1 X126.055 Y118.397 E0.02396
G1 X125.430 Y118.431 E0.01514
G1 X124.604 Y118.432 E0.01997
G1 X124.075 Y118.406 E0.01280
G1 X123.452 Y118.349 E0.01514
G1 X122.635 Y118.228 E0.01998
G1 X122.116 Y118.125 E0.01279
G1 X121.508 Y117.976 E0.01514
G1 X120.690 Y117.729 E0.02066
G1 X120.193 Y117.527 E0.01297
G1 X119.999 Y117.422 E0.00532
G1 X116.738 Y115.538 E0.09110
G1 X116.138 Y115.103 E0.01792
G1 X115.508 Y114.513 E0.02087
G1 X115.164 Y114.156 E0.01198
G1 X114.517 Y113.407 E0.02396
G1 X113.852 Y112.504 E0.02712
G1 X113.583 Y112.088 E0.01198
G1 X113.153 Y111.343 E0.02079
G1 X112.666 Y110.334 E0.02712
G1 X112.350 Y109.534 E0.02079
G1 X112.191 Y109.065 E0.01198
G1 X111.902 Y108.004 E0.02659
G1 X111.821 Y107.632 E0.00921
G1 X111.748 Y107.102 E0.01294
G1 X111.743 Y103.114 E0.09645
G1 X111.820 Y102.377 E0.01792
G1 X112.050 Y101.410 E0.02404
G1 X112.191 Y100.935 E0.01198
G1 X112.478 Y100.125 E0.02079
G1 X112.718 Y99.547 E0.01514
G1 X113.092 Y98.772 E0.02079
G1 X113.395 Y98.224 E0.01514
G1 X113.852 Y97.496 E0.02079
G1 X114.214 Y96.985 E0.01514
G1 X114.710 Y96.358 E0.01934
G1 X115.048 Y96.558 F7200.000
G1 F1800
G1 X115.445 Y96.112 E0.01445
G1 X116.040 Y95.512 E0.02045
G1 X116.392 Y95.190 E0.01152
G1 X116.768 Y94.898 E0.01152
G1 X120.199 Y92.912 E0.09588
G1 X120.802 Y92.643 E0.01596
G1 X121.613 Y92.397 E0.02052
G1 X122.080 Y92.281 E0.01163
G1 X123.025 Y92.100 E0.02326
G1 X123.981 Y91.990 E0.02327
G1 X125.058 Y91.950 E0.02608
G1 X125.903 Y91.981 E0.02045
G1 X126.498 Y92.036 E0.01445
G1 X126.975 Y92.100 E0.01163
G1 X127.806 Y92.255 E0.02045
G1 X128.387 Y92.397 E0.01445
G1 X129.191 Y92.640 E0.02033
G1 X129.633 Y92.820 E0.01154
G1 X129.807 Y92.913 E0.00477
G1 X133.068 Y94.798 E0.09110
G1 X133.602 Y95.186 E0.01596
G1 X134.221 Y95.766 E0.02052
G1 X134.555 Y96.112 E0.01163
G1 X135.184 Y96.840 E0.02326
G1 X135.823 Y97.708 E0.02608
G1 X136.273 Y98.424 E0.02044
G1 X136.507 Y98.844 E0.01164
G1 X136.929 Y99.709 E0.02326
G1 X137.326 Y100.712 E0.02608
G1 X137.577 Y101.519 E0.02045
G1 X137.697 Y101.985 E0.01163
G1 X137.800 Y102.450 E0.01152
G1 X137.865 Y102.926 E0.01161
G1 X137.870 Y106.886 E0.09578
G1 X137.801 Y107.543 E0.01596
G1 X137.577 Y108.481 E0.02334
G1 X137.336 Y109.256 E0.01963
G1 X137.159 Y109.740 E0.01245
G1 X136.929 Y110.291 E0.01445
G1 X136.562 Y111.053 E0.02045
G1 X136.273 Y111.576 E0.01445
G1 X135.823 Y112.292 E0.02045
G1 X135.478 Y112.779 E0.01445
G1 X134.952 Y113.442 E0.02044
G1 X134.555 Y113.888 E0.01445
G1 X133.960 Y114.488 E0.02045
G1 X133.608 Y114.810 E0.01152
G1 X133.229 Y115.104 E0.01160
G1 X129.801 Y117.088 E0.09580
G1 X129.198 Y117.357 E0.01596
G1 X128.387 Y117.603 E0.02052
G1 X127.920 Y117.719 E0.01163
G1 X126.975 Y117.900 E0.02326
G1 X126.019 Y118.010 E0.02327
G1 X125.423 Y118.043 E0.01445
G1 X124.611 Y118.044 E0.01963
G1 X123.502 Y117.964 E0.02690
G1 X123.025 Y117.900 E0.01163
G1 X122.194 Y117.745 E0.02045
G1 X121.613 Y117.603 E0.01445
G1 X120.809 Y117.360 E0.02033
G1 X120.366 Y117.180 E0.01156
G1 X120.193 Y117.087 E0.00475
G1 X116.932 Y115.202 E0.09110
G1 X116.398 Y114.814 E0.01596
G1 X115.779 Y114.234 E0.02052
G1 X115.445 Y113.888 E0.01163
G1 X114.816 Y113.160 E0.02327
G1 X114.177 Y112.292 E0.02608
G1 X113.915 Y111.888 E0.01163
G1 X113.493 Y111.156 E0.02045
G1 X113.071 Y110.291 E0.02326
G1 X112.674 Y109.288 E0.02608
G1 X112.525 Y108.831 E0.01163
G1 X112.303 Y108.015 E0.02045
G1 X112.200 Y107.550 E0.01152
G1 X112.135 Y107.078 E0.01153
G1 X112.130 Y103.114 E0.09587
G1 X112.199 Y102.457 E0.01596
G1 X112.423 Y101.519 E0.02334
G1 X112.559 Y101.058 E0.01163
G1 X112.841 Y100.260 E0.02045
G1 X113.071 Y99.709 E0.01445
G1 X113.438 Y98.947 E0.02045
G1 X113.727 Y98.424 E0.01445
G1 X114.177 Y97.708 E0.02045
G1 X114.522 Y97.221 E0.01445
G1 X115.009 Y96.605 E0.01899
G1 X115.347 Y96.805 F7200.000
G1 F1800
G1 X115.725 Y96.380 E0.01376
G1 X116.310 Y95.790 E0.02010
G1 X116.652 Y95.478 E0.01120
G1 X116.982 Y95.221 E0.01011
G1 X120.392 Y93.247 E0.09530
G1 X120.922 Y93.012 E0.01401
G1 X121.719 Y92.770 E0.02016
G1 X122.172 Y92.657 E0.01129
G1 X123.089 Y92.483 E0.02257
G1 X124.016 Y92.376 E0.02257
G1 X125.051 Y92.338 E0.02504
G1 X125.882 Y92.368 E0.02010
G1 X126.448 Y92.421 E0.01376
G1 X126.911 Y92.483 E0.01129
G1 X127.728 Y92.635 E0.02010
G1 X128.281 Y92.770 E0.01376
G1 X129.073 Y93.009 E0.02001
G1 X129.460 Y93.167 E0.01012
G1 X129.613 Y93.249 E0.00419
G1 X132.874 Y95.133 E0.09110
G1 X133.343 Y95.474 E0.01401
G1 X133.951 Y96.044 E0.02016
G1 X134.275 Y96.380 E0.01129
G1 X134.885 Y97.086 E0.02257
G1 X135.441 Y97.836 E0.02257
G1 X135.992 Y98.713 E0.02505
G1 X136.365 Y99.418 E0.01928
G1 X136.577 Y99.871 E0.01210
G1 X136.958 Y100.834 E0.02505
G1 X137.205 Y101.627 E0.02010
G1 X137.321 Y102.080 E0.01129
G1 X137.420 Y102.532 E0.01120
G1 X137.478 Y102.949 E0.01019
G1 X137.482 Y106.886 E0.09521
G1 X137.421 Y107.462 E0.01401
G1 X137.205 Y108.373 E0.02264
G1 X136.968 Y109.134 E0.01928
G1 X136.796 Y109.604 E0.01210
G1 X136.577 Y110.129 E0.01376
G1 X136.216 Y110.878 E0.02010
G1 X135.940 Y111.375 E0.01376
G1 X135.499 Y112.079 E0.02010
G1 X135.170 Y112.544 E0.01376
G1 X134.653 Y113.195 E0.02010
G1 X134.275 Y113.620 E0.01376
G1 X133.690 Y114.210 E0.02010
G1 X133.348 Y114.522 E0.01119
G1 X133.015 Y114.780 E0.01018
G1 X129.608 Y116.753 E0.09523
G1 X129.078 Y116.988 E0.01401
G1 X128.281 Y117.230 E0.02016
G1 X127.828 Y117.343 E0.01129
G1 X126.911 Y117.517 E0.02257
G1 X125.984 Y117.624 E0.02258
G1 X125.416 Y117.656 E0.01376
G1 X124.618 Y117.656 E0.01928
G1 X123.552 Y117.579 E0.02586
G1 X122.763 Y117.463 E0.01928
G1 X122.272 Y117.365 E0.01210
G1 X121.719 Y117.230 E0.01376
G1 X120.927 Y116.991 E0.02001
G1 X120.539 Y116.832 E0.01014
G1 X120.387 Y116.751 E0.00417
G1 X117.126 Y114.867 E0.09110
G1 X116.657 Y114.526 E0.01401
G1 X116.049 Y113.956 E0.02016
G1 X115.725 Y113.620 E0.01129
G1 X115.115 Y112.914 E0.02257
G1 X114.559 Y112.164 E0.02257
G1 X114.008 Y111.287 E0.02505
G1 X113.784 Y110.878 E0.01129
G1 X113.423 Y110.129 E0.02010
G1 X113.042 Y109.166 E0.02505
G1 X112.795 Y108.373 E0.02010
G1 X112.679 Y107.920 E0.01129
G1 X112.580 Y107.468 E0.01120
G1 X112.522 Y107.054 E0.01012
G1 X112.518 Y103.114 E0.09529
G1 X112.579 Y102.538 E0.01401
G1 X112.795 Y101.627 E0.02264
G1 X113.042 Y100.834 E0.02010
G1 X113.242 Y100.301 E0.01376
G1 X113.561 Y99.570 E0.01929
G1 X113.784 Y99.122 E0.01210
G1 X114.060 Y98.624 E0.01376
G1 X114.501 Y97.921 E0.02010
G1 X114.830 Y97.456 E0.01376
G1 X115.309 Y96.851 E0.01865
G1 X115.646 Y97.052 F7200.000
G1 F1800
G1 X116.319 Y96.322 E0.02401
G1 X116.912 Y95.765 E0.01968
G1 X117.196 Y95.545 E0.00870
G1 X120.586 Y93.583 E0.09472
G1 X121.041 Y93.381 E0.01205
G1 X121.825 Y93.143 E0.01981
G1 X122.264 Y93.034 E0.01094
G1 X123.153 Y92.865 E0.02188
G1 X124.052 Y92.762 E0.02188
G1 X124.592 Y92.732 E0.01307
G1 X125.408 Y92.732 E0.01975
G1 X126.398 Y92.805 E0.02401
G1 X126.847 Y92.865 E0.01094
G1 X127.650 Y93.015 E0.01975
G1 X128.175 Y93.143 E0.01307
G1 X128.954 Y93.379 E0.01968
G1 X129.419 Y93.585 E0.01230
G1 X132.680 Y95.469 E0.09110
G1 X133.083 Y95.762 E0.01205
G1 X133.681 Y96.322 E0.01981
G1 X133.995 Y96.648 E0.01094
G1 X134.586 Y97.333 E0.02188
G1 X135.124 Y98.060 E0.02188
G1 X135.652 Y98.901 E0.02401
G1 X136.072 Y99.702 E0.02188
G1 X136.400 Y100.450 E0.01975
G1 X136.560 Y100.873 E0.01094
G1 X136.856 Y101.821 E0.02401
G1 X137.041 Y102.613 E0.01968
G1 X137.091 Y102.972 E0.00877
G1 X137.094 Y106.886 E0.09464
G1 X137.042 Y107.381 E0.01205
G1 X136.833 Y108.264 E0.02194
G1 X136.600 Y109.012 E0.01894
G1 X136.433 Y109.468 E0.01176
G1 X136.225 Y109.967 E0.01307
G1 X135.870 Y110.702 E0.01975
G1 X135.608 Y111.175 E0.01307
G1 X135.174 Y111.867 E0.01975
G1 X134.862 Y112.308 E0.01307
G1 X134.354 Y112.948 E0.01975
G1 X133.681 Y113.678 E0.02401
G1 X133.088 Y114.235 E0.01968
G1 X132.802 Y114.457 E0.00876
G1 X129.414 Y116.417 E0.09465
G1 X128.959 Y116.619 E0.01205
G1 X128.175 Y116.857 E0.01981
G1 X127.736 Y116.966 E0.01094
G1 X126.847 Y117.135 E0.02188
G1 X125.948 Y117.238 E0.02188
G1 X125.408 Y117.268 E0.01307
G1 X124.625 Y117.269 E0.01894
G1 X123.602 Y117.195 E0.02482
G1 X122.827 Y117.080 E0.01894
G1 X122.350 Y116.985 E0.01176
G1 X121.825 Y116.857 E0.01307
G1 X121.046 Y116.621 E0.01968
G1 X120.581 Y116.415 E0.01230
G1 X117.320 Y114.531 E0.09110
G1 X116.917 Y114.238 E0.01205
G1 X116.319 Y113.678 E0.01981
G1 X116.005 Y113.352 E0.01094
G1 X115.414 Y112.667 E0.02188
G1 X114.876 Y111.940 E0.02188
G1 X114.348 Y111.099 E0.02401
G1 X114.130 Y110.702 E0.01094
G1 X113.775 Y109.967 E0.01975
G1 X113.440 Y109.127 E0.02188
G1 X113.144 Y108.179 E0.02401
G1 X112.959 Y107.387 E0.01968
G1 X112.910 Y107.030 E0.00870
G1 X112.906 Y103.114 E0.09471
G1 X112.958 Y102.619 E0.01205
G1 X113.144 Y101.821 E0.01981
G1 X113.296 Y101.302 E0.01307
G1 X113.567 Y100.532 E0.01975
G1 X113.775 Y100.033 E0.01307
G1 X114.130 Y99.297 E0.01976
G1 X114.392 Y98.825 E0.01307
G1 X114.826 Y98.133 E0.01975
G1 X115.138 Y97.692 E0.01307
G1 X115.608 Y97.098 E0.01830
G1 F5760
G1 X115.703 Y96.985 E-0.05126
G1 F5760
G1 X115.945 Y96.713 E-0.12623
G1 F5760
G1 X116.005 Y96.648 E-0.03049
G1 F5760
G1 X116.257 Y96.384 E-0.12623
G1 F5760
G1 X116.319 Y96.322 E-0.03048
G1 F5760
G1 X116.580 Y96.068 E-0.12623
G1 F5760
G1 X116.634 Y96.018 E-0.02542
G1 F5760
G1 X116.662 Y95.992 E-0.01332
G1 F5760
G1 X116.669 Y95.985 E-0.00332
G1 F5760
G1 X116.912 Y95.765 E-0.11361
G1 F5760
G1 X117.171 Y95.564 E-0.11340
G1 E-0.04000 F2100.00000
G1 X125.000 Y106.735 F7200.000
G1 E0.80000 F2100.00000
G1 F720
G1 X127.562 Y113.239 E0.16905
G1 F720
G1 X127.945 Y114.212 E0.02529
G1 X127.469 Y114.357 E0.01203
G1 X126.774 Y114.513 E0.01725
G1 X126.068 Y114.618 E0.01725
G1 X125.388 Y114.669 E0.01649
G1 X125.002 Y114.677 E0.00935
G1 X124.285 Y114.651 E0.01734
G1 X123.934 Y114.618 E0.00853
G1 X123.226 Y114.513 E0.01730
G1 X122.530 Y114.357 E0.01725
G1 X122.055 Y114.213 E0.01202
G1 X124.978 Y106.791 E0.19291
G1 X125.000 Y106.735 F7200.000
G1 F5760
G1 X125.000 Y106.735 E-0.02078
G1 F5760
G1 X125.782 Y108.721 E-0.73922
G1 E-0.04000 F2100.00000
G1 X125.000 Y107.793 F7200.000
G1 E0.80000 F2100.00000
G1 F720
G1 X127.201 Y113.381 E0.14524
G1 F720
G1 X127.432 Y113.968 E0.01525
G1 X126.702 Y114.132 E0.01809
G1 X126.025 Y114.232 E0.01657
G1 X125.005 Y114.289 E0.02471
G1 X124.310 Y114.264 E0.01680
G1 X123.298 Y114.132 E0.02470
G1 X122.568 Y113.968 E0.01809
G1 X124.978 Y107.849 E0.15904
G1 F5760
G1 X125.000 Y107.793 E-0.02078
G1 F5760
G1 X125.782 Y109.779 E-0.73922
G1 E-0.04000 F2100.00000
G1 X125.937 Y111.231 F7200.000
G1 E0.80000 F2100.00000
G1 F720
G1 X126.840 Y113.523 E0.05957
G1 F720
G1 X126.905 Y113.689 E0.00430
G1 X126.631 Y113.750 E0.00679
G1 X125.982 Y113.847 E0.01588
G1 X125.351 Y113.894 E0.01531
G1 X125.008 Y113.901 E0.00830
G1 X124.335 Y113.876 E0.01627
G1 X123.369 Y113.750 E0.02357
G1 X123.095 Y113.689 E0.00679
G1 X125.000 Y108.852 E0.12573
G1 X125.915 Y111.176 E0.06041
G1 X125.512 Y111.029 F7200.000
G1 F1440
G1 X124.731 Y110.247 E0.02958
G1 X124.918 Y109.827 E0.01230
G1 X125.118 Y110.027 E0.00757
G1 X124.559 Y110.683 F7200.000
G1 F1440
G1 X125.907 Y112.030 E0.05100
G1 F5760
