; generated by Slic3r 1.2.9 on 2015-10-30 at 18:06:30

; external perimeters extrusion width = 0.45mm
; perimeters extrusion width = 0.45mm
; infill extrusion width = 0.45mm
; solid infill extrusion width = 0.45mm
; top infill extrusion width = 0.45mm

M190 S100 ; set bed temperature
M201 X1000 Y1000 E600
M109 S255
M92 E161.3
G28
G92 E0.0
G1 X8.0 F2000
G1 Y60.0 E4.0  F1000.0
G1 Y100.0 E8.5  F1000.0
G92 E0.0
G21 ; set units to millimeters
G90 ; use absolute coordinates
M83 ; use relative distances for extrusion
G1 E-1.50000 F1800.00000
G1 Z0.200 F6000.000
G1 X67.570 Y64.085 F6000.000
G1 E1.50000 F1800.00000
G1 E0.04913 F1800.000 ; pressure advance
G1 X78.783 Y52.872 E0.53677 F2100.000
G1 X80.485 Y52.167 E0.06236
G1 X114.213 Y52.167 E1.14165
G1 X115.915 Y52.872 E0.06236
G1 X132.430 Y69.387 E0.79056
G1 X133.135 Y71.089 E0.06236
G1 X133.135 Y128.912 E1.95724
G1 X132.430 Y130.614 E0.06236
G1 X115.915 Y147.129 E0.79055
G1 X114.213 Y147.834 E0.06236
G1 X80.485 Y147.834 E1.14165
G1 X78.783 Y147.129 E0.06236
G1 X67.570 Y135.915 E0.53677
G1 X66.865 Y134.213 E0.06236
G1 X66.865 Y65.787 E2.31615
G1 X67.547 Y64.140 E0.06033
G1 E-0.04913 F1800.000 ; pressure discharge
G1 E-1.50000 F1800.00000
G1 X93.835 Y81.605 F6000.000
G1 E1.50000 F1800.00000
G1 E0.03144 F1800.000 ; pressure advance
G1 X80.485 Y94.955 E0.63904 F1680.000
G1 X70.718 Y85.188 E0.46754
G1 X70.718 Y66.386 E0.63642
G1 X80.485 Y56.619 E0.46754
G1 X93.835 Y69.969 E0.63904
G1 X93.234 Y70.218 E0.02201
G1 X92.398 Y70.730 E0.03320
G1 X91.652 Y71.367 E0.03320
G1 X91.020 Y72.108 E0.03298
G1 X90.503 Y72.948 E0.03339
G1 X90.127 Y73.855 E0.03323
G1 X89.898 Y74.809 E0.03320
G1 X89.822 Y75.787 E0.03320
G1 X89.898 Y76.765 E0.03320
G1 X90.126 Y77.712 E0.03298
G1 X90.502 Y78.624 E0.03339
G1 X91.015 Y79.461 E0.03323
G1 X91.652 Y80.207 E0.03320
G1 X92.398 Y80.844 E0.03320
G1 X93.234 Y81.356 E0.03320
G1 X93.780 Y81.582 E0.01998
G1 X94.594 Y81.422 F6000.000
G1 X80.485 Y95.531 E0.67537 F1680.000
G1 X70.311 Y85.357 E0.48703
G1 X70.311 Y66.217 E0.64784
G1 X80.485 Y56.043 E0.48703
G1 X94.594 Y70.152 E0.67537
G1 X94.267 Y70.231 E0.01139
G1 X93.420 Y70.581 E0.03103
G1 X92.638 Y71.060 E0.03103
G1 X91.941 Y71.656 E0.03103
G1 X91.350 Y72.348 E0.03082
G1 X90.867 Y73.134 E0.03122
G1 X90.516 Y73.982 E0.03105
G1 X90.302 Y74.873 E0.03103
G1 X90.230 Y75.787 E0.03103
G1 X90.302 Y76.701 E0.03103
G1 X90.514 Y77.586 E0.03082
G1 X90.866 Y78.439 E0.03123
G1 X91.346 Y79.221 E0.03105
G1 X91.941 Y79.918 E0.03103
G1 X92.638 Y80.514 E0.03103
G1 X93.420 Y80.993 E0.03103
G1 X94.267 Y81.343 E0.03103
G1 X94.536 Y81.408 E0.00936
G1 X95.422 Y81.170 F6000.000
G1 X80.485 Y96.106 E0.71500 F1680.000
G1 X69.904 Y85.525 E0.50651
G1 X69.904 Y66.049 E0.65925
G1 X80.485 Y55.468 E0.50651
G1 X95.422 Y70.404 E0.71500
G1 X95.222 Y70.420 E0.00678
G1 X94.393 Y70.619 E0.02886
G1 X93.605 Y70.945 E0.02886
G1 X92.878 Y71.391 E0.02886
G1 X92.230 Y71.945 E0.02886
G1 X91.680 Y72.588 E0.02865
G1 X91.231 Y73.320 E0.02906
G1 X90.904 Y74.108 E0.02888
G1 X90.705 Y74.937 E0.02886
G1 X90.638 Y75.787 E0.02886
G1 X90.705 Y76.637 E0.02886
G1 X90.903 Y77.460 E0.02865
G1 X91.230 Y78.254 E0.02906
G1 X91.676 Y78.981 E0.02887
G1 X92.230 Y79.629 E0.02886
G1 X92.878 Y80.183 E0.02886
G1 X93.605 Y80.629 E0.02886
G1 X94.393 Y80.955 E0.02886
G1 X95.222 Y81.154 E0.02886
G1 X95.362 Y81.165 E0.00475
G1 E-0.03144 F1800.000 ; pressure discharge
G1 E-1.50000 F1800.00000
G1 X96.379 Y80.789 F6000.000
G1 E1.50000 F1800.00000
G1 X80.485 Y96.682 E0.76081 F1680.000
G1 X69.497 Y85.694 E0.52600
G1 X69.497 Y65.880 E0.67067
G1 X80.485 Y54.892 E0.52600
G1 X96.379 Y70.785 E0.76081
G1 X96.072 Y70.761 E0.01041
G1 X95.286 Y70.823 E0.02669
G1 X94.519 Y71.007 E0.02669
G1 X93.791 Y71.309 E0.02669
G1 X93.118 Y71.721 E0.02669
G1 X92.519 Y72.233 E0.02669
G1 X92.010 Y72.828 E0.02649
G1 X91.594 Y73.505 E0.02689
G1 X91.292 Y74.234 E0.02670
G1 X91.108 Y75.001 E0.02669
G1 X91.047 Y75.787 E0.02669
G1 X91.108 Y76.573 E0.02669
G1 X91.291 Y77.334 E0.02649
G1 X91.594 Y78.068 E0.02689
G1 X92.006 Y78.741 E0.02670
G1 X92.519 Y79.341 E0.02669
G1 X93.118 Y79.853 E0.02669
G1 X93.791 Y80.265 E0.02669
G1 X94.519 Y80.567 E0.02669
G1 X95.286 Y80.751 E0.02669
G1 X96.072 Y80.813 E0.02669
G1 X96.319 Y80.793 E0.00838
G1 X96.038 Y80.998 F6000.000
G1 E-1.50000 F1800.00000
G1 X127.563 Y81.605 F6000.000
G1 E1.50000 F1800.00000
G1 X114.213 Y94.955 E0.63904 F1680.000
G1 X104.446 Y85.188 E0.46754
G1 X104.446 Y66.386 E0.63642
G1 X114.213 Y56.619 E0.46754
G1 X127.563 Y69.969 E0.63904
G1 X126.962 Y70.218 E0.02201
G1 X126.126 Y70.730 E0.03320
G1 X125.380 Y71.367 E0.03320
G1 X124.748 Y72.108 E0.03298
G1 X124.231 Y72.948 E0.03339
G1 X123.855 Y73.855 E0.03323
G1 X123.626 Y74.809 E0.03320
G1 X123.550 Y75.787 E0.03320
G1 X123.626 Y76.765 E0.03320
G1 X123.854 Y77.712 E0.03298
G1 X124.230 Y78.624 E0.03339
G1 X124.743 Y79.461 E0.03323
G1 X125.380 Y80.207 E0.03320
G1 X126.126 Y80.844 E0.03320
G1 X126.962 Y81.356 E0.03320
G1 X127.508 Y81.582 E0.01998
G1 X128.322 Y81.422 F6000.000
G1 X114.213 Y95.531 E0.67537 F1680.000
G1 X104.039 Y85.357 E0.48703
G1 X104.039 Y66.217 E0.64784
G1 X114.213 Y56.043 E0.48703
G1 X128.322 Y70.152 E0.67537
G1 X127.995 Y70.231 E0.01139
G1 X127.148 Y70.581 E0.03103
G1 X126.366 Y71.060 E0.03103
G1 X125.669 Y71.656 E0.03103
G1 X125.078 Y72.348 E0.03082
G1 X124.595 Y73.134 E0.03122
G1 X124.244 Y73.982 E0.03105
G1 X124.030 Y74.873 E0.03103
G1 X123.958 Y75.787 E0.03103
G1 X124.030 Y76.701 E0.03103
G1 X124.242 Y77.586 E0.03082
G1 X124.594 Y78.439 E0.03123
G1 X125.074 Y79.221 E0.03105
G1 X125.669 Y79.918 E0.03103
G1 X126.366 Y80.514 E0.03103
G1 X127.148 Y80.993 E0.03103
G1 X127.995 Y81.343 E0.03103
G1 X128.264 Y81.408 E0.00936
G1 X129.150 Y81.170 F6000.000
G1 X114.213 Y96.106 E0.71500 F1680.000
G1 X103.632 Y85.525 E0.50651
G1 X103.632 Y66.049 E0.65925
G1 X114.213 Y55.468 E0.50651
G1 X129.150 Y70.404 E0.71500
G1 X128.950 Y70.420 E0.00678
G1 X128.121 Y70.619 E0.02886
G1 X127.333 Y70.945 E0.02886
G1 X126.606 Y71.391 E0.02886
G1 X125.958 Y71.945 E0.02886
G1 X125.408 Y72.588 E0.02865
G1 X124.959 Y73.320 E0.02906
G1 X124.632 Y74.108 E0.02888
G1 X124.433 Y74.937 E0.02886
G1 X124.366 Y75.787 E0.02886
G1 X124.433 Y76.637 E0.02886
G1 X124.631 Y77.460 E0.02865
G1 X124.958 Y78.254 E0.02906
G1 X125.404 Y78.981 E0.02887
G1 X125.958 Y79.629 E0.02886
G1 X126.606 Y80.183 E0.02886
G1 X127.333 Y80.629 E0.02886
G1 X128.121 Y80.955 E0.02886
G1 X128.950 Y81.154 E0.02886
G1 X129.090 Y81.165 E0.00475
G1 E-1.50000 F1800.00000
G1 X130.107 Y80.789 F6000.000
G1 E1.50000 F1800.00000
G1 X114.213 Y96.682 E0.76081 F1680.000
G1 X103.225 Y85.694 E0.52600
G1 X103.225 Y65.880 E0.67067
G1 X114.213 Y54.892 E0.52600
G1 X130.107 Y70.785 E0.76081
G1 X129.800 Y70.761 E0.01041
G1 X129.014 Y70.823 E0.02669
G1 X128.247 Y71.007 E0.02669
G1 X127.519 Y71.309 E0.02669
G1 X126.846 Y71.721 E0.02669
G1 X126.247 Y72.233 E0.02669
G1 X125.738 Y72.828 E0.02649
G1 X125.322 Y73.505 E0.02689
G1 X125.020 Y74.234 E0.02670
G1 X124.836 Y75.001 E0.02669
G1 X124.775 Y75.787 E0.02669
G1 X124.836 Y76.573 E0.02669
G1 X125.019 Y77.334 E0.02649
G1 X125.322 Y78.068 E0.02689
G1 X125.734 Y78.741 E0.02670
G1 X126.247 Y79.341 E0.02669
G1 X126.846 Y79.853 E0.02669
G1 X127.519 Y80.265 E0.02669
G1 X128.247 Y80.567 E0.02669
G1 X129.014 Y80.751 E0.02669
G1 X129.800 Y80.813 E0.02669
G1 X130.047 Y80.793 E0.00838
G1 X129.766 Y80.998 F6000.000
G1 E-1.50000 F1800.00000
G1 X127.563 Y130.032 F6000.000
G1 E1.50000 F1800.00000
G1 X114.213 Y143.381 E0.63904 F1680.000
G1 X104.446 Y133.614 E0.46754
G1 X104.446 Y114.812 E0.63642
G1 X114.213 Y105.045 E0.46754
G1 X127.563 Y118.395 E0.63904
G1 X126.962 Y118.644 E0.02201
G1 X126.126 Y119.156 E0.03320
G1 X125.380 Y119.793 E0.03320
G1 X124.748 Y120.534 E0.03298
G1 X124.231 Y121.375 E0.03339
G1 X123.855 Y122.282 E0.03323
G1 X123.626 Y123.236 E0.03320
G1 X123.550 Y124.213 E0.03320
G1 X123.626 Y125.191 E0.03320
G1 X123.854 Y126.138 E0.03298
G1 X124.230 Y127.050 E0.03339
G1 X124.743 Y127.887 E0.03323
G1 X125.380 Y128.633 E0.03320
G1 X126.126 Y129.270 E0.03320
G1 X126.962 Y129.783 E0.03320
G1 X127.508 Y130.009 E0.01998
G1 X128.322 Y129.848 F6000.000
G1 X114.213 Y143.957 E0.67537 F1680.000
G1 X104.039 Y133.783 E0.48703
G1 X104.039 Y114.644 E0.64784
G1 X114.213 Y104.470 E0.48703
G1 X128.322 Y118.578 E0.67537
G1 X127.995 Y118.657 E0.01139
G1 X127.148 Y119.008 E0.03103
G1 X126.366 Y119.487 E0.03103
G1 X125.669 Y120.082 E0.03103
G1 X125.078 Y120.774 E0.03082
G1 X124.595 Y121.560 E0.03122
G1 X124.244 Y122.408 E0.03105
G1 X124.030 Y123.299 E0.03103
G1 X123.958 Y124.213 E0.03103
G1 X124.030 Y125.127 E0.03103
G1 X124.242 Y126.013 E0.03082
G1 X124.594 Y126.865 E0.03123
G1 X125.074 Y127.647 E0.03105
G1 X125.669 Y128.345 E0.03103
G1 X126.366 Y128.940 E0.03103
G1 X127.148 Y129.419 E0.03103
G1 X127.995 Y129.770 E0.03103
G1 X128.264 Y129.834 E0.00936
G1 X129.150 Y129.596 F6000.000
G1 X114.213 Y144.533 E0.71500 F1680.000
G1 X103.632 Y133.952 E0.50651
G1 X103.632 Y114.475 E0.65925
G1 X114.213 Y103.894 E0.50651
G1 X129.150 Y118.831 E0.71500
G1 X128.950 Y118.846 E0.00678
G1 X128.121 Y119.045 E0.02886
G1 X127.333 Y119.372 E0.02886
G1 X126.606 Y119.817 E0.02886
G1 X125.958 Y120.371 E0.02886
G1 X125.408 Y121.015 E0.02865
G1 X124.959 Y121.746 E0.02906
G1 X124.632 Y122.534 E0.02888
G1 X124.433 Y123.363 E0.02886
G1 X124.366 Y124.213 E0.02886
G1 X124.433 Y125.063 E0.02886
G1 X124.631 Y125.887 E0.02865
G1 X124.958 Y126.680 E0.02906
G1 X125.404 Y127.407 E0.02887
G1 X125.958 Y128.056 E0.02886
G1 X126.606 Y128.610 E0.02886
G1 X127.333 Y129.055 E0.02886
G1 X128.121 Y129.381 E0.02886
G1 X128.950 Y129.581 E0.02886
G1 X129.090 Y129.592 E0.00475
G1 E-1.50000 F1800.00000
G1 X130.107 Y129.215 F6000.000
G1 E1.50000 F1800.00000
G1 X114.213 Y145.108 E0.76081 F1680.000
G1 X103.225 Y134.120 E0.52600
G1 X103.225 Y114.307 E0.67067
G1 X114.213 Y103.318 E0.52600
G1 X130.107 Y119.212 E0.76081
G1 X129.800 Y119.188 E0.01041
G1 X129.014 Y119.250 E0.02669
G1 X128.247 Y119.434 E0.02669
G1 X127.519 Y119.735 E0.02669
G1 X126.846 Y120.148 E0.02669
G1 X126.247 Y120.660 E0.02669
G1 X125.738 Y121.255 E0.02649
G1 X125.322 Y121.932 E0.02689
G1 X125.020 Y122.660 E0.02670
G1 X124.836 Y123.427 E0.02669
G1 X124.775 Y124.213 E0.02669
G1 X124.836 Y125.000 E0.02669
G1 X125.019 Y125.761 E0.02649
G1 X125.322 Y126.495 E0.02689
G1 X125.734 Y127.167 E0.02670
G1 X126.247 Y127.767 E0.02669
G1 X126.846 Y128.279 E0.02669
G1 X127.519 Y128.691 E0.02669
G1 X128.247 Y128.993 E0.02669
G1 X129.014 Y129.177 E0.02669
G1 X129.800 Y129.239 E0.02669
G1 X130.047 Y129.220 E0.00838
G1 X129.766 Y129.424 F6000.000
G1 E-1.50000 F1800.00000
G1 X93.835 Y130.032 F6000.000
G1 E1.50000 F1800.00000
G1 X80.485 Y143.381 E0.63904 F1680.000
G1 X70.718 Y133.614 E0.46754
G1 X70.718 Y114.812 E0.63642
G1 X80.485 Y105.045 E0.46754
G1 X93.835 Y118.395 E0.63904
G1 X93.234 Y118.644 E0.02201
G1 X92.398 Y119.156 E0.03320
G1 X91.652 Y119.793 E0.03320
G1 X91.020 Y120.534 E0.03298
G1 X90.503 Y121.375 E0.03339
G1 X90.127 Y122.282 E0.03323
G1 X89.898 Y123.236 E0.03320
G1 X89.822 Y124.213 E0.03320
G1 X89.898 Y125.191 E0.03320
G1 X90.126 Y126.138 E0.03298
G1 X90.502 Y127.050 E0.03339
G1 X91.015 Y127.887 E0.03323
G1 X91.652 Y128.633 E0.03320
G1 X92.398 Y129.270 E0.03320
G1 X93.234 Y129.783 E0.03320
G1 X93.780 Y130.009 E0.01998
G1 X94.594 Y129.848 F6000.000
G1 X80.485 Y143.957 E0.67537 F1680.000
G1 X70.311 Y133.783 E0.48703
G1 X70.311 Y114.644 E0.64784
G1 X80.485 Y104.470 E0.48703
G1 X94.594 Y118.578 E0.67537
G1 X94.267 Y118.657 E0.01139
G1 X93.420 Y119.008 E0.03103
G1 X92.638 Y119.487 E0.03103
G1 X91.941 Y120.082 E0.03103
G1 X91.350 Y120.774 E0.03082
G1 X90.867 Y121.560 E0.03122
G1 X90.516 Y122.408 E0.03105
G1 X90.302 Y123.299 E0.03103
G1 X90.230 Y124.213 E0.03103
G1 X90.302 Y125.127 E0.03103
G1 X90.514 Y126.013 E0.03082
G1 X90.866 Y126.865 E0.03123
G1 X91.346 Y127.647 E0.03105
G1 X91.941 Y128.345 E0.03103
G1 X92.638 Y128.940 E0.03103
G1 X93.420 Y129.419 E0.03103
G1 X94.267 Y129.770 E0.03103
G1 X94.536 Y129.834 E0.00936
G1 X95.422 Y129.596 F6000.000
G1 X80.485 Y144.533 E0.71500 F1680.000
G1 X69.904 Y133.952 E0.50651
G1 X69.904 Y114.475 E0.65925
G1 X80.485 Y103.894 E0.50651
G1 X95.422 Y118.831 E0.71500
G1 X95.222 Y118.846 E0.00678
G1 X94.393 Y119.045 E0.02886
G1 X93.605 Y119.372 E0.02886
G1 X92.878 Y119.817 E0.02886
G1 X92.230 Y120.371 E0.02886
G1 X91.680 Y121.015 E0.02865
G1 X91.231 Y121.746 E0.02906
G1 X90.904 Y122.534 E0.02888
G1 X90.705 Y123.363 E0.02886
G1 X90.638 Y124.213 E0.02886
G1 X90.705 Y125.063 E0.02886
G1 X90.903 Y125.887 E0.02865
G1 X91.230 Y126.680 E0.02906
G1 X91.676 Y127.407 E0.02887
G1 X92.230 Y128.056 E0.02886
G1 X92.878 Y128.610 E0.02886
G1 X93.605 Y129.055 E0.02886
G1 X94.393 Y129.381 E0.02886
G1 X95.222 Y129.581 E0.02886
G1 X95.362 Y129.592 E0.00475
G1 E-1.50000 F1800.00000
G1 X96.379 Y129.215 F6000.000
G1 E1.50000 F1800.00000
G1 X80.485 Y145.108 E0.76081 F1680.000
G1 X69.497 Y134.120 E0.52600
G1 X69.497 Y114.307 E0.67067
G1 X80.485 Y103.318 E0.52600
G1 X96.379 Y119.212 E0.76081
G1 X96.072 Y119.188 E0.01041
G1 X95.286 Y119.250 E0.02669
G1 X94.519 Y119.434 E0.02669
G1 X93.791 Y119.735 E0.02669
G1 X93.118 Y120.148 E0.02669
G1 X92.519 Y120.660 E0.02669
G1 X92.010 Y121.255 E0.02649
G1 X91.594 Y121.932 E0.02689
G1 X91.292 Y122.660 E0.02670
G1 X91.108 Y123.427 E0.02669
G1 X91.047 Y124.213 E0.02669
G1 X91.108 Y125.000 E0.02669
G1 X91.291 Y125.761 E0.02649
G1 X91.594 Y126.495 E0.02689
G1 X92.006 Y127.167 E0.02670
G1 X92.519 Y127.767 E0.02669
G1 X93.118 Y128.279 E0.02669
G1 X93.791 Y128.691 E0.02669
G1 X94.519 Y128.993 E0.02669
G1 X95.286 Y129.177 E0.02669
G1 X96.072 Y129.239 E0.02669
G1 X96.319 Y129.220 E0.00838
G1 X96.038 Y129.424 F6000.000
G1 E-1.50000 F1800.00000
G1 Z0.400 F6000.000
G1 X93.835 Y81.605 F6000.000
G1 E1.50000 F1800.00000
G1 E0.06416 F1800.000 ; pressure advance
G1 X80.485 Y94.955 E0.63904 F2400.000
G1 X70.718 Y85.188 E0.46754
G1 X70.718 Y66.386 E0.63642
G1 X80.485 Y56.619 E0.46754
G1 X93.835 Y69.969 E0.63904
G1 X93.234 Y70.218 E0.02201
G1 X92.398 Y70.730 E0.03320
G1 X91.652 Y71.367 E0.03320
G1 X91.028 Y72.098 E0.03253
G1 X90.504 Y72.947 E0.03378
G1 X90.127 Y73.855 E0.03329
G1 X89.898 Y74.809 E0.03320
G1 X89.822 Y75.787 E0.03320
G1 X89.898 Y76.765 E0.03320
G1 X90.123 Y77.699 E0.03253
G1 X90.501 Y78.623 E0.03378
G1 X91.015 Y79.461 E0.03329
G1 X91.652 Y80.207 E0.03320
G1 X92.398 Y80.844 E0.03320
G1 X93.234 Y81.356 E0.03320
G1 X93.780 Y81.582 E0.01998
G1 X94.594 Y81.422 F6000.000
G1 X80.485 Y95.531 E0.67537 F2400.000
G1 X70.311 Y85.357 E0.48703
G1 X70.311 Y66.217 E0.64784
G1 X80.485 Y56.043 E0.48703
G1 X94.594 Y70.152 E0.67537
G1 X94.267 Y70.231 E0.01139
G1 X93.420 Y70.581 E0.03103
G1 X92.638 Y71.060 E0.03103
G1 X91.941 Y71.656 E0.03103
G1 X91.358 Y72.338 E0.03038
G1 X90.867 Y73.133 E0.03161
G1 X90.516 Y73.982 E0.03109
G1 X90.302 Y74.873 E0.03103
G1 X90.230 Y75.787 E0.03103
G1 X90.302 Y76.701 E0.03103
G1 X90.511 Y77.574 E0.03038
G1 X90.866 Y78.438 E0.03161
G1 X91.346 Y79.221 E0.03109
G1 X91.941 Y79.918 E0.03103
G1 X92.638 Y80.514 E0.03103
G1 X93.420 Y80.993 E0.03103
G1 X94.267 Y81.343 E0.03103
G1 X94.536 Y81.408 E0.00936
G1 X95.422 Y81.170 F6000.000
G1 X80.485 Y96.106 E0.71500 F2400.000
G1 X69.904 Y85.525 E0.50651
G1 X69.904 Y66.049 E0.65925
G1 X80.485 Y55.468 E0.50651
G1 X95.422 Y70.404 E0.71500
G1 X95.222 Y70.420 E0.00678
G1 X94.393 Y70.619 E0.02886
G1 X93.605 Y70.945 E0.02886
G1 X92.878 Y71.391 E0.02886
G1 X92.230 Y71.945 E0.02886
G1 X91.688 Y72.579 E0.02824
G1 X91.231 Y73.319 E0.02944
G1 X90.904 Y74.108 E0.02890
G1 X90.705 Y74.937 E0.02886
G1 X90.638 Y75.787 E0.02886
G1 X90.705 Y76.637 E0.02886
