; generated by Slic3r 1.2.9 on 2015-10-30 at 18:09:30

; external perimeters extrusion width = 0.55mm
; perimeters extrusion width = 0.55mm
; infill extrusion width = 0.55mm
; solid infill extrusion width = 0.55mm
; top infill extrusion width = 0.55mm

M201 X750 Y750 E100
G28 X0.0 Y0.0
G28 Z
G92 E0.0
G1 X5.0 Y60.0 E2.0  F1000.0
G1 X5.0 Y100.0 E4.5  F1000.0
G92 Z0.35
G92 E0.0
G21 ; set units to millimeters
G90 ; use absolute coordinates
M83 ; use relative distances for extrusion
M106 S255
G1 E-2.50000 F1200.00000
G1 Z0.250 F6000.000
G1 X67.502 Y67.017 F6000.000
G1 E2.50000 F1200.00000
G1 X78.716 Y55.804 E0.29566 F2400.000
G1 X80.485 Y55.071 E0.03571
G1 X114.213 Y55.071 E0.62884
G1 X115.983 Y55.804 E0.03571
G1 X132.498 Y72.319 E0.43545 F2400.000
G1 X133.231 Y74.088 E0.03571
G1 X133.231 Y131.912 E1.07808
G1 X132.498 Y133.681 E0.03571
G1 X115.983 Y150.196 E0.43545
G1 X114.213 Y150.929 E0.03571
G1 X80.485 Y150.929 E0.62884
G1 X78.716 Y150.196 E0.03571
G1 X67.502 Y138.983 E0.29566
G1 X66.769 Y137.213 E0.03571
G1 X66.769 Y68.787 E1.27577
G1 X67.479 Y67.073 E0.03459
G1 F4800
G1 X74.540 Y59.991 E-2.37500
G1 E-0.12500 F1200.00000
G1 X88.512 Y90.180 F6000.000
G1 E2.50000 F1200.00000
G1 X80.485 Y98.207 E0.20899 F1920.000
G1 X70.540 Y88.262 E0.25895
G1 X70.540 Y69.312 E0.34888
G1 X80.485 Y59.366 E0.25895
G1 X94.150 Y73.031 E0.35579
G1 X93.316 Y73.377 E0.01663 F1920.000
G1 X92.503 Y73.875 E0.01754
G1 X91.779 Y74.494 E0.01754
G1 X91.165 Y75.212 E0.01739
G1 X90.663 Y76.029 E0.01767
G1 X90.298 Y76.911 E0.01756
G1 X90.075 Y77.837 E0.01754
G1 X90.000 Y78.787 E0.01754
G1 X90.075 Y79.737 E0.01754
G1 X90.298 Y80.663 E0.01754
G1 X90.662 Y81.543 E0.01754
G1 X91.160 Y82.356 E0.01754
G1 X91.779 Y83.080 E0.01754
G1 X92.503 Y83.699 E0.01754
G1 X93.316 Y84.197 E0.01754
G1 X94.150 Y84.542 E0.01663
G1 X88.554 Y90.138 E0.14569
G1 X88.905 Y90.489 F6000.000
G1 X80.485 Y98.909 E0.21923 F1920.000
G1 X70.043 Y88.467 E0.27187
G1 X70.043 Y69.106 E0.35645
G1 X80.485 Y58.664 E0.27187
G1 X95.121 Y73.301 E0.38107
G1 X94.350 Y73.486 E0.01461 F1920.000
G1 X93.542 Y73.821 E0.01610
G1 X92.796 Y74.278 E0.01610
G1 X92.131 Y74.846 E0.01610
G1 X91.568 Y75.505 E0.01596
G1 X91.106 Y76.256 E0.01623
G1 X90.771 Y77.064 E0.01611
G1 X90.567 Y77.915 E0.01610
G1 X90.498 Y78.787 E0.01610
G1 X90.567 Y79.659 E0.01610
G1 X90.771 Y80.509 E0.01610
G1 X91.106 Y81.317 E0.01610
G1 X91.563 Y82.063 E0.01610
G1 X92.131 Y82.728 E0.01610
G1 X92.796 Y83.296 E0.01610
G1 X93.542 Y83.753 E0.01610
G1 X94.350 Y84.088 E0.01610
G1 X95.121 Y84.273 E0.01461
G1 X88.948 Y90.447 E0.16074
G1 X89.299 Y90.797 F6000.000
G1 X80.485 Y99.611 E0.22948 F1920.000
G1 X69.547 Y88.673 E0.28479
G1 X69.547 Y68.901 E0.36402
G1 X80.485 Y57.962 E0.28479
G1 X96.247 Y73.725 E0.41039
G1 X96.072 Y73.711 E0.00324 F1920.000
G1 X95.278 Y73.773 E0.01466
G1 X94.503 Y73.959 E0.01466
G1 X93.768 Y74.264 E0.01466
G1 X93.088 Y74.680 E0.01466
G1 X92.483 Y75.198 E0.01466
G1 X91.970 Y75.798 E0.01453
G1 X91.550 Y76.482 E0.01480
G1 X91.245 Y77.218 E0.01467
G1 X91.059 Y77.993 E0.01466
G1 X90.996 Y78.787 E0.01466
G1 X91.059 Y79.581 E0.01466
G1 X91.245 Y80.355 E0.01466
G1 X91.549 Y81.091 E0.01466
G1 X91.966 Y81.770 E0.01466
G1 X92.483 Y82.376 E0.01466
G1 X93.088 Y82.893 E0.01466
G1 X93.768 Y83.309 E0.01466
G1 X94.503 Y83.614 E0.01466
G1 X95.278 Y83.800 E0.01466
G1 X96.072 Y83.863 E0.01466
G1 X96.247 Y83.849 E0.00324
G1 X89.341 Y90.755 E0.17981
G1 X88.912 Y90.694 F6000.000
G1 F4800
G1 X82.270 Y97.826 E-2.37500
G1 E-0.12500 F1200.00000
G1 X124.236 Y81.170 F6000.000
G1 E2.50000 F1200.00000
G1 X124.390 Y81.543 E0.00744 F1920.000
G1 X124.888 Y82.356 E0.01754
G1 X125.507 Y83.080 E0.01754
G1 X126.231 Y83.699 E0.01754
G1 X127.044 Y84.197 E0.01754
G1 X127.878 Y84.542 E0.01663
G1 X114.213 Y98.207 E0.35579
G1 X104.268 Y88.262 E0.25895
G1 X104.268 Y69.312 E0.34888
G1 X114.213 Y59.366 E0.25895
G1 X127.878 Y73.031 E0.35579
G1 X127.044 Y73.377 E0.01663 F1920.000
G1 X126.231 Y73.875 E0.01754
G1 X125.507 Y74.494 E0.01754
G1 X124.893 Y75.212 E0.01739
G1 X124.391 Y76.029 E0.01767
G1 X124.026 Y76.911 E0.01756
G1 X123.803 Y77.837 E0.01754
G1 X123.728 Y78.787 E0.01754
G1 X123.803 Y79.737 E0.01754
G1 X124.026 Y80.663 E0.01754
G1 X124.213 Y81.115 E0.00900
G1 X124.671 Y80.925 F6000.000
G1 X124.834 Y81.317 E0.00783 F1920.000
G1 X125.291 Y82.063 E0.01610
G1 X125.859 Y82.728 E0.01610
G1 X126.524 Y83.296 E0.01610
G1 X127.270 Y83.753 E0.01610
G1 X128.078 Y84.088 E0.01610
G1 X128.849 Y84.273 E0.01461
G1 X114.213 Y98.909 E0.38107
G1 X103.771 Y88.467 E0.27187
G1 X103.771 Y69.106 E0.35645
G1 X114.213 Y58.664 E0.27187
G1 X128.849 Y73.301 E0.38107
G1 X128.078 Y73.486 E0.01461 F1920.000
G1 X127.270 Y73.821 E0.01610
G1 X126.524 Y74.278 E0.01610
G1 X125.859 Y74.846 E0.01610
G1 X125.296 Y75.505 E0.01596
G1 X124.834 Y76.256 E0.01623
G1 X124.499 Y77.064 E0.01611
G1 X124.295 Y77.915 E0.01610
G1 X124.226 Y78.787 E0.01610
G1 X124.295 Y79.659 E0.01610
G1 X124.499 Y80.509 E0.01610
G1 X124.648 Y80.869 E0.00717
G1 X125.107 Y80.679 F6000.000
G1 X125.277 Y81.091 E0.00821 F1920.000
G1 X125.694 Y81.770 E0.01466
G1 X126.211 Y82.376 E0.01466
G1 X126.816 Y82.893 E0.01466
G1 X127.496 Y83.309 E0.01466
G1 X128.231 Y83.614 E0.01466
G1 X129.006 Y83.800 E0.01466
G1 X129.800 Y83.863 E0.01466
G1 X129.975 Y83.849 E0.00324
G1 X114.213 Y99.611 E0.41040
G1 X103.275 Y88.673 E0.28479
G1 X103.275 Y68.901 E0.36402
G1 X114.213 Y57.962 E0.28479
G1 X129.975 Y73.725 E0.41039
G1 X129.800 Y73.711 E0.00324 F1920.000
G1 X129.006 Y73.773 E0.01466
G1 X128.231 Y73.959 E0.01466
G1 X127.496 Y74.264 E0.01466
G1 X126.816 Y74.680 E0.01466
G1 X126.211 Y75.198 E0.01466
G1 X125.698 Y75.798 E0.01453
G1 X125.278 Y76.482 E0.01480
G1 X124.973 Y77.218 E0.01467
G1 X124.787 Y77.993 E0.01466
G1 X124.724 Y78.787 E0.01466
G1 X124.787 Y79.581 E0.01466
G1 X124.973 Y80.355 E0.01466
G1 X125.084 Y80.624 E0.00535
G1 X124.863 Y80.996 F6000.000
G1 F4800
G1 X125.277 Y81.091 E-0.12018
G1 F4800
G1 X125.694 Y81.770 E-0.18916
G1 F4800
G1 X126.211 Y82.376 E-0.18917
G1 F4800
G1 X126.816 Y82.893 E-0.18916
G1 F4800
G1 X127.496 Y83.309 E-0.18917
G1 F4800
G1 X128.231 Y83.614 E-0.18917
G1 F4800
G1 X129.006 Y83.800 E-0.18917
G1 F4800
G1 X129.800 Y83.863 E-0.18917
G1 F4800
G1 X129.975 Y83.849 E-0.04180
G1 F4800
G1 X127.329 Y86.495 E-0.88886
G1 E-0.12500 F1200.00000
G1 X121.506 Y139.341 F6000.000
G1 E2.50000 F1200.00000
G1 X114.213 Y146.634 E0.18988 F1920.000
G1 X104.268 Y136.688 E0.25895
G1 X104.268 Y117.738 E0.34888
G1 X114.213 Y107.793 E0.25895
G1 X127.878 Y121.458 E0.35579
G1 X127.044 Y121.803 E0.01663 F1920.000
G1 X126.231 Y122.301 E0.01754
G1 X125.507 Y122.920 E0.01754
G1 X124.893 Y123.638 E0.01739
G1 X124.391 Y124.456 E0.01767
G1 X124.026 Y125.337 E0.01756
G1 X123.803 Y126.263 E0.01754
G1 X123.728 Y127.213 E0.01754
G1 X123.803 Y128.163 E0.01754
G1 X124.026 Y129.089 E0.01754
G1 X124.390 Y129.970 E0.01754
G1 X124.888 Y130.782 E0.01754
G1 X125.507 Y131.506 E0.01754
G1 X126.231 Y132.125 E0.01754
G1 X127.044 Y132.623 E0.01754
G1 X127.878 Y132.969 E0.01663
G1 X121.548 Y139.298 E0.16481
G1 X121.899 Y139.649 F6000.000
G1 X114.213 Y147.336 E0.20012 F1920.000
G1 X103.771 Y136.894 E0.27187
G1 X103.771 Y117.533 E0.35645
G1 X114.213 Y107.091 E0.27187
G1 X128.849 Y121.727 E0.38107
G1 X128.078 Y121.912 E0.01461 F1920.000
G1 X127.270 Y122.247 E0.01610
G1 X126.524 Y122.704 E0.01610
G1 X125.859 Y123.272 E0.01610
G1 X125.296 Y123.931 E0.01596
G1 X124.834 Y124.682 E0.01623
G1 X124.499 Y125.491 E0.01611
G1 X124.295 Y126.341 E0.01610
G1 X124.226 Y127.213 E0.01610
G1 X124.295 Y128.085 E0.01610
G1 X124.499 Y128.936 E0.01610
G1 X124.834 Y129.744 E0.01610
G1 X125.291 Y130.489 E0.01610
G1 X125.859 Y131.154 E0.01610
G1 X126.524 Y131.722 E0.01610
G1 X127.270 Y132.179 E0.01610
G1 X128.078 Y132.514 E0.01610
G1 X128.849 Y132.699 E0.01461
G1 X121.942 Y139.607 E0.17985
G1 X122.293 Y139.958 F6000.000
G1 X114.213 Y148.038 E0.21036 F1920.000
G1 X103.275 Y137.099 E0.28479
G1 X103.275 Y117.327 E0.36402
G1 X114.213 Y106.389 E0.28479
G1 X129.975 Y122.151 E0.41039
G1 X129.800 Y122.137 E0.00324 F1920.000
G1 X129.006 Y122.200 E0.01466
G1 X128.231 Y122.386 E0.01466
G1 X127.496 Y122.691 E0.01466
G1 X126.816 Y123.107 E0.01466
G1 X126.211 Y123.624 E0.01466
G1 X125.698 Y124.224 E0.01453
G1 X125.278 Y124.909 E0.01480
G1 X124.973 Y125.645 E0.01467
G1 X124.787 Y126.419 E0.01466
G1 X124.724 Y127.213 E0.01466
G1 X124.787 Y128.007 E0.01466
G1 X124.973 Y128.782 E0.01466
G1 X125.277 Y129.518 E0.01466
G1 X125.694 Y130.197 E0.01466
G1 X126.211 Y130.802 E0.01466
G1 X126.816 Y131.320 E0.01466
G1 X127.496 Y131.736 E0.01466
G1 X128.231 Y132.041 E0.01466
G1 X129.006 Y132.227 E0.01466
G1 X129.800 Y132.289 E0.01466
G1 X129.975 Y132.275 E0.00324
G1 X122.335 Y139.916 E0.19893
G1 X121.906 Y139.854 F6000.000
G1 F4800
G1 X115.264 Y146.987 E-2.37500
G1 E-0.12500 F1200.00000
G1 X76.895 Y111.383 F6000.000
G1 E2.50000 F1200.00000
G1 X80.485 Y107.793 E0.09347 F1920.000
G1 X94.150 Y121.458 E0.35579
G1 X93.316 Y121.803 E0.01663 F1920.000
G1 X92.503 Y122.301 E0.01754
G1 X91.779 Y122.920 E0.01754
G1 X91.165 Y123.638 E0.01739
G1 X90.663 Y124.456 E0.01767
G1 X90.298 Y125.337 E0.01756
G1 X90.075 Y126.263 E0.01754
G1 X90.000 Y127.213 E0.01754
G1 X90.075 Y128.163 E0.01754
G1 X90.298 Y129.089 E0.01754
G1 X90.662 Y129.970 E0.01754
G1 X91.160 Y130.782 E0.01754
G1 X91.779 Y131.506 E0.01754
G1 X92.503 Y132.125 E0.01754
G1 X93.316 Y132.623 E0.01754
G1 X94.150 Y132.969 E0.01663
G1 X80.485 Y146.634 E0.35579
G1 X70.540 Y136.688 E0.25895
G1 X70.540 Y117.738 E0.34888
G1 X76.853 Y111.425 E0.16437
G1 X76.502 Y111.074 F6000.000
G1 X80.485 Y107.091 E0.10371 F1920.000
G1 X95.121 Y121.727 E0.38107
G1 X94.350 Y121.912 E0.01461 F1920.000
G1 X93.542 Y122.247 E0.01610
G1 X92.796 Y122.704 E0.01610
G1 X92.131 Y123.272 E0.01610
G1 X91.568 Y123.931 E0.01596
G1 X91.106 Y124.682 E0.01623
G1 X90.771 Y125.491 E0.01611
G1 X90.567 Y126.341 E0.01610
G1 X90.498 Y127.213 E0.01610
G1 X90.567 Y128.085 E0.01610
G1 X90.771 Y128.936 E0.01610
G1 X91.106 Y129.744 E0.01610
G1 X91.563 Y130.489 E0.01610
G1 X92.131 Y131.154 E0.01610
G1 X92.796 Y131.722 E0.01610
G1 X93.542 Y132.179 E0.01610
G1 X94.350 Y132.514 E0.01610
G1 X95.121 Y132.699 E0.01461
G1 X80.485 Y147.336 E0.38107
G1 X70.043 Y136.894 E0.27187
G1 X70.043 Y117.533 E0.35645
G1 X76.459 Y111.117 E0.16705
G1 X76.109 Y110.766 F6000.000
G1 X80.485 Y106.389 E0.11395 F1920.000
G1 X96.247 Y122.151 E0.41039
G1 X96.072 Y122.137 E0.00324 F1920.000
G1 X95.278 Y122.200 E0.01466
G1 X94.503 Y122.386 E0.01466
G1 X93.768 Y122.691 E0.01466
G1 X93.088 Y123.107 E0.01466
G1 X92.483 Y123.624 E0.01466
G1 X91.970 Y124.224 E0.01453
G1 X91.550 Y124.909 E0.01480
G1 X91.245 Y125.645 E0.01467
G1 X91.059 Y126.419 E0.01466
G1 X90.996 Y127.213 E0.01466
G1 X91.059 Y128.007 E0.01466
G1 X91.245 Y128.782 E0.01466
G1 X91.549 Y129.518 E0.01466
G1 X91.966 Y130.197 E0.01466
G1 X92.483 Y130.802 E0.01466
G1 X93.088 Y131.320 E0.01466
G1 X93.768 Y131.736 E0.01466
G1 X94.503 Y132.041 E0.01466
G1 X95.278 Y132.227 E0.01466
G1 X96.072 Y132.289 E0.01466
G1 X96.247 Y132.275 E0.00324
G1 X80.485 Y148.038 E0.41040
G1 X69.547 Y137.099 E0.28479
G1 X69.547 Y117.327 E0.36402
G1 X76.066 Y110.808 E0.16973
G1 X76.495 Y110.869 F6000.000
M104 S215 ; set temperature
M140 S50 ; wait for bed temperature to be reached
G1 F4800
G1 X80.485 Y106.389 E-1.48428
G1 F4800
G1 X83.137 Y109.041 E-0.89072
G1 E-0.12500 F1200.00000
G1 Z0.450 F6000.000
G1 X86.940 Y65.851 F6000.000
G1 E2.50000 F1200.00000
G1 X94.112 Y73.024 E0.15262 F2400.000
G1 X93.306 Y73.358 E0.01313 F2400.000
G1 X92.490 Y73.857 E0.01439
G1 X91.764 Y74.478 E0.01439
G1 X91.157 Y75.188 E0.01404
G1 X90.644 Y76.018 E0.01469
G1 X90.277 Y76.904 E0.01443
G1 X90.054 Y77.834 E0.01439
G1 X89.979 Y78.787 E0.01439
G1 X90.054 Y79.740 E0.01439
G1 X90.277 Y80.670 E0.01439
G1 X90.643 Y81.553 E0.01439
G1 X91.143 Y82.368 E0.01439
G1 X91.764 Y83.095 E0.01439
G1 X92.489 Y83.715 E0.01436
G1 X93.292 Y84.210 E0.01419
G1 X94.112 Y84.550 E0.01336
G1 X80.485 Y98.177 E0.28998
G1 X70.561 Y88.253 E0.21118
G1 X70.561 Y69.321 E0.28487
G1 X80.485 Y59.397 E0.21118
G1 X86.898 Y65.809 E0.13645
G1 X87.256 Y65.451 F6000.000
G1 X95.100 Y73.295 E0.16692 F2400.000
G1 X94.346 Y73.476 E0.01167 F2400.000
G1 X93.537 Y73.811 E0.01319
G1 X92.789 Y74.269 E0.01319
G1 X92.123 Y74.838 E0.01318
G1 X91.568 Y75.488 E0.01286
G1 X91.097 Y76.250 E0.01349
G1 X90.761 Y77.061 E0.01321
G1 X90.556 Y77.913 E0.01319
G1 X90.488 Y78.787 E0.01319
G1 X90.556 Y79.660 E0.01319
G1 X90.761 Y80.513 E0.01319
G1 X91.096 Y81.322 E0.01319
G1 X91.554 Y82.069 E0.01319
G1 X92.123 Y82.736 E0.01319
G1 X92.789 Y83.304 E0.01317
G1 X93.524 Y83.757 E0.01299
G1 X94.346 Y84.098 E0.01340
G1 X95.100 Y84.279 E0.01167
G1 X80.485 Y98.894 E0.31100
G1 X70.054 Y88.463 E0.22197
G1 X70.054 Y69.111 E0.29119
G1 X80.485 Y58.680 E0.22197
G1 X87.214 Y65.408 E0.14318
G1 X87.572 Y65.050 F6000.000
G1 X96.247 Y73.725 E0.18460 F2400.000
G1 X96.072 Y73.711 E0.00265
G1 X95.278 Y73.773 E0.01198
G1 X94.503 Y73.959 E0.01198
G1 X93.768 Y74.264 E0.01199
G1 X93.088 Y74.680 E0.01198
G1 X92.483 Y75.198 E0.01198
G1 X91.979 Y75.787 E0.01167
G1 X91.550 Y76.482 E0.01229
G1 X91.245 Y77.218 E0.01199
G1 X91.059 Y77.993 E0.01198
G1 X90.996 Y78.787 E0.01198
G1 X91.059 Y79.581 E0.01198
G1 X91.245 Y80.355 E0.01198
G1 X91.549 Y81.091 E0.01199
G1 X91.966 Y81.770 E0.01198
G1 X92.483 Y82.376 E0.01198
G1 X93.088 Y82.893 E0.01198
G1 X93.755 Y83.304 E0.01179
G1 X94.503 Y83.614 E0.01219
G1 X95.278 Y83.800 E0.01198
G1 X96.072 Y83.863 E0.01198
G1 X96.247 Y83.849 E0.00265
G1 X80.485 Y99.611 E0.33541
G1 X69.547 Y88.673 E0.23276
G1 X69.547 Y68.901 E0.29751
G1 X80.485 Y57.962 E0.23276
G1 X80.735 Y58.213 E0.00532
G1 X87.530 Y65.007 E0.14458 F2400.000
G1 X87.469 Y65.436 F6000.000
G1 F4800
G1 X94.601 Y72.078 E-2.37500
G1 E-0.12500 F1200.00000
G1 X126.711 Y84.019 F6000.000
G1 E2.50000 F1200.00000
G1 X127.020 Y84.210 E0.00547 F2400.000
G1 X127.840 Y84.550 E0.01336
G1 X114.213 Y98.177 E0.28998
G1 X104.289 Y88.253 E0.21118
G1 X104.289 Y69.321 E0.28487
G1 X114.213 Y59.397 E0.21118
G1 X127.840 Y73.024 E0.28998
G1 X127.034 Y73.358 E0.01313 F2400.000
G1 X126.218 Y73.857 E0.01439
G1 X125.492 Y74.478 E0.01439
G1 X124.885 Y75.188 E0.01404
G1 X124.372 Y76.018 E0.01469
G1 X124.005 Y76.904 E0.01443
G1 X123.782 Y77.834 E0.01439
G1 X123.707 Y78.787 E0.01439
G1 X123.782 Y79.740 E0.01439
G1 X124.005 Y80.670 E0.01439
G1 X124.371 Y81.553 E0.01439
G1 X124.871 Y82.368 E0.01439
G1 X125.492 Y83.095 E0.01439
G1 X126.217 Y83.715 E0.01436
G1 X126.660 Y83.988 E0.00782
G1 X126.926 Y83.556 F6000.000
G1 X127.252 Y83.757 E0.00576 F2400.000
G1 X128.074 Y84.098 E0.01340
G1 X128.828 Y84.279 E0.01167
G1 X114.213 Y98.894 E0.31100
G1 X103.782 Y88.463 E0.22197
G1 X103.782 Y69.111 E0.29119
G1 X114.213 Y58.680 E0.22197
G1 X128.828 Y73.295 E0.31100
G1 X128.074 Y73.476 E0.01167 F2400.000
G1 X127.265 Y73.811 E0.01319
G1 X126.517 Y74.269 E0.01319
G1 X125.851 Y74.838 E0.01318
G1 X125.296 Y75.488 E0.01286
G1 X124.825 Y76.250 E0.01349
G1 X124.489 Y77.061 E0.01321
G1 X124.284 Y77.913 E0.01319
G1 X124.216 Y78.787 E0.01319
G1 X124.284 Y79.660 E0.01319
G1 X124.489 Y80.513 E0.01319
G1 X124.824 Y81.322 E0.01319
G1 X125.282 Y82.069 E0.01319
G1 X125.851 Y82.736 E0.01319
G1 X126.517 Y83.304 E0.01317
G1 X126.875 Y83.525 E0.00633
G1 X127.141 Y83.093 F6000.000
G1 X127.483 Y83.304 E0.00605 F2400.000
G1 X128.231 Y83.614 E0.01219
G1 X129.006 Y83.800 E0.01198
G1 X129.800 Y83.863 E0.01198
G1 X129.975 Y83.849 E0.00265
G1 X114.213 Y99.611 E0.33541
G1 X103.275 Y88.673 E0.23276
G1 X103.275 Y68.901 E0.29751
G1 X114.213 Y57.962 E0.23276
G1 X114.463 Y58.213 E0.00532
