; generated by Slic3r 1.2.9 on 2015-10-30 at 18:09:06

; external perimeters extrusion width = 0.55mm
; perimeters extrusion width = 0.55mm
; infill extrusion width = 0.55mm
; solid infill extrusion width = 0.55mm
; top infill extrusion width = 0.55mm

M201 X750 Y750 E100
G28 X0.0 Y0.0
G28 Z
G92 E0.0
G1 X5.0 Y60.0 E2.0  F1000.0
G1 X5.0 Y100.0 E4.5  F1000.0
G92 Z0.35
G92 E0.0
G21 ; set units to millimeters
G90 ; use absolute coordinates
M83 ; use relative distances for extrusion
M106 S255
G1 E-2.50000 F1200.00000
G1 Z0.250 F6000.000
G1 X67.502 Y67.017 F6000.000
G1 E2.50000 F1200.00000
G1 X78.716 Y55.804 E0.29566 F2400.000
G1 X80.485 Y55.071 E0.03571
G1 X114.213 Y55.071 E0.62884
G1 X115.983 Y55.804 E0.03571
G1 X132.498 Y72.319 E0.43545 F2400.000
G1 X133.231 Y74.088 E0.03571
G1 X133.231 Y131.912 E1.07808
G1 X132.498 Y133.681 E0.03571
G1 X115.983 Y150.196 E0.43545
G1 X114.213 Y150.929 E0.03571
G1 X80.485 Y150.929 E0.62884
G1 X78.716 Y150.196 E0.03571
G1 X67.502 Y138.983 E0.29566
G1 X66.769 Y137.213 E0.03571
G1 X66.769 Y68.787 E1.27577
G1 X67.479 Y67.073 E0.03459
G1 F4800
G1 X74.540 Y59.991 E-2.37500
G1 E-0.12500 F1200.00000
G1 X70.540 Y75.677 F6000.000
G1 E2.50000 F1200.00000
G1 X70.540 Y69.312 E0.11719 F1920.000
G1 X80.485 Y59.366 E0.25895
G1 X94.150 Y73.031 E0.35579
G1 X93.316 Y73.377 E0.01663 F1920.000
G1 X92.503 Y73.875 E0.01754
G1 X91.779 Y74.494 E0.01754
G1 X91.165 Y75.212 E0.01739
G1 X90.663 Y76.029 E0.01767
G1 X90.298 Y76.911 E0.01756
G1 X90.075 Y77.837 E0.01754
G1 X90.000 Y78.787 E0.01754
G1 X90.075 Y79.737 E0.01754
G1 X90.298 Y80.663 E0.01754
G1 X90.662 Y81.543 E0.01754
G1 X91.160 Y82.356 E0.01754
G1 X91.779 Y83.080 E0.01754
G1 X92.503 Y83.699 E0.01754
G1 X93.316 Y84.197 E0.01754
G1 X94.150 Y84.542 E0.01663
G1 X80.485 Y98.207 E0.35579
G1 X70.540 Y88.262 E0.25895
G1 X70.540 Y75.737 E0.23058
G1 X70.043 Y75.737 F6000.000
G1 X70.043 Y69.106 E0.12208 F1920.000
G1 X80.485 Y58.664 E0.27187
G1 X95.121 Y73.301 E0.38107
G1 X94.350 Y73.486 E0.01461 F1920.000
G1 X93.542 Y73.821 E0.01610
G1 X92.796 Y74.278 E0.01610
G1 X92.131 Y74.846 E0.01610
G1 X91.568 Y75.505 E0.01596
G1 X91.106 Y76.256 E0.01623
G1 X90.771 Y77.064 E0.01611
G1 X90.567 Y77.915 E0.01610
G1 X90.498 Y78.787 E0.01610
G1 X90.567 Y79.659 E0.01610
G1 X90.771 Y80.509 E0.01610
G1 X91.106 Y81.317 E0.01610
G1 X91.563 Y82.063 E0.01610
G1 X92.131 Y82.728 E0.01610
G1 X92.796 Y83.296 E0.01610
G1 X93.542 Y83.753 E0.01610
G1 X94.350 Y84.088 E0.01610
G1 X95.121 Y84.273 E0.01461
G1 X80.485 Y98.909 E0.38107
G1 X70.043 Y88.467 E0.27187
G1 X70.043 Y75.797 E0.23326
G1 X69.547 Y75.797 F6000.000
G1 X69.547 Y68.901 E0.12697 F1920.000
G1 X80.485 Y57.962 E0.28479
G1 X96.247 Y73.725 E0.41039
G1 X96.072 Y73.711 E0.00324 F1920.000
G1 X95.278 Y73.773 E0.01466
G1 X94.503 Y73.959 E0.01466
G1 X93.768 Y74.264 E0.01466
G1 X93.088 Y74.680 E0.01466
G1 X92.483 Y75.198 E0.01466
G1 X91.970 Y75.798 E0.01453
G1 X91.550 Y76.482 E0.01480
G1 X91.245 Y77.218 E0.01467
G1 X91.059 Y77.993 E0.01466
G1 X90.996 Y78.787 E0.01466
G1 X91.059 Y79.581 E0.01466
G1 X91.245 Y80.355 E0.01466
G1 X91.549 Y81.091 E0.01466
G1 X91.966 Y81.770 E0.01466
G1 X92.483 Y82.376 E0.01466
G1 X93.088 Y82.893 E0.01466
G1 X93.768 Y83.309 E0.01466
G1 X94.503 Y83.614 E0.01466
G1 X95.278 Y83.800 E0.01466
G1 X96.072 Y83.863 E0.01466
G1 X96.247 Y83.849 E0.00324
G1 X80.485 Y99.611 E0.41040
G1 X69.547 Y88.673 E0.28479
G1 X69.547 Y75.857 E0.23594
G1 X69.893 Y75.597 F6000.000
G1 F4800
G1 X69.547 Y68.901 E-1.65217
G1 F4800
G1 X71.699 Y66.749 E-0.72283
G1 E-0.12500 F1200.00000
G1 X106.633 Y66.946 F6000.000
G1 E2.50000 F1200.00000
G1 X114.213 Y59.366 E0.19735 F1920.000
G1 X127.878 Y73.031 E0.35579
G1 X127.044 Y73.377 E0.01663 F1920.000
G1 X126.231 Y73.875 E0.01754
G1 X125.507 Y74.494 E0.01754
G1 X124.893 Y75.212 E0.01739
G1 X124.391 Y76.029 E0.01767
G1 X124.026 Y76.911 E0.01756
G1 X123.803 Y77.837 E0.01754
G1 X123.728 Y78.787 E0.01754
G1 X123.803 Y79.737 E0.01754
G1 X124.026 Y80.663 E0.01754
G1 X124.390 Y81.543 E0.01754
G1 X124.888 Y82.356 E0.01754
G1 X125.507 Y83.080 E0.01754
G1 X126.231 Y83.699 E0.01754
G1 X127.044 Y84.197 E0.01754
G1 X127.878 Y84.542 E0.01663
G1 X114.213 Y98.207 E0.35579
G1 X104.268 Y88.262 E0.25895
G1 X104.268 Y69.312 E0.34888
G1 X106.591 Y66.989 E0.06049
G1 X106.240 Y66.638 F6000.000
G1 X114.213 Y58.664 E0.20760 F1920.000
G1 X128.849 Y73.301 E0.38107
G1 X128.078 Y73.486 E0.01461 F1920.000
G1 X127.270 Y73.821 E0.01610
G1 X126.524 Y74.278 E0.01610
G1 X125.859 Y74.846 E0.01610
G1 X125.296 Y75.505 E0.01596
G1 X124.834 Y76.256 E0.01623
G1 X124.499 Y77.064 E0.01611
G1 X124.295 Y77.915 E0.01610
G1 X124.226 Y78.787 E0.01610
G1 X124.295 Y79.659 E0.01610
G1 X124.499 Y80.509 E0.01610
G1 X124.834 Y81.317 E0.01610
G1 X125.291 Y82.063 E0.01610
G1 X125.859 Y82.728 E0.01610
G1 X126.524 Y83.296 E0.01610
G1 X127.270 Y83.753 E0.01610
G1 X128.078 Y84.088 E0.01610
G1 X128.849 Y84.273 E0.01461
G1 X114.213 Y98.909 E0.38107
G1 X103.771 Y88.467 E0.27187
G1 X103.771 Y69.106 E0.35645
G1 X106.198 Y66.680 E0.06317
G1 X105.847 Y66.329 F6000.000
G1 X114.213 Y57.962 E0.21784 F1920.000
G1 X129.975 Y73.725 E0.41039
G1 X129.800 Y73.711 E0.00324 F1920.000
G1 X129.006 Y73.773 E0.01466
G1 X128.231 Y73.959 E0.01466
G1 X127.496 Y74.264 E0.01466
G1 X126.816 Y74.680 E0.01466
G1 X126.211 Y75.198 E0.01466
G1 X125.698 Y75.798 E0.01453
G1 X125.278 Y76.482 E0.01480
G1 X124.973 Y77.218 E0.01467
G1 X124.787 Y77.993 E0.01466
G1 X124.724 Y78.787 E0.01466
G1 X124.787 Y79.581 E0.01466
G1 X124.973 Y80.355 E0.01466
G1 X125.277 Y81.091 E0.01466
G1 X125.694 Y81.770 E0.01466
G1 X126.211 Y82.376 E0.01466
G1 X126.816 Y82.893 E0.01466
G1 X127.496 Y83.309 E0.01466
G1 X128.231 Y83.614 E0.01466
G1 X129.006 Y83.800 E0.01466
G1 X129.800 Y83.863 E0.01466
G1 X129.975 Y83.849 E0.00324
G1 X114.213 Y99.611 E0.41040
G1 X103.275 Y88.673 E0.28479
G1 X103.275 Y68.901 E0.36402
G1 X105.804 Y66.372 E0.06585
G1 X106.233 Y66.433 F6000.000
G1 F4800
G1 X112.875 Y59.300 E-2.37500
G1 E-0.12500 F1200.00000
G1 X105.537 Y137.958 F6000.000
G1 E2.50000 F1200.00000
G1 X104.268 Y136.688 E0.03305 F1920.000
G1 X104.268 Y117.738 E0.34888
G1 X114.213 Y107.793 E0.25895
G1 X127.878 Y121.458 E0.35579
G1 X127.044 Y121.803 E0.01663 F1920.000
G1 X126.231 Y122.301 E0.01754
G1 X125.507 Y122.920 E0.01754
G1 X124.893 Y123.638 E0.01739
G1 X124.391 Y124.456 E0.01767
G1 X124.026 Y125.337 E0.01756
G1 X123.803 Y126.263 E0.01754
G1 X123.728 Y127.213 E0.01754
G1 X123.803 Y128.163 E0.01754
G1 X124.026 Y129.089 E0.01754
G1 X124.390 Y129.970 E0.01754
G1 X124.888 Y130.782 E0.01754
G1 X125.507 Y131.506 E0.01754
G1 X126.231 Y132.125 E0.01754
G1 X127.044 Y132.623 E0.01754
G1 X127.878 Y132.969 E0.01663
G1 X114.213 Y146.634 E0.35579
G1 X105.580 Y138.000 E0.22479
G1 X105.229 Y138.351 F6000.000
G1 X103.771 Y136.894 E0.03794 F1920.000
G1 X103.771 Y117.533 E0.35645
G1 X114.213 Y107.091 E0.27187
G1 X128.849 Y121.727 E0.38107
G1 X128.078 Y121.912 E0.01461 F1920.000
G1 X127.270 Y122.247 E0.01610
G1 X126.524 Y122.704 E0.01610
G1 X125.859 Y123.272 E0.01610
G1 X125.296 Y123.931 E0.01596
G1 X124.834 Y124.682 E0.01623
G1 X124.499 Y125.491 E0.01611
G1 X124.295 Y126.341 E0.01610
G1 X124.226 Y127.213 E0.01610
G1 X124.295 Y128.085 E0.01610
G1 X124.499 Y128.936 E0.01610
G1 X124.834 Y129.744 E0.01610
G1 X125.291 Y130.489 E0.01610
G1 X125.859 Y131.154 E0.01610
G1 X126.524 Y131.722 E0.01610
G1 X127.270 Y132.179 E0.01610
G1 X128.078 Y132.514 E0.01610
G1 X128.849 Y132.699 E0.01461
G1 X114.213 Y147.336 E0.38107
G1 X105.271 Y138.393 E0.23282
G1 X104.920 Y138.744 F6000.000
G1 X103.275 Y137.099 E0.04283 F1920.000
G1 X103.275 Y117.327 E0.36402
G1 X114.213 Y106.389 E0.28479
G1 X129.975 Y122.151 E0.41039
G1 X129.800 Y122.137 E0.00324 F1920.000
G1 X129.006 Y122.200 E0.01466
G1 X128.231 Y122.386 E0.01466
G1 X127.496 Y122.691 E0.01466
G1 X126.816 Y123.107 E0.01466
G1 X126.211 Y123.624 E0.01466
G1 X125.698 Y124.224 E0.01453
G1 X125.278 Y124.909 E0.01480
G1 X124.973 Y125.645 E0.01467
G1 X124.787 Y126.419 E0.01466
G1 X124.724 Y127.213 E0.01466
G1 X124.787 Y128.007 E0.01466
G1 X124.973 Y128.782 E0.01466
G1 X125.277 Y129.518 E0.01466
G1 X125.694 Y130.197 E0.01466
G1 X126.211 Y130.802 E0.01466
G1 X126.816 Y131.320 E0.01466
G1 X127.496 Y131.736 E0.01466
G1 X128.231 Y132.041 E0.01466
G1 X129.006 Y132.227 E0.01466
G1 X129.800 Y132.289 E0.01466
G1 X129.975 Y132.275 E0.00324
G1 X114.213 Y148.038 E0.41040
G1 X104.963 Y138.787 E0.24085
G1 X105.024 Y138.358 F6000.000
G1 F4800
G1 X103.275 Y137.099 E-0.56681
G1 F4800
G1 X103.275 Y129.486 E-1.80819
G1 E-0.12500 F1200.00000
G1 X76.751 Y142.899 F6000.000
G1 E2.50000 F1200.00000
G1 X70.540 Y136.688 E0.16171 F1920.000
G1 X70.540 Y117.738 E0.34888
G1 X80.485 Y107.793 E0.25895
G1 X94.150 Y121.458 E0.35579
G1 X93.316 Y121.803 E0.01663 F1920.000
G1 X92.503 Y122.301 E0.01754
G1 X91.779 Y122.920 E0.01754
G1 X91.165 Y123.638 E0.01739
G1 X90.663 Y124.456 E0.01767
G1 X90.298 Y125.337 E0.01756
G1 X90.075 Y126.263 E0.01754
G1 X90.000 Y127.213 E0.01754
G1 X90.075 Y128.163 E0.01754
G1 X90.298 Y129.089 E0.01754
G1 X90.662 Y129.970 E0.01754
G1 X91.160 Y130.782 E0.01754
G1 X91.779 Y131.506 E0.01754
G1 X92.503 Y132.125 E0.01754
G1 X93.316 Y132.623 E0.01754
G1 X94.150 Y132.969 E0.01663
G1 X80.485 Y146.634 E0.35579
G1 X76.793 Y142.941 E0.09613
G1 X76.442 Y143.292 F6000.000
G1 X70.043 Y136.894 E0.16660 F1920.000
G1 X70.043 Y117.533 E0.35645
G1 X80.485 Y107.091 E0.27187
G1 X95.121 Y121.727 E0.38107
G1 X94.350 Y121.912 E0.01461 F1920.000
G1 X93.542 Y122.247 E0.01610
G1 X92.796 Y122.704 E0.01610
G1 X92.131 Y123.272 E0.01610
G1 X91.568 Y123.931 E0.01596
G1 X91.106 Y124.682 E0.01623
G1 X90.771 Y125.491 E0.01611
G1 X90.567 Y126.341 E0.01610
G1 X90.498 Y127.213 E0.01610
G1 X90.567 Y128.085 E0.01610
G1 X90.771 Y128.936 E0.01610
G1 X91.106 Y129.744 E0.01610
G1 X91.563 Y130.489 E0.01610
G1 X92.131 Y131.154 E0.01610
G1 X92.796 Y131.722 E0.01610
G1 X93.542 Y132.179 E0.01610
G1 X94.350 Y132.514 E0.01610
G1 X95.121 Y132.699 E0.01461
G1 X80.485 Y147.336 E0.38107
G1 X76.484 Y143.335 E0.10417
G1 X76.133 Y143.686 F6000.000
G1 X69.547 Y137.099 E0.17149 F1920.000
G1 X69.547 Y117.327 E0.36402
G1 X80.485 Y106.389 E0.28479
G1 X96.247 Y122.151 E0.41039
G1 X96.072 Y122.137 E0.00324 F1920.000
G1 X95.278 Y122.200 E0.01466
G1 X94.503 Y122.386 E0.01466
G1 X93.768 Y122.691 E0.01466
G1 X93.088 Y123.107 E0.01466
G1 X92.483 Y123.624 E0.01466
G1 X91.970 Y124.224 E0.01453
G1 X91.550 Y124.909 E0.01480
G1 X91.245 Y125.645 E0.01467
G1 X91.059 Y126.419 E0.01466
G1 X90.996 Y127.213 E0.01466
G1 X91.059 Y128.007 E0.01466
G1 X91.245 Y128.782 E0.01466
G1 X91.549 Y129.518 E0.01466
G1 X91.966 Y130.197 E0.01466
G1 X92.483 Y130.802 E0.01466
G1 X93.088 Y131.320 E0.01466
G1 X93.768 Y131.736 E0.01466
G1 X94.503 Y132.041 E0.01466
G1 X95.278 Y132.227 E0.01466
G1 X96.072 Y132.289 E0.01466
G1 X96.247 Y132.275 E0.00324
G1 X80.485 Y148.038 E0.41040
G1 X76.176 Y143.728 E0.11220
G1 X76.237 Y143.299 F6000.000
M104 S285 ; set temperature
M140 S100 ; wait for bed temperature to be reached
G1 F4800
G1 X69.547 Y137.099 E-2.22649
G1 F4800
G1 X69.547 Y136.474 E-0.14851
G1 E-0.12500 F1200.00000
G1 Z0.450 F6000.000
G1 X71.524 Y89.216 F6000.000
G1 E2.50000 F1200.00000
G1 X70.561 Y88.253 E0.02050 F2400.000
G1 X70.561 Y69.321 E0.28487
G1 X80.485 Y59.397 E0.21118
G1 X94.112 Y73.024 E0.28998
G1 X93.306 Y73.358 E0.01313 F2400.000
G1 X92.490 Y73.857 E0.01439
G1 X91.764 Y74.478 E0.01439
G1 X91.157 Y75.188 E0.01404
G1 X90.644 Y76.018 E0.01469
G1 X90.277 Y76.904 E0.01443
G1 X90.054 Y77.834 E0.01439
G1 X89.979 Y78.787 E0.01439
G1 X90.054 Y79.740 E0.01439
G1 X90.277 Y80.670 E0.01439
G1 X90.643 Y81.553 E0.01439
G1 X91.143 Y82.368 E0.01439
G1 X91.764 Y83.095 E0.01439
G1 X92.489 Y83.715 E0.01436
G1 X93.292 Y84.210 E0.01419
G1 X94.112 Y84.550 E0.01336
G1 X80.485 Y98.177 E0.28998
G1 X71.567 Y89.258 E0.18978
G1 X71.208 Y89.617 F6000.000
G1 X70.054 Y88.463 E0.02456 F2400.000
G1 X70.054 Y69.111 E0.29119
G1 X80.485 Y58.680 E0.22197
G1 X95.100 Y73.295 E0.31100
G1 X94.346 Y73.476 E0.01167 F2400.000
G1 X93.537 Y73.811 E0.01319
G1 X92.789 Y74.269 E0.01319
G1 X92.123 Y74.838 E0.01318
G1 X91.568 Y75.488 E0.01286
G1 X91.097 Y76.250 E0.01349
G1 X90.761 Y77.061 E0.01321
G1 X90.556 Y77.913 E0.01319
G1 X90.488 Y78.787 E0.01319
G1 X90.556 Y79.660 E0.01319
G1 X90.761 Y80.513 E0.01319
G1 X91.096 Y81.322 E0.01319
G1 X91.554 Y82.069 E0.01319
G1 X92.123 Y82.736 E0.01319
G1 X92.789 Y83.304 E0.01317
G1 X93.524 Y83.757 E0.01299
G1 X94.346 Y84.098 E0.01340
G1 X95.100 Y84.279 E0.01167
G1 X80.485 Y98.894 E0.31100
G1 X71.251 Y89.659 E0.19651
G1 X70.892 Y90.018 F6000.000
G1 X69.547 Y88.673 E0.02862 F2400.000
G1 X69.547 Y68.901 E0.29751
G1 X80.485 Y57.962 E0.23276
G1 X80.735 Y58.213 E0.00532
G1 X96.247 Y73.725 E0.33009 F2400.000
G1 X96.072 Y73.711 E0.00265
G1 X95.278 Y73.773 E0.01198
G1 X94.503 Y73.959 E0.01198
G1 X93.768 Y74.264 E0.01199
G1 X93.088 Y74.680 E0.01198
G1 X92.483 Y75.198 E0.01198
G1 X91.979 Y75.787 E0.01167
G1 X91.550 Y76.482 E0.01229
G1 X91.245 Y77.218 E0.01199
G1 X91.059 Y77.993 E0.01198
G1 X90.996 Y78.787 E0.01198
G1 X91.059 Y79.581 E0.01198
G1 X91.245 Y80.355 E0.01198
G1 X91.549 Y81.091 E0.01199
G1 X91.966 Y81.770 E0.01198
G1 X92.483 Y82.376 E0.01198
G1 X93.088 Y82.893 E0.01198
G1 X93.755 Y83.304 E0.01179
G1 X94.503 Y83.614 E0.01219
G1 X95.278 Y83.800 E0.01198
G1 X96.072 Y83.863 E0.01198
G1 X96.247 Y83.849 E0.00265
G1 X80.485 Y99.611 E0.33541
G1 X70.934 Y90.060 E0.20323
G1 X70.996 Y89.632 F6000.000
G1 F4800
G1 X69.547 Y88.673 E-0.46603
G1 F4800
G1 X69.547 Y80.635 E-1.90897
G1 E-0.12500 F1200.00000
G1 X104.289 Y79.931 F6000.000
G1 E2.50000 F1200.00000
G1 X104.289 Y69.321 E0.15965 F2400.000
G1 X114.213 Y59.397 E0.21118
G1 X127.840 Y73.024 E0.28998
G1 X127.034 Y73.358 E0.01313 F2400.000
G1 X126.218 Y73.857 E0.01439
G1 X125.492 Y74.478 E0.01439
G1 X124.885 Y75.188 E0.01404
G1 X124.372 Y76.018 E0.01469
G1 X124.005 Y76.904 E0.01443
G1 X123.782 Y77.834 E0.01439
G1 X123.707 Y78.787 E0.01439
G1 X123.782 Y79.740 E0.01439
G1 X124.005 Y80.670 E0.01439
G1 X124.371 Y81.553 E0.01439
G1 X124.871 Y82.368 E0.01439
G1 X125.492 Y83.095 E0.01439
G1 X126.217 Y83.715 E0.01436
G1 X127.020 Y84.210 E0.01419
G1 X127.840 Y84.550 E0.01336
G1 X114.213 Y98.177 E0.28998
G1 X104.289 Y88.253 E0.21118
G1 X104.289 Y79.991 E0.12431
G1 X103.782 Y79.991 F6000.000
G1 X103.782 Y69.111 E0.16371 F2400.000
G1 X114.213 Y58.680 E0.22197
G1 X128.828 Y73.295 E0.31100
G1 X128.074 Y73.476 E0.01167 F2400.000
G1 X127.265 Y73.811 E0.01319
G1 X126.517 Y74.269 E0.01319
G1 X125.851 Y74.838 E0.01318
G1 X125.296 Y75.488 E0.01286
G1 X124.825 Y76.250 E0.01349
G1 X124.489 Y77.061 E0.01321
G1 X124.284 Y77.913 E0.01319
G1 X124.216 Y78.787 E0.01319
G1 X124.284 Y79.660 E0.01319
G1 X124.489 Y80.513 E0.01319
G1 X124.824 Y81.322 E0.01319
G1 X125.282 Y82.069 E0.01319
G1 X125.851 Y82.736 E0.01319
G1 X126.517 Y83.304 E0.01317
G1 X127.252 Y83.757 E0.01299
G1 X128.074 Y84.098 E0.01340
G1 X128.828 Y84.279 E0.01167
G1 X114.213 Y98.894 E0.31100
G1 X103.782 Y88.463 E0.22197
G1 X103.782 Y80.051 E0.12657
G1 X103.275 Y80.051 F6000.000
G1 X103.275 Y68.901 E0.16778 F2400.000
G1 X114.213 Y57.962 E0.23276
G1 X114.463 Y58.213 E0.00532
G1 X129.975 Y73.725 E0.33009 F2400.000
G1 X129.800 Y73.711 E0.00265
G1 X129.006 Y73.773 E0.01198
G1 X128.231 Y73.959 E0.01198
G1 X127.496 Y74.264 E0.01199
G1 X126.816 Y74.680 E0.01198
G1 X126.211 Y75.198 E0.01198
G1 X125.707 Y75.787 E0.01167
G1 X125.278 Y76.482 E0.01229
G1 X124.973 Y77.218 E0.01199
G1 X124.787 Y77.993 E0.01198
G1 X124.724 Y78.787 E0.01198
G1 X124.787 Y79.581 E0.01198
G1 X124.973 Y80.355 E0.01198
G1 X125.277 Y81.091 E0.01199
