; generated by Slic3r 1.3.0-dev on 2016-08-21 at 18:21:33

; external perimeters extrusion width = 0.45mm
; perimeters extrusion width = 0.45mm
; infill extrusion width = 0.45mm
; solid infill extrusion width = 0.45mm
; top infill extrusion width = 0.40mm

M107
M83  ; extruder relative mode
M104 S210 ; set extruder temp
M140 S55 ; set bed temp
M190 S55 ; wait for bed temp
M109 S210 ; wait for extruder temp
G28 W ; home all without mesh bed level
G80 ; mesh bed leveling
G1 Y-3.0 F1000.0 ; go outside pritn area
G1 X60.0 E9.0  F1000.0 ; intro line
G1 X100.0 E12.5  F1000.0 ; intro line
G21 ; set units to millimeters
G90 ; use absolute coordinates
M83 ; use relative distances for extrusion
G1 E-0.80000 F2100.00000
G1 Z0.150 F7200.000
G1 X116.827 Y95.577 F7200.000
G1 E0.80000 F2100.00000
M204 S1000
G1 F1800
G1 X117.882 Y94.545 E0.03571
G1 X119.225 Y94.199 E0.03353
G1 X130.773 Y94.199 E0.27929
G1 X132.196 Y94.591 E0.03571
G1 X133.177 Y95.586 E0.03377
G1 X138.951 Y105.584 E0.27923
G1 X139.322 Y107.013 E0.03571
G1 X138.951 Y108.360 E0.03379
G1 X133.308 Y118.133 E0.27293
G1 X133.142 Y118.407 E0.00774
G1 X132.064 Y119.417 E0.03571
G1 X130.773 Y119.735 E0.03217
G1 X119.225 Y119.735 E0.27930
G1 X117.801 Y119.342 E0.03571
G1 X116.822 Y118.348 E0.03374
G1 X111.050 Y108.361 E0.27898
G1 X110.678 Y106.932 E0.03571
G1 X111.049 Y105.585 E0.03380
G1 X116.796 Y95.629 E0.27802
G1 X117.162 Y95.772 F7200.000
G1 F1800
G1 X118.160 Y94.837 E0.03307
G1 X119.225 Y94.586 E0.02647
G1 X130.773 Y94.586 E0.27929
G1 X132.083 Y94.978 E0.03307
G1 X132.841 Y95.780 E0.02668
G1 X138.615 Y105.778 E0.27923
G1 X138.931 Y107.109 E0.03307
G1 X138.615 Y108.166 E0.02670
G1 X132.942 Y117.990 E0.27436
G1 X132.811 Y118.204 E0.00608
G1 X131.793 Y119.119 E0.03307
G1 X130.773 Y119.348 E0.02529
G1 X119.225 Y119.347 E0.27930
G1 X117.914 Y118.956 E0.03307
G1 X117.158 Y118.154 E0.02665
G1 X111.386 Y108.167 E0.27898
G1 X111.069 Y106.837 E0.03307
G1 X111.385 Y105.779 E0.02670
G1 X117.131 Y95.824 E0.27798
G1 F5760
G1 X118.160 Y94.837 E-0.49361
G1 F5760
G1 X118.908 Y94.661 E-0.26639
G1 E-0.04000 F2100.00000
G1 X135.865 Y106.968 F7200.000
G1 E0.80000 F2100.00000
G1 F1080
G1 X130.432 Y116.378 E0.26279
G1 X119.566 Y116.378 E0.26280
G1 X114.133 Y106.968 E0.26279
G1 X119.566 Y97.558 E0.26279
G1 X130.432 Y97.558 E0.26280
G1 X135.835 Y106.916 E0.26134
G1 X136.172 Y107.225 F7200.000
G1 F5760
G1 X134.747 Y108.822 E-0.76000
G1 E-0.04000 F2100.00000
G1 X130.652 Y116.750 F7200.000
G1 E0.80000 F2100.00000
G1 F1080
G1 X119.346 Y116.750 E0.27343
G1 X113.696 Y106.972 E0.27312
G1 X119.346 Y97.184 E0.27334
G1 X130.652 Y97.184 E0.27342
G1 X136.304 Y106.973 E0.27337
G1 X130.682 Y116.698 E0.27167
G1 X130.345 Y116.493 F7200.000
G1 F5760
G1 X128.488 Y116.708 E-0.76000
G1 E-0.04000 F2100.00000
G1 X126.722 Y109.950 F7200.000
G1 E0.80000 F2100.00000
G1 F720
G1 X123.278 Y109.950 E0.08329
G1 X121.555 Y106.968 E0.08329
G1 X123.278 Y103.984 E0.08333
G1 X126.722 Y103.984 E0.08328
G1 X128.443 Y106.968 E0.08331
G1 X126.752 Y109.898 E0.08182
G1 X126.946 Y110.338 F7200.000
G1 F720
G1 X123.054 Y110.338 E0.09412
G1 X121.107 Y106.968 E0.09412
G1 X123.054 Y103.596 E0.09417
G1 X126.946 Y103.596 E0.09411
G1 X128.891 Y106.968 E0.09414
G1 X126.976 Y110.286 E0.09265
G1 X126.618 Y110.109 F7200.000
G1 F5760
G1 X124.782 Y110.315 E-0.76000
G1 E-0.04000 F2100.00000
G1 X128.162 Y107.060 F7200.000
G1 E0.80000 F2100.00000
G1 F1440
G1 X125.313 Y104.211 E0.09914
G1 X124.755 Y104.211 E0.01373
G1 X127.958 Y107.414 E0.11145
G1 X127.754 Y107.768 E0.01005
G1 X124.197 Y104.211 E0.12376
G1 X123.639 Y104.211 E0.01373
G1 X127.549 Y108.122 E0.13608
G1 X127.345 Y108.475 E0.01005
G1 X123.267 Y104.397 E0.14191
G1 X123.063 Y104.751 E0.01005
G1 X127.141 Y108.829 E0.14191
G1 X126.937 Y109.183 E0.01005
G1 X122.859 Y105.105 E0.14191
G1 X122.654 Y105.459 E0.01005
G1 X126.733 Y109.537 E0.14192
G1 X126.361 Y109.723 E0.01023
G1 X122.450 Y105.812 E0.13608
G1 X122.246 Y106.166 E0.01005
G1 X125.803 Y109.723 E0.12377
G1 X125.245 Y109.723 E0.01373
G1 X122.042 Y106.520 E0.11146
G1 X121.837 Y106.874 E0.01005
G1 X124.687 Y109.723 E0.09915
G1 X124.129 Y109.723 E0.01373
G1 X122.568 Y108.162 E0.05430
G1 F5760
G1 X124.120 Y109.714 E-0.76000
G1 E-0.04000 F2100.00000
G1 X123.331 Y109.484 F7200.000
G1 E0.80000 F2100.00000
G1 F1440
G1 X123.571 Y109.723 E0.00832
G1 F5760
G1 X123.331 Y109.484 E-0.11715
G1 E-0.68285 F2100.00000
G1 X127.429 Y105.769 F7200.000
G1 E0.80000 F2100.00000
G1 F1440
G1 X125.871 Y104.211 E0.05420
G1 X126.429 Y104.211 E0.01373
G1 X126.668 Y104.450 E0.00832
M106 S216.75
G1 F5760
G1 X126.429 Y104.211 E-0.11711
G1 F5760
G1 X125.871 Y104.211 E-0.19327
G1 F5760
G1 X126.789 Y105.129 E-0.44962
G1 E-0.04000 F2100.00000
G1 Z0.350 F7200.000
G1 X130.418 Y116.308 F7200.000
G1 E0.80000 F2100.00000
M204 S800
G1 F2400
G1 X119.590 Y116.308 E0.36653
G1 X115.554 Y109.316 E0.27326
G1 X114.184 Y106.980 E0.09168
G1 X119.590 Y97.621 E0.36583
G1 X130.408 Y97.621 E0.36618
G1 X135.816 Y106.984 E0.36600
G1 X130.450 Y116.257 E0.36264
M204 S1000
G1 F5760
G1 X128.255 Y116.267 E-0.76000
G1 E-0.04000 F2100.00000
G1 X136.287 Y106.983 F7200.000
G1 E0.80000 F2100.00000
M204 S800
G1 F1800
G1 X131.016 Y116.111 E0.35678
G1 X130.647 Y116.716 E0.02399
G1 X119.355 Y116.715 E0.38222
G1 X115.202 Y109.521 E0.28117
G1 X113.713 Y106.981 E0.09965
G1 X119.355 Y97.214 E0.38180
G1 X130.643 Y97.214 E0.38209
G1 X136.256 Y106.931 E0.37985
M204 S1000
G1 X135.911 Y107.120 F7200.000
G1 X135.312 Y107.217 F7200.000
M106 S255
G1 F1200
G1 X135.451 Y106.837 E0.02052
G1 X135.161 Y106.335 E0.02940
G1 X134.039 Y109.416 E0.16633
M106 S216.75
G1 F5760
G1 X134.790 Y107.354 E-0.76000
G1 E-0.04000 F2100.00000
G1 X132.766 Y111.616 F7200.000
G1 E0.80000 F2100.00000
M106 S255
G1 F1200
G1 X134.871 Y105.832 E0.31215
G1 X134.581 Y105.330 E0.02940
G1 X131.493 Y113.815 E0.45796
M106 S216.75
G1 F5760
G1 X132.243 Y111.753 E-0.76000
G1 E-0.04000 F2100.00000
G1 X130.220 Y116.014 F7200.000
G1 E0.80000 F2100.00000
M106 S255
G1 F1200
G1 X134.291 Y104.828 E0.60378
G1 X134.001 Y104.326 E0.02940
G1 X129.720 Y116.090 E0.63496
G1 X129.247 Y116.090 E0.02397
G1 X133.711 Y103.824 E0.66206
G1 X133.421 Y103.322 E0.02940
G1 X128.774 Y116.090 E0.68916
G1 X128.302 Y116.090 E0.02397
G1 X133.131 Y102.820 E0.71625
G1 X132.842 Y102.318 E0.02941
G1 X127.829 Y116.090 E0.74335
G1 X127.356 Y116.090 E0.02397
G1 X132.552 Y101.816 E0.77045
G1 X132.262 Y101.314 E0.02940
G1 X126.884 Y116.090 E0.79755
G1 X126.411 Y116.090 E0.02397
G1 X131.972 Y100.812 E0.82465
G1 X131.682 Y100.310 E0.02941
G1 X125.939 Y116.090 E0.85174
G1 X125.466 Y116.090 E0.02397
G1 X131.392 Y99.808 E0.87884
G1 X131.102 Y99.306 E0.02940
G1 X124.993 Y116.090 E0.90594
G1 X124.521 Y116.090 E0.02397
G1 X130.812 Y98.804 E0.93304
G1 X130.522 Y98.302 E0.02940
G1 X124.048 Y116.090 E0.96014
G1 X123.575 Y116.090 E0.02397
G1 X130.215 Y97.849 E0.98458
G1 X129.745 Y97.839 E0.02380
G1 X123.103 Y116.090 E0.98509
G1 X122.630 Y116.090 E0.02397
G1 X129.273 Y97.839 E0.98509
G1 X128.800 Y97.839 E0.02397
G1 X125.596 Y106.642 E0.47516
M106 S216.75
G1 X125.244 Y106.310 F7200.000
M106 S255
G1 F1200
G1 X128.328 Y97.839 E0.45722
G1 X127.855 Y97.839 E0.02397
G1 X124.772 Y106.310 E0.45722
M106 S216.75
G1 F5760
G1 X125.522 Y104.248 E-0.76000
G1 E-0.04000 F2100.00000
G1 X124.410 Y107.305 F7200.000
G1 E0.80000 F2100.00000
M106 S255
G1 F1200
G1 X121.212 Y116.090 E0.47418
G1 X120.740 Y116.090 E0.02397
G1 X127.382 Y97.839 E0.98508
G1 X126.910 Y97.839 E0.02397
G1 X120.267 Y116.090 E0.98508
G1 X119.796 Y116.085 E0.02389
G1 X126.437 Y97.839 E0.98483
G1 X125.964 Y97.839 E0.02397
G1 X119.485 Y115.643 E0.96095
G1 X119.195 Y115.140 E0.02941
G1 X125.492 Y97.839 E0.93385
G1 X125.019 Y97.839 E0.02397
G1 X118.905 Y114.638 E0.90675
G1 X118.615 Y114.136 E0.02941
G1 X124.547 Y97.839 E0.87964
G1 X124.074 Y97.839 E0.02397
G1 X118.325 Y113.634 E0.85254
G1 X118.035 Y113.132 E0.02941
G1 X123.601 Y97.839 E0.82543
G1 X123.129 Y97.839 E0.02397
G1 X117.745 Y112.630 E0.79833
G1 X117.456 Y112.127 E0.02941
G1 X122.656 Y97.839 E0.77122
G1 X122.183 Y97.839 E0.02397
G1 X117.166 Y111.625 E0.74412
G1 X116.876 Y111.123 E0.02941
G1 X121.711 Y97.839 E0.71701
G1 X121.238 Y97.839 E0.02397
G1 X116.586 Y110.621 E0.68991
G1 X116.296 Y110.119 E0.02941
G1 X120.766 Y97.839 E0.66280
G1 X120.293 Y97.839 E0.02397
G1 X116.006 Y109.617 E0.63570
G1 X115.716 Y109.116 E0.02936
G1 X119.799 Y97.897 E0.60557
M106 S216.75
G1 F5760
G1 X119.049 Y99.959 E-0.76000
G1 E-0.04000 F2100.00000
G1 X118.522 Y100.109 F7200.000
G1 E0.80000 F2100.00000
M106 S255
G1 F1200
G1 X115.424 Y108.619 E0.45931
G1 X115.133 Y108.121 E0.02924
G1 X117.244 Y102.321 E0.31305
M106 S216.75
G1 F5760
G1 X116.493 Y104.383 E-0.76000
G1 E-0.04000 F2100.00000
G1 X115.966 Y104.534 F7200.000
G1 E0.80000 F2100.00000
M106 S255
G1 F1200
G1 X114.841 Y107.624 E0.16679
G1 X114.550 Y107.127 E0.02924
G1 X114.688 Y106.746 E0.02053
M106 S216.75
G1 F5760
G1 X114.550 Y107.127 E-0.14017
G1 F5760
G1 X114.841 Y107.624 E-0.19968
G1 F5760
G1 X115.256 Y106.484 E-0.42014
G1 E-0.04000 F2100.00000
G1 X124.766 Y107.624 F7200.000
G1 E0.80000 F2100.00000
M106 S255
G1 F1200
G1 X121.685 Y116.090 E0.45694
G1 X122.158 Y116.090 E0.02397
G1 X125.239 Y107.624 E0.45694
M106 S216.75
G1 X125.111 Y107.451 F7200.000
M204 S2000
G1 F2400
G1 X125.358 Y107.204 E0.01223
G1 X125.376 Y106.590 E0.02145
G1 X124.623 Y107.344 E0.03727
G1 X124.642 Y106.731 E0.02147
G1 X124.889 Y106.483 E0.01223
M204 S1000
G1 F5760
G1 X124.642 Y106.731 E-0.12115
G1 F5760
G1 X124.623 Y107.344 E-0.21266
G1 F5760
G1 X125.376 Y106.590 E-0.36920
G1 F5760
G1 X125.371 Y106.755 E-0.05699
G1 E-0.04000 F2100.00000
G1 Z0.550 F7200.000
G1 X135.816 Y106.996 F7200.000
G1 E0.80000 F2100.00000
M204 S800
G1 F2400
G1 X131.015 Y115.309 E0.32494
G1 X130.418 Y116.286 E0.03877
G1 X119.590 Y116.286 E0.36653
G1 X116.798 Y111.449 E0.18903
G1 X114.184 Y106.991 E0.17493
G1 X119.590 Y97.637 E0.36567
G1 X130.408 Y97.637 E0.36619
G1 X135.785 Y106.944 E0.36381
M204 S1000
G1 X136.287 Y106.994 F7200.000
M204 S800
G1 F1800
G1 X131.365 Y115.517 E0.33313
G1 X130.647 Y116.694 E0.04667
G1 X119.355 Y116.693 E0.38222
G1 X116.446 Y111.654 E0.19694
G1 X113.713 Y106.992 E0.18290
G1 X119.355 Y97.230 E0.38164
G1 X130.643 Y97.230 E0.38209
G1 X136.256 Y106.942 E0.37969
M204 S1000
G1 X135.911 Y107.131 F7200.000
G1 F5760
G1 X135.169 Y108.848 E-0.76000
G1 E-0.04000 F2100.00000
G1 X135.096 Y106.346 F7200.000
G1 E0.80000 F2100.00000
M204 S2000
G1 F2400
G1 X126.628 Y97.877 E0.40778
G1 X126.048 Y97.877 E0.01972
G1 X135.426 Y107.255 E0.45153
G1 X135.214 Y107.622 E0.01443
G1 X125.469 Y97.877 E0.46920
G1 X124.890 Y97.877 E0.01972
G1 X135.002 Y107.989 E0.48688
G1 X134.785 Y108.350 E0.01437
G1 X124.311 Y97.877 E0.50430
G1 X123.732 Y97.877 E0.01972
G1 X134.572 Y108.717 E0.52196
G1 X134.360 Y109.084 E0.01443
G1 X123.153 Y97.877 E0.53962
G1 X122.574 Y97.877 E0.01972
G1 X134.148 Y109.451 E0.55728
G1 X133.935 Y109.818 E0.01443
G1 X121.995 Y97.877 E0.57494
G1 X121.416 Y97.877 E0.01972
G1 X133.723 Y110.184 E0.59260
G1 X133.511 Y110.551 E0.01443
G1 X120.837 Y97.877 E0.61026
G1 X120.258 Y97.877 E0.01972
G1 X133.298 Y110.918 E0.62792
G1 X133.094 Y111.293 E0.01453
G1 X119.701 Y97.899 E0.64490
G1 X119.475 Y98.252 E0.01427
G1 X132.882 Y111.660 E0.64558
G1 X132.670 Y112.027 E0.01443
G1 X119.263 Y98.619 E0.64559
G1 X119.051 Y98.986 E0.01443
G1 X132.458 Y112.394 E0.64559
G1 X132.246 Y112.761 E0.01443
G1 X118.838 Y99.353 E0.64560
G1 X118.626 Y99.720 E0.01443
G1 X132.034 Y113.128 E0.64560
G1 X131.822 Y113.495 E0.01443
G1 X118.414 Y100.087 E0.64561
G1 X118.202 Y100.454 E0.01443
G1 X131.610 Y113.862 E0.64561
G1 X131.399 Y114.230 E0.01443
G1 X117.990 Y100.821 E0.64562
G1 X117.778 Y101.188 E0.01443
G1 X131.187 Y114.597 E0.64563
G1 X130.972 Y114.961 E0.01440
G1 X117.566 Y101.555 E0.64549
G1 X117.354 Y101.922 E0.01443
G1 X130.751 Y115.319 E0.64507
G1 X130.538 Y115.686 E0.01443
G1 X117.142 Y102.289 E0.64506
G1 X116.930 Y102.656 E0.01443
G1 X130.306 Y116.032 E0.64405
G1 X129.741 Y116.047 E0.01922
G1 X116.718 Y103.023 E0.62709
G1 X116.505 Y103.390 E0.01443
G1 X129.162 Y116.047 E0.60942
G1 X128.583 Y116.047 E0.01972
G1 X116.293 Y103.757 E0.59175
G1 X116.081 Y104.124 E0.01443
G1 X128.004 Y116.047 E0.57407
G1 X127.425 Y116.047 E0.01972
G1 X115.869 Y104.491 E0.55640
G1 X115.657 Y104.858 E0.01443
G1 X126.846 Y116.046 E0.53873
G1 X126.266 Y116.046 E0.01972
G1 X115.445 Y105.225 E0.52105
G1 X115.233 Y105.592 E0.01443
G1 X125.687 Y116.046 E0.50338
G1 X125.108 Y116.046 E0.01972
G1 X115.021 Y105.959 E0.48571
G1 X114.809 Y106.326 E0.01443
G1 X124.529 Y116.046 E0.46804
G1 X123.950 Y116.046 E0.01972
G1 X114.597 Y106.693 E0.45036
G1 X114.842 Y107.517 E0.02927
G1 X123.371 Y116.046 E0.41068
G1 X122.792 Y116.046 E0.01972
G1 X115.662 Y108.917 E0.34328
M204 S1000
G1 F5760
G1 X117.214 Y110.468 E-0.76000
G1 E-0.04000 F2100.00000
G1 X116.467 Y110.301 F7200.000
G1 E0.80000 F2100.00000
M204 S2000
G1 F2400
G1 X122.213 Y116.046 E0.27664
G1 X121.633 Y116.046 E0.01972
G1 X117.277 Y111.690 E0.20976
M204 S1000
G1 F5760
G1 X118.829 Y113.241 E-0.76000
G1 E-0.04000 F2100.00000
G1 X118.068 Y113.059 F7200.000
G1 E0.80000 F2100.00000
M204 S2000
G1 F2400
G1 X121.054 Y116.046 E0.14380
G1 X120.475 Y116.046 E0.01972
G1 X118.858 Y114.429 E0.07785
M204 S1000
G1 F5760
G1 X120.410 Y115.981 E-0.76000
G1 E-0.04000 F2100.00000
G1 X119.649 Y115.799 F7200.000
G1 E0.80000 F2100.00000
M204 S2000
G1 F2400
G1 X119.896 Y116.046 E0.01190
M204 S1000
G1 F5760
G1 X119.649 Y115.799 E-0.12110
G1 E-0.67890 F2100.00000
G1 X134.305 Y104.976 F7200.000
G1 E0.80000 F2100.00000
M204 S2000
G1 F2400
G1 X127.207 Y97.877 E0.34180
G1 X127.786 Y97.877 E0.01972
G1 X133.514 Y103.606 E0.27583
M204 S1000
G1 F5760
G1 X131.963 Y102.054 E-0.76000
G1 E-0.04000 F2100.00000
G1 X132.723 Y102.235 F7200.000
G1 E0.80000 F2100.00000
M204 S2000
G1 F2400
G1 X128.365 Y97.877 E0.20985
G1 X128.944 Y97.877 E0.01972
G1 X131.932 Y100.865 E0.14387
M204 S1000
G1 F5760
G1 X130.380 Y99.313 E-0.76000
G1 E-0.04000 F2100.00000
G1 X131.141 Y99.495 F7200.000
G1 E0.80000 F2100.00000
M204 S2000
G1 F2400
G1 X129.523 Y97.877 E0.07789
G1 X130.102 Y97.877 E0.01972
G1 X130.349 Y98.124 E0.01191
M204 S1000
G1 F5760
G1 X130.102 Y97.877 E-0.12116
G1 F5760
G1 X129.523 Y97.877 E-0.20057
G1 F5760
G1 X130.418 Y98.772 E-0.43827
G1 E-0.04000 F2100.00000
G1 Z0.750 F7200.000
G1 X135.816 Y107.007 F7200.000
G1 E0.80000 F2100.00000
M204 S800
G1 F2400
G1 X131.365 Y114.715 E0.30130
G1 X130.418 Y116.264 E0.06145
G1 X119.590 Y116.263 E0.36653
G1 X118.042 Y113.582 E0.10480
G1 X114.184 Y107.002 E0.25817
G1 X119.590 Y97.654 E0.36550
G1 X130.408 Y97.654 E0.36619
G1 X135.785 Y106.955 E0.36365
M204 S1000
G1 X136.287 Y107.005 F7200.000
M204 S800
G1 F1800
G1 X131.715 Y114.923 E0.30949
G1 X130.647 Y116.672 E0.06935
G1 X119.355 Y116.670 E0.38222
G1 X117.690 Y113.786 E0.11271
G1 X113.713 Y107.003 E0.26615
G1 X119.355 Y97.247 E0.38148
G1 X130.643 Y97.247 E0.38210
G1 X136.256 Y106.953 E0.37953
M204 S1000
G1 X135.911 Y107.142 F7200.000
G1 F5760
G1 X135.170 Y108.860 E-0.76000
G1 E-0.04000 F2100.00000
G1 X135.218 Y107.453 F7200.000
G1 E0.80000 F2100.00000
M204 S2000
G1 F2400
G1 X126.647 Y116.024 E0.41242
G1 X126.068 Y116.024 E0.01968
G1 X135.394 Y106.698 E0.44871
G1 X135.180 Y106.334 E0.01439
G1 X125.489 Y116.024 E0.46626
G1 X124.911 Y116.024 E0.01968
G1 X134.968 Y105.967 E0.48389
G1 X134.756 Y105.600 E0.01441
G1 X124.332 Y116.024 E0.50153
G1 X123.754 Y116.024 E0.01968
G1 X134.544 Y105.233 E0.51918
G1 X134.332 Y104.867 E0.01441
G1 X123.175 Y116.024 E0.53683
G1 X122.597 Y116.024 E0.01968
G1 X134.121 Y104.500 E0.55447
G1 X133.909 Y104.133 E0.01441
G1 X122.018 Y116.024 E0.57212
G1 X121.439 Y116.024 E0.01968
G1 X133.697 Y103.766 E0.58977
G1 X133.485 Y103.399 E0.01441
G1 X120.861 Y116.024 E0.60741
G1 X120.282 Y116.024 E0.01968
G1 X133.273 Y103.032 E0.62506
G1 X133.062 Y102.666 E0.01441
G1 X119.714 Y116.014 E0.64223
G1 X119.484 Y115.664 E0.01422
G1 X132.850 Y102.299 E0.64306
G1 X132.638 Y101.932 E0.01441
G1 X119.273 Y115.297 E0.64306
G1 X119.061 Y114.930 E0.01441
G1 X132.426 Y101.565 E0.64306
G1 X132.214 Y101.198 E0.01441
G1 X118.849 Y114.563 E0.64306
G1 X118.637 Y114.197 E0.01441
