; generated by Slic3r 1.3.0-dev on 2017-01-01 at 13:39:58

; external perimeters extrusion width = 0.45mm
; perimeters extrusion width = 0.45mm
; infill extrusion width = 0.45mm
; solid infill extrusion width = 0.45mm
; top infill extrusion width = 0.40mm

M107
M115 U3.0.8 ; tell printer latest fw version
M83  ; extruder relative mode
M104 S210 ; set extruder temp
M140 S55 ; set bed temp
M190 S55 ; wait for bed temp
M109 S210 ; wait for extruder temp
G28 W ; home all without mesh bed level
G80 ; mesh bed leveling
G1 Y-3.0 F1000.0 ; go outside pritn area
G1 X60.0 E9.0  F1000.0 ; intro line
G1 X100.0 E12.5  F1000.0 ; intro line
G21 ; set units to millimeters
G90 ; use absolute coordinates
M83 ; use relative distances for extrusion
G1 E-0.80000 F2100.00000
G1 Z0.150 F7200.000
G1 X112.097 Y86.838 F7200.000
G1 E0.80000 F2100.00000
M204 S1000
G1 F1800
G1 X112.667 Y86.283 E0.01924
G1 X115.285 Y84.305 E0.07936
G1 X117.180 Y83.666 E0.04837
G1 X137.474 Y83.592 E0.49081
G1 X139.374 Y84.217 E0.04837
G1 X142.007 Y86.176 E0.07936
G1 X142.580 Y86.726 E0.01923
G1 X143.263 Y88.149 E0.03817
G1 X143.082 Y89.976 E0.04439
G1 X131.272 Y118.453 E0.74561
G1 X130.322 Y119.714 E0.03817
G1 X128.425 Y120.404 E0.04884
G1 X127.498 Y120.426 E0.02243
G1 X126.498 Y120.411 E0.02417
G1 X124.977 Y119.992 E0.03817
G1 X123.637 Y118.481 E0.04884
G1 X111.619 Y90.090 E0.74561
G1 X111.386 Y88.530 E0.03817
G1 X112.074 Y86.893 E0.04293
G1 X112.395 Y87.086 F7200.000
G1 F1800
G1 X112.901 Y86.592 E0.01707
G1 X115.519 Y84.615 E0.07936
G1 X117.182 Y84.054 E0.04244
G1 X137.476 Y83.980 E0.49081
G1 X139.142 Y84.529 E0.04244
G1 X141.775 Y86.487 E0.07936
G1 X142.284 Y86.976 E0.01706
G1 X142.900 Y88.318 E0.03571
G1 X142.724 Y89.827 E0.03674
G1 X130.913 Y118.305 E0.74561
G1 X130.005 Y119.469 E0.03571
G1 X128.415 Y120.016 E0.04066
G1 X127.492 Y120.038 E0.02234
G1 X126.505 Y120.023 E0.02387
G1 X125.088 Y119.607 E0.03571
G1 X123.994 Y118.330 E0.04066
G1 X111.976 Y89.939 E0.74561
G1 X111.783 Y88.475 E0.03571
G1 X112.371 Y87.140 E0.03528
G1 X112.694 Y87.333 F7200.000
G1 F1800
G1 X113.134 Y86.902 E0.01490
G1 X115.753 Y84.924 E0.07936
G1 X117.183 Y84.442 E0.03651
G1 X137.477 Y84.368 E0.49081
G1 X138.911 Y84.840 E0.03651
G1 X141.544 Y86.798 E0.07936
G1 X141.987 Y87.226 E0.01489
G1 X142.531 Y88.480 E0.03307
G1 X142.366 Y89.678 E0.02925
G1 X130.555 Y118.156 E0.74561
G1 X129.691 Y119.216 E0.03307
G1 X128.406 Y119.629 E0.03264
G1 X127.486 Y119.650 E0.02226
G1 X126.511 Y119.635 E0.02358
G1 X125.207 Y119.222 E0.03307
G1 X124.351 Y118.179 E0.03264
G1 X112.333 Y89.788 E0.74561
G1 X112.183 Y88.429 E0.03307
G1 X112.669 Y87.387 E0.02779
G1 F5760
G1 X112.735 Y87.283 E-0.04287
G1 F5760
G1 X113.134 Y86.902 E-0.19113
G1 F5760
G1 X114.346 Y85.987 E-0.52600
G1 E-0.04000 F2100.00000
G1 X114.863 Y89.007 F7200.000
G1 E0.80000 F2100.00000
G1 F1080
G1 X115.913 Y88.970 E0.02542
G1 X116.074 Y88.002 E0.02373
G1 X117.178 Y88.017 E0.02672
G1 X117.313 Y87.202 E0.01999
G1 X119.027 Y88.614 E0.05370
G1 X119.109 Y88.664 E0.00233
G1 X122.719 Y91.728 E0.11451
G1 X122.959 Y91.686 E0.00588
G1 X127.359 Y92.326 E0.10753
G1 X131.754 Y91.656 E0.10752
G1 X131.994 Y91.696 E0.00589
G1 X135.582 Y88.604 E0.11456
G1 X135.664 Y88.553 E0.00233
G1 X137.367 Y87.129 E0.05370
G1 X137.508 Y87.943 E0.01999
G1 F1080
G1 X138.613 Y87.920 E0.02672
G1 X138.780 Y88.886 E0.02373
G1 X139.831 Y88.916 E0.02542
G1 X134.405 Y98.277 E0.26168
G1 X134.384 Y98.390 E0.00277
G1 X129.381 Y101.256 E0.13944
G1 X129.574 Y101.442 E0.00646
G1 X128.157 Y117.036 E0.37869
G1 X127.449 Y117.052 E0.01713
G1 X126.741 Y117.041 E0.01713
G1 X125.211 Y101.458 E0.37869
G1 X125.402 Y101.271 E0.00646
G1 X120.379 Y98.441 E0.13944
G1 X120.357 Y98.328 E0.00277
G1 X114.893 Y89.059 E0.26023
G1 X114.863 Y89.007 F7200.000
G1 X115.524 Y89.372 F7200.000
G1 F1440
G1 X116.244 Y89.346 E0.01741
G1 X116.402 Y88.394 E0.02333
G1 X117.506 Y88.410 E0.02672
G1 X117.586 Y87.929 E0.01178
G1 X118.802 Y88.931 E0.03811
G1 X118.882 Y88.980 E0.00226
G1 X122.607 Y92.141 E0.11816
G1 X122.964 Y92.079 E0.00878
G1 X127.360 Y92.718 E0.10743
G1 X131.751 Y92.049 E0.10742
G1 X132.109 Y92.109 E0.00878
G1 X135.811 Y88.918 E0.11820
G1 X135.891 Y88.869 E0.00226
G1 X137.100 Y87.858 E0.03811
G1 X137.183 Y88.338 E0.01178
G1 F1440
G1 X138.287 Y88.314 E0.02672
G1 X138.452 Y89.265 E0.02333
G1 X139.172 Y89.285 E0.01741
G1 X134.036 Y98.143 E0.24762
G1 X128.741 Y101.177 E0.14759
G1 X129.171 Y101.592 E0.01446
G1 X127.802 Y116.656 E0.36583
G1 X127.093 Y116.659 E0.01715
G1 X125.615 Y101.605 E0.36583
G1 X126.042 Y101.186 E0.01446
G1 X120.725 Y98.191 E0.14759
G1 X115.554 Y89.424 E0.24617
G1 F5760
G1 X115.524 Y89.372 E-0.02078
G1 F5760
G1 X116.244 Y89.346 E-0.24938
G1 F5760
G1 X116.402 Y88.394 E-0.33415
G1 F5760
G1 X116.851 Y88.401 E-0.15569
G1 E-0.04000 F2100.00000
G1 X128.227 Y107.698 F7200.000
G1 E0.80000 F2100.00000
G1 F1440
G1 X127.445 Y116.277 E0.20833
G1 X126.019 Y101.752 E0.35297
G1 X126.682 Y101.102 E0.02245
G1 X121.007 Y97.905 E0.15752
G1 X116.186 Y89.736 E0.22941
G1 X116.575 Y89.722 E0.00941
G1 X116.730 Y88.787 E0.02294
G1 X117.834 Y88.802 E0.02672
G1 X117.859 Y88.656 E0.00358
G1 X118.655 Y89.295 E0.02469
G1 X122.494 Y92.554 E0.12180
G1 X122.970 Y92.471 E0.01167
G1 X127.362 Y93.111 E0.10733
G1 X131.748 Y92.442 E0.10732
G1 X132.225 Y92.521 E0.01168
G1 X136.041 Y89.232 E0.12185
G1 X136.832 Y88.587 E0.02469
G1 X136.858 Y88.733 E0.00358
G1 F1440
G1 X137.962 Y88.709 E0.02672
G1 X138.124 Y89.644 E0.02294
G1 X138.513 Y89.655 E0.00941
G1 X133.751 Y97.859 E0.22941
G1 X128.100 Y101.097 E0.15752
G1 X128.768 Y101.742 E0.02245
G1 X128.232 Y107.638 E0.14319
G1 F5760
G1 X128.034 Y109.824 E-0.76000
G1 E-0.04000 F2100.00000
G1 X127.432 Y112.360 F7200.000
G1 E0.80000 F2100.00000
G1 F1440
G1 X127.434 Y112.901 E0.00976
G1 F1440
G1 X127.436 Y113.443 E0.00671
G1 F1440
G1 X127.438 Y113.984 E0.00366
G1 F5760
G1 X127.436 Y113.443 E-0.18755
G1 E-0.61245 F2100.00000
G1 X127.462 Y112.133 F7200.000
G1 E0.80000 F2100.00000
G1 F1440
G1 X127.255 Y111.926 E0.00716
G1 X127.636 Y111.752 E0.01025
G1 X127.195 Y111.310 E0.01528
G1 X127.134 Y110.695 E0.01515
G1 X127.682 Y111.243 E0.01897
G1 X127.728 Y110.734 E0.01251
G1 X127.074 Y110.079 E0.02267
G1 X127.013 Y109.463 E0.01515
G1 X127.775 Y110.225 E0.02636
G1 X127.821 Y109.716 E0.01251
G1 X126.953 Y108.848 E0.03006
G1 X126.892 Y108.232 E0.01515
G1 X127.867 Y109.207 E0.03375
G1 X127.914 Y108.698 E0.01251
G1 X126.832 Y107.616 E0.03745
G1 X126.772 Y107.001 E0.01515
G1 X127.960 Y108.189 E0.04115
G1 X128.006 Y107.680 E0.01251
G1 X126.711 Y106.385 E0.04484
G1 X126.651 Y105.770 E0.01515
G1 X128.052 Y107.171 E0.04854
G1 X128.099 Y106.662 E0.01251
G1 X126.590 Y105.154 E0.05223
G1 X126.530 Y104.538 E0.01515
G1 X128.145 Y106.154 E0.05593
G1 X128.191 Y105.645 E0.01251
G1 X126.469 Y103.923 E0.05962
G1 X126.409 Y103.307 E0.01515
G1 X128.238 Y105.136 E0.06332
G1 X128.284 Y104.627 E0.01251
G1 X126.348 Y102.691 E0.06702
G1 X126.288 Y102.076 E0.01515
G1 X128.330 Y104.118 E0.07071
G1 X128.377 Y103.609 E0.01251
G1 X126.408 Y101.641 E0.06814
G1 X126.689 Y101.366 E0.00961
G1 X128.423 Y103.100 E0.06004
G1 X128.469 Y102.591 E0.01251
G1 X126.969 Y101.091 E0.05194
G1 X126.633 Y100.755 F7200.000
G1 F1440
G1 X117.805 Y91.927 E0.30565
G1 F5760
G1 X119.356 Y93.478 E-0.76000
G1 E-0.04000 F2100.00000
G1 X118.604 Y93.282 F7200.000
G1 E0.80000 F2100.00000
G1 F1440
G1 X125.361 Y100.038 E0.23394
G1 F5760
G1 X123.809 Y98.487 E-0.76000
G1 E-0.04000 F2100.00000
G1 X124.089 Y99.322 F7200.000
G1 E0.80000 F2100.00000
G1 F1440
G1 X119.404 Y94.637 E0.16222
G1 F5760
G1 X120.956 Y96.188 E-0.76000
G1 E-0.04000 F2100.00000
G1 X120.204 Y95.992 F7200.000
G1 E0.80000 F2100.00000
G1 F1440
G1 X122.818 Y98.606 E0.09051
G1 F5760
G1 X121.266 Y97.054 E-0.76000
G1 E-0.04000 F2100.00000
G1 X121.546 Y97.889 F7200.000
G1 E0.80000 F2100.00000
G1 F1440
G1 X121.004 Y97.346 E0.01879
G1 F5760
G1 X121.546 Y97.889 E-0.26583
G1 E-0.53417 F2100.00000
G1 X122.530 Y92.766 F7200.000
G1 E0.80000 F2100.00000
G1 F1440
G1 X129.711 Y99.946 E0.24862
G1 X130.064 Y99.744 E0.00996
G1 X123.044 Y92.725 E0.24304
G1 X123.694 Y92.819 E0.01608
G1 X130.417 Y99.542 E0.23276
G1 X130.770 Y99.340 E0.00996
G1 X124.344 Y92.914 E0.22248
G1 X124.994 Y93.008 E0.01608
G1 X131.122 Y99.137 E0.21221
G1 X131.475 Y98.935 E0.00996
G1 X125.643 Y93.103 E0.20193
G1 X126.293 Y93.198 E0.01608
G1 X131.828 Y98.733 E0.19165
G1 X132.181 Y98.531 E0.00996
G1 X126.943 Y93.292 E0.18138
G1 X127.512 Y93.306 E0.01394
G1 X132.534 Y98.328 E0.17389
G1 X132.887 Y98.126 E0.00996
G1 X127.994 Y93.233 E0.16944
G1 X128.475 Y93.159 E0.01193
G1 X133.240 Y97.924 E0.16498
G1 X133.593 Y97.722 E0.00996
G1 X128.957 Y93.086 E0.16052
G1 X129.439 Y93.012 E0.01193
G1 X133.803 Y97.376 E0.15111
G1 X134.007 Y97.025 E0.00994
G1 X129.921 Y92.939 E0.14149
G1 X130.402 Y92.865 E0.01193
G1 X134.211 Y96.674 E0.13187
G1 X134.415 Y96.322 E0.00994
G1 X130.884 Y92.792 E0.12225
G1 X131.366 Y92.718 E0.01193
G1 X134.619 Y95.971 E0.11263
G1 X134.823 Y95.620 E0.00994
G1 X131.918 Y92.715 E0.10057
G1 X132.391 Y92.633 F7200.000
G1 F1440
G1 X135.026 Y95.269 E0.09124
G1 X135.230 Y94.917 E0.00994
G1 X132.689 Y92.376 E0.08798
G1 X132.988 Y92.119 E0.00964
G1 X135.434 Y94.566 E0.08471
G1 X135.638 Y94.215 E0.00994
G1 X133.286 Y91.862 E0.08145
G1 X133.584 Y91.605 E0.00964
G1 X135.842 Y93.863 E0.07819
G1 X136.046 Y93.512 E0.00994
G1 X133.882 Y91.348 E0.07492
G1 X134.180 Y91.091 E0.00964
G1 X136.250 Y93.161 E0.07166
G1 X136.454 Y92.809 E0.00994
G1 X134.478 Y90.834 E0.06839
G1 X134.777 Y90.577 E0.00964
G1 X136.658 Y92.458 E0.06513
G1 X136.862 Y92.107 E0.00994
G1 X135.075 Y90.320 E0.06186
G1 X135.373 Y90.063 E0.00964
G1 X137.066 Y91.756 E0.05860
G1 X137.269 Y91.404 E0.00994
G1 X135.671 Y89.806 E0.05534
G1 X135.969 Y89.549 E0.00964
G1 X137.473 Y91.053 E0.05207
G1 X137.677 Y90.702 E0.00994
G1 X136.270 Y89.295 E0.04871
G1 X136.576 Y89.046 E0.00966
G1 X137.881 Y90.350 E0.04518
G1 X137.909 Y89.823 E0.01293
G1 X137.040 Y88.954 E0.03008
G1 X137.584 Y88.943 E0.01331
G1 X137.793 Y89.152 E0.00723
G1 F5760
G1 X137.584 Y88.943 E-0.10221
G1 F5760
G1 X137.040 Y88.954 E-0.18835
G1 F5760
G1 X137.909 Y89.823 E-0.42551
G1 F5760
G1 X137.902 Y89.950 E-0.04393
G1 E-0.04000 F2100.00000
G1 X127.946 Y100.958 F7200.000
G1 E0.80000 F2100.00000
G1 F1440
G1 X116.781 Y89.793 E0.38658
G1 X116.860 Y89.316 E0.01182
G1 X128.299 Y100.755 E0.39607
G1 X128.652 Y100.553 E0.00996
G1 X117.119 Y89.021 E0.39930
G1 X117.682 Y89.028 E0.01379
G1 X129.005 Y100.351 E0.39203
G1 X129.358 Y100.149 E0.00996
G1 X120.264 Y91.054 E0.31488
G1 F5760
G1 X121.815 Y92.606 E-0.76000
G1 E-0.04000 F2100.00000
G1 X117.005 Y90.572 F7200.000
G1 E0.80000 F2100.00000
G1 F1440
G1 X128.515 Y102.082 E0.39854
M106 S216.75
G1 F5760
G1 X126.964 Y100.531 E-0.76000
G1 E-0.04000 F2100.00000
G1 Z0.350 F7200.000
G1 X129.237 Y101.455 F7200.000
G1 E0.80000 F2100.00000
M204 S800
G1 F1800
G1 X129.587 Y101.793 E0.01646
G1 X128.193 Y117.131 E0.52131
G1 X127.450 Y117.147 E0.02518
G1 X126.706 Y117.136 E0.02518
G1 X125.201 Y101.809 E0.52131
G1 X125.548 Y101.468 E0.01646
G1 X120.316 Y98.526 E0.20319
G1 X120.216 Y98.016 E0.01759
G1 X116.261 Y91.327 E0.26304
G1 X116.047 Y90.901 E0.01611
G1 X114.966 Y89.063 E0.07220
G1 X115.998 Y89.026 E0.03495
G1 X116.150 Y88.111 E0.03139
G1 X116.171 Y88.087 E0.00107
G1 X117.197 Y88.102 E0.03473
G1 X117.333 Y87.281 E0.02816
G1 X118.858 Y88.538 E0.06692
G1 X119.137 Y88.706 E0.01100
G1 X122.564 Y91.615 E0.15216
G1 X123.219 Y91.501 E0.02250
G1 X127.358 Y92.104 E0.14160
G1 X131.493 Y91.473 E0.14158
G1 X132.149 Y91.583 E0.02250
G1 X135.555 Y88.646 E0.15222
G1 X135.832 Y88.476 E0.01100
G1 X137.348 Y87.208 E0.06692
G1 X137.490 Y88.028 E0.02816
G1 F1800
G1 X138.516 Y88.006 E0.03473
G1 X138.537 Y88.029 E0.00107
G1 X138.695 Y88.943 E0.03139
G1 X139.728 Y88.972 E0.03495
G1 X138.660 Y90.819 E0.07220
G1 X138.450 Y91.246 E0.01611
G1 X134.543 Y97.963 E0.26304
G1 X134.448 Y98.474 E0.01759
G1 X129.289 Y101.425 E0.20116
M204 S1000
G1 X129.237 Y101.455 F7200.000
G1 X129.087 Y101.072 F7200.000
M204 S800
G1 F2400
G1 X128.564 Y101.371 E0.02039
G1 X129.164 Y101.950 E0.02822
G1 X127.821 Y116.732 E0.50241
G1 X127.075 Y116.735 E0.02523
G1 X125.625 Y101.963 E0.50241
G1 X126.220 Y101.379 E0.02822
G1 X120.679 Y98.263 E0.21517
G1 X120.603 Y97.869 E0.01360
G1 X116.618 Y91.131 E0.26495
G1 X116.405 Y90.707 E0.01609
G1 X115.663 Y89.445 E0.04953
G1 X116.345 Y89.421 E0.02310
G1 X116.498 Y88.499 E0.03163
G1 X117.541 Y88.514 E0.03531
G1 X117.619 Y88.044 E0.01611
G1 X118.622 Y88.871 E0.04401
G1 X118.898 Y89.038 E0.01090
G1 X122.446 Y92.049 E0.15752
G1 X123.224 Y91.914 E0.02675
G1 X127.360 Y92.515 E0.14145
G1 X131.490 Y91.885 E0.14143
G1 X132.270 Y92.016 E0.02676
G1 X135.796 Y88.976 E0.15758
G1 X136.070 Y88.807 E0.01090
G1 X137.068 Y87.973 E0.04401
G1 X137.149 Y88.442 E0.01611
G1 F2400
G1 X138.192 Y88.420 E0.03531
G1 X138.351 Y89.341 E0.03163
G1 X139.033 Y89.360 E0.02310
G1 X138.301 Y90.627 E0.04953
G1 X138.091 Y91.053 E0.01609
G1 X134.156 Y97.819 E0.26495
G1 X134.082 Y98.214 E0.01360
G1 X129.139 Y101.042 E0.19276
M204 S1000
G1 F5760
G1 X128.564 Y101.371 E-0.22939
G1 F5760
G1 X129.164 Y101.950 E-0.28879
G1 F5760
G1 X129.100 Y102.645 E-0.24182
G1 E-0.04000 F2100.00000
G1 X119.516 Y90.096 F7200.000
G1 E0.80000 F2100.00000
M204 S800
G1 F2400
G1 X122.328 Y92.483 E0.12483
G1 X123.230 Y92.326 E0.03101
G1 X127.361 Y92.927 E0.14130
G1 X131.487 Y92.298 E0.14128
G1 X132.391 Y92.448 E0.03102
G1 X136.037 Y89.306 E0.16293
G1 X136.309 Y89.139 E0.01079
G1 X136.787 Y88.738 E0.02111
G1 X136.807 Y88.856 E0.00405
G1 F2400
G1 X137.850 Y88.834 E0.03531
G1 X138.007 Y89.738 E0.03105
G1 X138.339 Y89.747 E0.01125
G1 X137.942 Y90.435 E0.02686
G1 X137.732 Y90.860 E0.01607
G1 X133.768 Y97.676 E0.26687
G1 X133.716 Y97.954 E0.00960
G1 X127.891 Y101.286 E0.22716
G1 X128.741 Y102.107 E0.03998
G1 X127.448 Y116.333 E0.48351
G1 X126.049 Y102.117 E0.48352
G1 X126.892 Y101.290 E0.03998
G1 X121.043 Y98.001 E0.22715
G1 X120.989 Y97.722 E0.00960
G1 X116.976 Y90.936 E0.26686
G1 X116.762 Y90.512 E0.01607
G1 X116.360 Y89.828 E0.02686
G1 X116.693 Y89.816 E0.01125
G1 X116.843 Y88.911 E0.03105
G1 X117.886 Y88.925 E0.03531
G1 X117.905 Y88.807 E0.00405
G1 X118.386 Y89.204 E0.02111
G1 X118.659 Y89.369 E0.01080
G1 X119.470 Y90.058 E0.03601
M204 S1000
G1 F5760
G1 X121.143 Y91.478 E-0.76000
G1 E-0.04000 F2100.00000
G1 X117.022 Y89.375 F7200.000
G1 E0.80000 F2100.00000
M204 S2000
G1 F2400
G1 X117.244 Y89.152 E0.01118
G1 X117.840 Y89.160 E0.02112
G1 X116.902 Y90.098 E0.04706
G1 X117.026 Y90.577 E0.01757
G1 X118.251 Y89.352 E0.06149
G1 X118.614 Y89.593 E0.01545
G1 X117.234 Y90.973 E0.06924
G1 X117.458 Y91.352 E0.01563
G1 X118.940 Y89.870 E0.07437
G1 X119.267 Y90.147 E0.01519
G1 X117.682 Y91.731 E0.07949
G1 X117.907 Y92.110 E0.01563
G1 X119.593 Y90.424 E0.08462
G1 X119.919 Y90.701 E0.01519
G1 X118.131 Y92.490 E0.08974
G1 X118.355 Y92.869 E0.01563
G1 X120.246 Y90.978 E0.09487
G1 X120.572 Y91.255 E0.01519
G1 X118.580 Y93.248 E0.10000
G1 X118.804 Y93.627 E0.01563
G1 X120.899 Y91.532 E0.10512
G1 X121.225 Y91.809 E0.01519
G1 X119.028 Y94.007 E0.11025
G1 X119.252 Y94.386 E0.01563
G1 X121.552 Y92.087 E0.11538
G1 X121.878 Y92.364 E0.01519
G1 X119.477 Y94.765 E0.12050
G1 X119.701 Y95.144 E0.01563
G1 X122.204 Y92.641 E0.12563
G1 X122.789 Y92.660 E0.02075
G1 X119.925 Y95.523 E0.14370
G1 X120.149 Y95.903 E0.01563
G1 X123.465 Y92.587 E0.16638
G1 X123.992 Y92.664 E0.01889
G1 X120.374 Y96.282 E0.18156
G1 X120.598 Y96.661 E0.01563
G1 X124.519 Y92.740 E0.19675
G1 X125.045 Y92.817 E0.01889
G1 X120.822 Y97.040 E0.21193
G1 X121.046 Y97.420 E0.01563
G1 X125.572 Y92.894 E0.22711
G1 X126.099 Y92.970 E0.01889
G1 X121.236 Y97.834 E0.24404
G1 X121.596 Y98.077 E0.01542
G1 X126.626 Y93.047 E0.25241
G1 X127.153 Y93.124 E0.01889
G1 X121.982 Y98.294 E0.25947
G1 X122.368 Y98.512 E0.01572
G1 X127.760 Y93.120 E0.27054
G1 X128.472 Y93.012 E0.02556
G1 X122.755 Y98.729 E0.28689
G1 X123.141 Y98.946 E0.01572
G1 X129.184 Y92.903 E0.30324
G1 X129.896 Y92.794 E0.02556
G1 X123.527 Y99.163 E0.31959
G1 X123.913 Y99.380 E0.01572
G1 X130.608 Y92.686 E0.33594
G1 X131.320 Y92.577 E0.02556
G1 X124.300 Y99.598 E0.35229
