; generated by Slic3r 1.3.0-dev on 2016-08-15 at 17:08:30

; external perimeters extrusion width = 0.45mm
; perimeters extrusion width = 0.45mm
; infill extrusion width = 0.45mm
; solid infill extrusion width = 0.45mm
; top infill extrusion width = 0.40mm

M107
M83  ; extruder relative mode
M104 S210 ; set extruder temp
M140 S55 ; set bed temp
M190 S55 ; wait for bed temp
M109 S210 ; wait for extruder temp
G28 W ; home all without mesh bed level
G80 ; mesh bed leveling
G1 Y-3.0 F1000.0 ; go outside pritn area
G1 X60.0 E9.0  F1000.0 ; intro line
G1 X100.0 E12.5  F1000.0 ; intro line
G21 ; set units to millimeters
G90 ; use absolute coordinates
M83 ; use relative distances for extrusion
G1 E-0.80000 F2100.00000
G1 Z0.150 F7200.000
G1 X113.803 Y95.360 F7200.000
G1 E0.80000 F2100.00000
M204 S1000
G1 F1800
G1 X114.304 Y94.807 E0.01803
G1 X114.755 Y94.354 E0.01546
G1 X115.225 Y93.920 E0.01546
G1 X115.733 Y93.492 E0.01607
G1 X116.658 Y92.805 E0.02786
G1 X117.191 Y92.457 E0.01540
G1 X117.796 Y92.100 E0.01700
G1 X118.370 Y91.795 E0.01571
G1 X118.975 Y91.509 E0.01619
G1 X119.593 Y91.250 E0.01621
G1 X120.681 Y90.870 E0.02786
G1 X121.297 Y90.697 E0.01548
G1 X122.011 Y90.530 E0.01775
G1 X122.641 Y90.414 E0.01548
G1 X123.274 Y90.326 E0.01546
G1 X123.877 Y90.267 E0.01467
G1 X124.522 Y90.232 E0.01562
G1 X125.226 Y90.227 E0.01702
G1 X126.376 Y90.289 E0.02786
G1 X127.012 Y90.363 E0.01548
G1 X127.729 Y90.479 E0.01757
G1 X128.355 Y90.611 E0.01547
G1 X128.974 Y90.769 E0.01545
G1 X129.587 Y90.955 E0.01548
G1 X130.190 Y91.166 E0.01546
G1 X130.825 Y91.422 E0.01656
G1 X131.865 Y91.917 E0.02786
G1 X132.425 Y92.226 E0.01548
G1 X133.038 Y92.602 E0.01739
G1 X133.567 Y92.962 E0.01546
G1 X134.080 Y93.344 E0.01546
G1 X134.576 Y93.748 E0.01547
G1 X135.054 Y94.172 E0.01546
G1 X135.550 Y94.656 E0.01674
G1 X136.323 Y95.509 E0.02786
G1 X136.724 Y96.008 E0.01548
G1 X137.144 Y96.583 E0.01721
G1 X137.496 Y97.116 E0.01547
G1 X137.826 Y97.664 E0.01546
G1 X138.131 Y98.226 E0.01547
G1 X138.412 Y98.800 E0.01545
G1 X138.690 Y99.443 E0.01693
G1 X139.081 Y100.526 E0.02786
G1 X139.262 Y101.140 E0.01548
G1 X139.430 Y101.825 E0.01705
G1 X139.554 Y102.452 E0.01546
G1 X139.651 Y103.083 E0.01544
G1 X139.720 Y103.719 E0.01548
G1 X139.761 Y104.357 E0.01547
G1 X139.775 Y105.004 E0.01565
G1 X139.761 Y105.643 E0.01545
G1 X139.714 Y106.343 E0.01697
G1 X139.642 Y106.979 E0.01548
G1 X139.443 Y108.113 E0.02786
G1 X139.281 Y108.789 E0.01680
G1 X139.101 Y109.412 E0.01568
G1 X138.897 Y110.017 E0.01545
G1 X138.668 Y110.613 E0.01545
G1 X138.412 Y111.200 E0.01547
G1 X138.099 Y111.835 E0.01714
G1 X137.790 Y112.396 E0.01548
G1 X137.175 Y113.370 E0.02786
G1 X136.768 Y113.935 E0.01684
G1 X136.371 Y114.435 E0.01544
G1 X135.952 Y114.918 E0.01547
G1 X135.512 Y115.383 E0.01547
G1 X135.054 Y115.828 E0.01546
G1 X134.517 Y116.302 E0.01731
G1 X134.018 Y116.703 E0.01548
G1 X133.079 Y117.370 E0.02786
G1 X132.495 Y117.733 E0.01663
G1 X131.937 Y118.046 E0.01548
G1 X131.366 Y118.334 E0.01546
G1 X130.783 Y118.597 E0.01546
G1 X130.190 Y118.834 E0.01545
G1 X129.506 Y119.071 E0.01750
G1 X128.892 Y119.253 E0.01548
G1 X127.770 Y119.513 E0.02786
G1 X127.099 Y119.626 E0.01647
G1 X126.464 Y119.703 E0.01546
G1 X125.827 Y119.752 E0.01546
G1 X125.188 Y119.774 E0.01546
G1 X124.516 Y119.768 E0.01624
G1 X123.818 Y119.728 E0.01691
G1 X123.181 Y119.663 E0.01550
G1 X122.043 Y119.476 E0.02787
G1 X121.373 Y119.324 E0.01662
G1 X120.745 Y119.150 E0.01576
G1 X120.129 Y118.950 E0.01568
G1 X119.474 Y118.703 E0.01692
G1 X118.885 Y118.451 E0.01548
G1 X117.856 Y117.933 E0.02786
G1 X117.279 Y117.597 E0.01616
G1 X116.741 Y117.252 E0.01545
G1 X116.219 Y116.883 E0.01547
G1 X115.633 Y116.427 E0.01795
G1 X115.147 Y116.010 E0.01548
G1 X114.678 Y115.572 E0.01553
G1 X113.885 Y114.735 E0.02790
G1 X113.473 Y114.243 E0.01552
G1 X113.065 Y113.711 E0.01621
G1 X112.708 Y113.198 E0.01511
G1 X112.365 Y112.659 E0.01546
G1 X111.993 Y112.008 E0.01813
G1 X111.701 Y111.438 E0.01548
G1 X111.240 Y110.383 E0.02786
G1 X111.015 Y109.768 E0.01584
G1 X110.822 Y109.159 E0.01545
G1 X110.647 Y108.508 E0.01631
G1 X110.507 Y107.876 E0.01564
G1 X110.395 Y107.241 E0.01559
G1 X110.305 Y106.538 E0.01716
G1 X110.252 Y105.900 E0.01548
G1 X110.227 Y105.256 E0.01558
G1 X110.230 Y104.615 E0.01549
G1 X110.305 Y103.466 E0.02787
G1 X110.390 Y102.791 E0.01645
G1 X110.495 Y102.188 E0.01481
G1 X110.655 Y101.458 E0.01806
G1 X110.822 Y100.841 E0.01546
G1 X111.019 Y100.221 E0.01575
G1 X111.434 Y99.145 E0.02789
G1 X111.739 Y98.483 E0.01762
G1 X112.021 Y97.938 E0.01484
G1 X112.345 Y97.373 E0.01574
G1 X112.713 Y96.795 E0.01658
G1 X113.086 Y96.261 E0.01575
G1 X113.765 Y95.406 E0.02641
G1 X114.102 Y95.607 F7200.000
G1 F1800
G1 X114.581 Y95.078 E0.01727
G1 X115.020 Y94.637 E0.01506
G1 X115.478 Y94.214 E0.01506
G1 X115.971 Y93.799 E0.01561
G1 X116.882 Y93.122 E0.02745
G1 X117.401 Y92.783 E0.01499
G1 X117.985 Y92.438 E0.01639
G1 X118.543 Y92.143 E0.01527
G1 X119.129 Y91.865 E0.01568
G1 X119.729 Y91.613 E0.01573
G1 X120.800 Y91.239 E0.02745
G1 X121.400 Y91.070 E0.01508
G1 X122.086 Y90.911 E0.01702
G1 X122.699 Y90.798 E0.01507
G1 X123.315 Y90.711 E0.01505
G1 X123.907 Y90.654 E0.01438
G1 X124.535 Y90.620 E0.01520
G1 X125.213 Y90.614 E0.01641
G1 X126.347 Y90.676 E0.02745
G1 X126.966 Y90.748 E0.01508
G1 X127.655 Y90.859 E0.01687
G1 X128.264 Y90.988 E0.01507
G1 X128.867 Y91.142 E0.01505
G1 X129.464 Y91.322 E0.01508
G1 X130.051 Y91.528 E0.01505
G1 X130.666 Y91.775 E0.01603
G1 X131.691 Y92.263 E0.02745
G1 X132.236 Y92.565 E0.01507
G1 X132.826 Y92.927 E0.01672
G1 X133.341 Y93.277 E0.01506
G1 X133.840 Y93.648 E0.01506
G1 X134.323 Y94.042 E0.01506
G1 X134.788 Y94.455 E0.01506
G1 X135.268 Y94.922 E0.01619
G1 X136.030 Y95.763 E0.02745
G1 X136.420 Y96.250 E0.01508
G1 X136.824 Y96.803 E0.01656
G1 X137.168 Y97.322 E0.01506
G1 X137.488 Y97.856 E0.01505
G1 X137.786 Y98.403 E0.01507
G1 X138.059 Y98.962 E0.01505
G1 X138.328 Y99.582 E0.01635
G1 X138.714 Y100.650 E0.02745
G1 X138.889 Y101.248 E0.01508
G1 X139.051 Y101.907 E0.01642
G1 X139.172 Y102.518 E0.01505
G1 X139.266 Y103.133 E0.01504
G1 X139.333 Y103.752 E0.01507
G1 X139.374 Y104.374 E0.01506
G1 X139.388 Y105.004 E0.01525
G1 X139.374 Y105.626 E0.01505
G1 X139.328 Y106.301 E0.01635
G1 X139.258 Y106.920 E0.01507
G1 X139.063 Y108.038 E0.02745
G1 X138.906 Y108.690 E0.01621
G1 X138.731 Y109.297 E0.01527
G1 X138.532 Y109.887 E0.01505
G1 X138.309 Y110.467 E0.01505
G1 X138.059 Y111.038 E0.01506
G1 X137.758 Y111.650 E0.01650
G1 X137.458 Y112.196 E0.01508
G1 X136.852 Y113.156 E0.02745
G1 X136.458 Y113.701 E0.01627
G1 X136.071 Y114.188 E0.01504
G1 X135.663 Y114.659 E0.01506
G1 X135.235 Y115.112 E0.01507
G1 X134.788 Y115.545 E0.01506
G1 X134.272 Y116.001 E0.01665
G1 X133.787 Y116.392 E0.01508
G1 X132.862 Y117.049 E0.02745
G1 X132.296 Y117.400 E0.01609
G1 X131.753 Y117.705 E0.01507
G1 X131.197 Y117.985 E0.01506
G1 X130.629 Y118.241 E0.01506
G1 X130.051 Y118.472 E0.01505
G1 X129.394 Y118.700 E0.01681
G1 X128.797 Y118.877 E0.01507
G1 X127.691 Y119.133 E0.02745
G1 X127.040 Y119.242 E0.01595
G1 X126.422 Y119.317 E0.01506
G1 X125.802 Y119.365 E0.01506
G1 X125.179 Y119.387 E0.01506
G1 X124.529 Y119.380 E0.01573
G1 X123.856 Y119.342 E0.01631
G1 X123.235 Y119.279 E0.01509
G1 X122.114 Y119.095 E0.02747
G1 X121.466 Y118.947 E0.01608
G1 X120.856 Y118.778 E0.01531
G1 X120.256 Y118.583 E0.01524
G1 X119.625 Y118.346 E0.01631
G1 X119.052 Y118.100 E0.01508
G1 X118.038 Y117.591 E0.02745
G1 X117.477 Y117.264 E0.01568
G1 X116.954 Y116.928 E0.01505
G1 X116.445 Y116.568 E0.01506
G1 X115.884 Y116.131 E0.01720
G1 X115.411 Y115.726 E0.01507
G1 X114.954 Y115.299 E0.01512
G1 X114.172 Y114.474 E0.02749
G1 X113.771 Y113.995 E0.01511
G1 X113.376 Y113.479 E0.01571
G1 X113.027 Y112.979 E0.01475
G1 X112.693 Y112.453 E0.01505
G1 X112.337 Y111.830 E0.01735
G1 X112.053 Y111.276 E0.01508
G1 X111.599 Y110.235 E0.02745
G1 X111.380 Y109.637 E0.01541
G1 X111.192 Y109.044 E0.01505
G1 X111.023 Y108.413 E0.01579
G1 X110.887 Y107.799 E0.01521
G1 X110.778 Y107.181 E0.01517
G1 X110.691 Y106.504 E0.01652
G1 X110.640 Y105.883 E0.01507
G1 X110.615 Y105.256 E0.01517
G1 X110.617 Y104.632 E0.01509
G1 X110.691 Y103.499 E0.02746
G1 X110.774 Y102.846 E0.01592
G1 X110.877 Y102.256 E0.01450
G1 X111.030 Y101.557 E0.01729
G1 X111.192 Y100.956 E0.01505
G1 X111.384 Y100.352 E0.01533
G1 X111.793 Y99.292 E0.02748
G1 X112.086 Y98.657 E0.01692
G1 X112.362 Y98.123 E0.01453
G1 X112.676 Y97.574 E0.01530
G1 X113.032 Y97.014 E0.01605
G1 X113.395 Y96.496 E0.01531
G1 X114.063 Y95.654 E0.02600
G1 F5760
G1 X114.161 Y95.538 E-0.05243
G1 F5760
G1 X114.167 Y95.532 E-0.00275
G1 F5760
G1 X114.175 Y95.523 E-0.00418
G1 F5760
G1 X114.519 Y95.144 E-0.17732
G1 F5760
G1 X114.581 Y95.078 E-0.03138
G1 F5760
G1 X114.586 Y95.073 E-0.00275
G1 F5760
G1 X114.595 Y95.063 E-0.00445
G1 F5760
G1 X114.955 Y94.699 E-0.17732
G1 F5760
G1 X115.020 Y94.637 E-0.03117
G1 F5760
G1 X115.026 Y94.631 E-0.00275
G1 F5760
G1 X115.035 Y94.622 E-0.00466
G1 F5760
G1 X115.411 Y94.274 E-0.17732
G1 F5760
G1 X115.478 Y94.214 E-0.03096
G1 F5760
G1 X115.484 Y94.209 E-0.00275
G1 F5760
G1 X115.494 Y94.200 E-0.00487
G1 F5760
G1 X115.611 Y94.101 E-0.05295
G1 E-0.04000 F2100.00000
G1 X128.582 Y107.852 F7200.000
G1 E0.80000 F2100.00000
G1 F720
G1 X128.117 Y108.353 E0.01654
G1 X127.591 Y108.773 E0.01626
G1 X127.282 Y108.966 E0.00881
G1 X126.676 Y109.258 E0.01626
G1 X126.023 Y109.460 E0.01654
G1 X125.358 Y109.560 E0.01626
G1 X125.005 Y109.573 E0.00854
G1 X124.652 Y109.560 E0.00854
G1 X123.987 Y109.460 E0.01626
G1 X123.345 Y109.262 E0.01626
G1 X123.011 Y109.116 E0.00881
G1 X122.428 Y108.780 E0.01626
G1 X121.902 Y108.360 E0.01626
G1 X121.645 Y108.103 E0.00881
G1 X121.225 Y107.577 E0.01626
G1 X120.889 Y106.995 E0.01626
G1 X120.748 Y106.671 E0.00854
G1 X120.631 Y106.337 E0.00854
G1 X120.484 Y105.693 E0.01599
G1 X120.438 Y105.286 E0.00989
G1 X120.432 Y104.984 E0.00731
G1 X120.482 Y104.318 E0.01615
G1 X120.631 Y103.663 E0.01626
G1 X120.748 Y103.329 E0.00854
G1 X120.889 Y103.005 E0.00854
G1 X121.225 Y102.423 E0.01626
G1 X121.652 Y101.889 E0.01654
G1 X122.145 Y101.431 E0.01626
G1 X122.438 Y101.215 E0.00881
G1 X123.020 Y100.879 E0.01626
G1 X123.642 Y100.635 E0.01615
G1 X123.987 Y100.541 E0.00865
G1 X124.334 Y100.476 E0.00855
G1 X125.000 Y100.426 E0.01615
G1 X125.687 Y100.477 E0.01665
G1 X126.338 Y100.625 E0.01615
G1 X126.686 Y100.746 E0.00893
G1 X127.292 Y101.038 E0.01627
G1 X127.848 Y101.417 E0.01626
G1 X128.124 Y101.655 E0.00881
G1 X128.582 Y102.148 E0.01626
G1 X128.960 Y102.703 E0.01626
G1 X129.131 Y103.026 E0.00881
G1 X129.372 Y103.641 E0.01599
G1 X129.464 Y103.982 E0.00854
G1 X129.529 Y104.329 E0.00854
G1 X129.580 Y105.000 E0.01626
G1 X129.529 Y105.671 E0.01626
G1 X129.464 Y106.018 E0.00854
G1 X129.372 Y106.359 E0.00854
G1 X129.131 Y106.974 E0.01599
G1 X128.960 Y107.297 E0.00881
G1 X128.615 Y107.803 E0.01481
G1 X128.278 Y107.610 F7200.000
G1 F720
G1 X127.852 Y108.068 E0.01513
G1 X127.366 Y108.456 E0.01503
G1 X127.094 Y108.627 E0.00776
G1 X126.534 Y108.896 E0.01503
G1 X125.936 Y109.081 E0.01513
G1 X125.322 Y109.173 E0.01503
G1 X124.688 Y109.173 E0.01532
G1 X124.074 Y109.081 E0.01503
G1 X123.480 Y108.897 E0.01503
G1 X123.186 Y108.769 E0.00776
G1 X122.647 Y108.458 E0.01503
G1 X122.161 Y108.071 E0.01503
G1 X121.934 Y107.844 E0.00776
G1 X121.547 Y107.358 E0.01503
G1 X121.236 Y106.819 E0.01503
G1 X121.109 Y106.529 E0.00766
G1 X121.005 Y106.230 E0.00766
G1 X120.867 Y105.628 E0.01494
G1 X120.826 Y105.260 E0.00894
G1 X120.820 Y104.994 E0.00643
G1 X120.866 Y104.376 E0.01499
G1 X121.005 Y103.770 E0.01503
G1 X121.109 Y103.471 E0.00766
G1 X121.236 Y103.181 E0.00766
G1 X121.547 Y102.642 E0.01503
G1 X121.937 Y102.153 E0.01513
G1 X122.393 Y101.730 E0.01503
G1 X122.651 Y101.540 E0.00776
G1 X123.189 Y101.229 E0.01503
G1 X123.763 Y101.003 E0.01492
G1 X124.385 Y100.861 E0.01543
G1 X125.000 Y100.815 E0.01492
G1 X125.629 Y100.861 E0.01524
G1 X126.230 Y100.998 E0.01492
G1 X126.538 Y101.105 E0.00787
G1 X127.098 Y101.375 E0.01504
G1 X127.611 Y101.725 E0.01503
G1 X127.855 Y101.935 E0.00776
G1 X128.278 Y102.390 E0.01503
G1 X128.628 Y102.904 E0.01503
G1 X128.778 Y103.188 E0.00776
G1 X129.003 Y103.763 E0.01494
G1 X129.144 Y104.380 E0.01532
G1 X129.191 Y105.000 E0.01503
G1 X129.144 Y105.620 E0.01503
G1 X129.085 Y105.931 E0.00766
G1 X129.003 Y106.237 E0.00766
G1 X128.778 Y106.812 E0.01494
G1 X128.628 Y107.096 E0.00776
G1 X128.311 Y107.560 E0.01358
G1 X128.419 Y107.984 F7200.000
G1 F5760
G1 X127.852 Y108.068 E-0.23724
G1 F5760
G1 X127.366 Y108.456 E-0.21530
G1 F5760
G1 X127.094 Y108.627 E-0.11113
G1 F5760
G1 X126.584 Y108.872 E-0.19633
G1 E-0.04000 F2100.00000
G1 X134.079 Y111.896 F7200.000
G1 E0.80000 F2100.00000
G1 F1440
G1 X133.443 Y112.662 E0.02408
G1 X132.749 Y113.364 E0.02388
G1 X131.991 Y114.007 E0.02404
G1 X131.604 Y114.294 E0.01164
G1 X130.776 Y114.830 E0.02386
G1 X129.897 Y115.296 E0.02408
G1 X128.987 Y115.682 E0.02388
G1 X128.042 Y115.989 E0.02404
G1 X127.576 Y116.107 E0.01164
G1 X126.606 Y116.288 E0.02386
G1 X125.615 Y116.385 E0.02408
G1 X124.631 Y116.396 E0.02379
G1 X123.646 Y116.321 E0.02391
G1 X122.665 Y116.160 E0.02403
G1 X121.708 Y115.916 E0.02388
G1 X121.250 Y115.768 E0.01166
G1 X120.324 Y115.399 E0.02412
G1 X119.435 Y114.952 E0.02404
G1 X119.021 Y114.708 E0.01164
G1 X118.204 Y114.155 E0.02386
G1 X117.431 Y113.527 E0.02408
G1 X116.723 Y112.841 E0.02386
G1 X116.069 Y112.088 E0.02412
G1 X115.779 Y111.706 E0.01159
G1 X115.234 Y110.884 E0.02386
G1 X114.758 Y110.010 E0.02408
G1 X114.363 Y109.105 E0.02388
G1 X114.044 Y108.158 E0.02415
G1 X113.921 Y107.692 E0.01166
G1 X113.730 Y106.728 E0.02377
G1 X113.622 Y105.740 E0.02403
G1 X113.601 Y104.753 E0.02389
G1 X113.665 Y103.768 E0.02388
G1 X113.816 Y102.783 E0.02408
G1 X114.049 Y101.825 E0.02386
G1 X114.193 Y101.366 E0.01163
G1 X114.551 Y100.438 E0.02404
G1 X114.984 Y99.551 E0.02388
G1 X115.498 Y98.698 E0.02408
G1 X116.078 Y97.900 E0.02386
G1 X116.385 Y97.530 E0.01164
G1 X117.069 Y96.809 E0.02404
G1 X117.808 Y96.153 E0.02389
G1 X118.604 Y95.561 E0.02399
G1 X119.445 Y95.043 E0.02389
G1 X119.872 Y94.816 E0.01168
G1 X120.778 Y94.409 E0.02404
G1 X121.718 Y94.081 E0.02408
G1 X122.674 Y93.838 E0.02386
G1 X123.147 Y93.750 E0.01163
G1 X124.138 Y93.631 E0.02412
G1 X125.129 Y93.599 E0.02399
G1 X126.114 Y93.653 E0.02386
G1 X126.592 Y93.710 E0.01164
G1 X127.569 Y93.892 E0.02404
G1 X128.528 Y94.158 E0.02408
G1 X129.452 Y94.503 E0.02386
G1 X129.891 Y94.701 E0.01164
G1 X130.770 Y95.166 E0.02404
G1 X131.605 Y95.707 E0.02408
G1 X132.384 Y96.312 E0.02386
G1 X132.744 Y96.632 E0.01164
G1 X133.443 Y97.338 E0.02404
G1 X134.075 Y98.098 E0.02389
G1 X134.642 Y98.916 E0.02408
G1 X135.132 Y99.772 E0.02386
G1 X135.344 Y100.204 E0.01164
G1 X135.722 Y101.123 E0.02404
G1 X136.017 Y102.066 E0.02388
G1 X136.231 Y103.038 E0.02407
G1 X136.359 Y104.017 E0.02389
G1 X136.402 Y105.003 E0.02386
G1 X136.391 Y105.484 E0.01163
G1 X136.305 Y106.482 E0.02423
G1 X136.133 Y107.461 E0.02404
G1 X136.019 Y107.928 E0.01164
G1 X135.725 Y108.870 E0.02386
G1 X135.346 Y109.790 E0.02408
G1 X134.890 Y110.674 E0.02404
G1 X134.642 Y111.086 E0.01164
G1 X134.114 Y111.847 E0.02240
G1 X134.388 Y112.131 F7200.000
G1 F1080
G1 X133.731 Y112.923 E0.02489
G1 X133.012 Y113.649 E0.02470
G1 X132.232 Y114.311 E0.02476
G1 X131.826 Y114.613 E0.01224
G1 X130.973 Y115.165 E0.02457
G1 X130.064 Y115.647 E0.02489
G1 X129.123 Y116.045 E0.02470
G1 X128.150 Y116.361 E0.02476
G1 X127.659 Y116.486 E0.01224
G1 X126.660 Y116.672 E0.02457
G1 X125.636 Y116.773 E0.02489
G1 X124.619 Y116.784 E0.02461
G1 X123.599 Y116.706 E0.02472
G1 X122.586 Y116.540 E0.02484
G1 X121.601 Y116.289 E0.02459
G1 X121.118 Y116.133 E0.01227
G1 X120.164 Y115.753 E0.02483
G1 X119.250 Y115.293 E0.02476
G1 X118.813 Y115.036 E0.01224
G1 X117.973 Y114.466 E0.02457
G1 X117.174 Y113.818 E0.02489
G1 X116.441 Y113.108 E0.02467
G1 X115.768 Y112.333 E0.02483
G1 X115.463 Y111.931 E0.01220
G1 X114.902 Y111.084 E0.02457
G1 X114.409 Y110.181 E0.02489
G1 X114.001 Y109.245 E0.02470
G1 X113.673 Y108.270 E0.02487
G1 X113.542 Y107.780 E0.01227
G1 X113.346 Y106.787 E0.02448
G1 X113.235 Y105.766 E0.02484
G1 X113.213 Y104.745 E0.02470
G1 X113.279 Y103.725 E0.02470
