; generated by Slic3r 1.3.0-dev on 2016-09-11 at 20:16:21

; external perimeters extrusion width = 0.45mm
; perimeters extrusion width = 0.45mm
; infill extrusion width = 0.45mm
; solid infill extrusion width = 0.45mm
; top infill extrusion width = 0.40mm

M107
M83  ; extruder relative mode
M104 S210 ; set extruder temp
M140 S55 ; set bed temp
M190 S55 ; wait for bed temp
M109 S210 ; wait for extruder temp
G28 W ; home all without mesh bed level
G80 ; mesh bed leveling
G1 Y-3.0 F1000.0 ; go outside pritn area
G1 X60.0 E9.0  F1000.0 ; intro line
G1 X100.0 E12.5  F1000.0 ; intro line
G21 ; set units to millimeters
G90 ; use absolute coordinates
M83 ; use relative distances for extrusion
G1 E-0.80000 F2100.00000
G1 Z0.150 F7200.000
G1 X49.779 Y32.753 F7200.000
G1 E0.80000 F2100.00000
M204 S1000
G1 F1800
G1 X50.632 Y31.900 E0.02917
G1 X51.916 Y31.171 E0.03571
G1 X53.341 Y31.190 E0.03446
G1 X56.657 Y32.116 E0.08328
G1 X57.870 Y32.823 E0.03396
G1 X162.287 Y136.905 E3.56559
G1 X199.304 Y174.257 E1.27181
G1 X200.027 Y175.544 E0.03571
G1 X199.987 Y177.020 E0.03571
G1 X199.295 Y178.173 E0.03252
G1 X196.052 Y181.416 E0.11093
G1 X194.767 Y182.145 E0.03571
G1 X193.291 Y182.112 E0.03571
G1 X192.126 Y181.416 E0.03281
G1 X50.705 Y39.995 E4.83698
G1 X49.994 Y38.779 E0.03407
G1 X49.068 Y35.462 E0.08328
G1 X49.064 Y33.986 E0.03571
G1 X49.749 Y32.805 E0.03301
G1 X50.053 Y33.027 F7200.000
G1 F1800
G1 X50.906 Y32.174 E0.02917
G1 X52.110 Y31.525 E0.03307
G1 X53.237 Y31.563 E0.02728
G1 X56.553 Y32.489 E0.08328
G1 X57.597 Y33.098 E0.02922
G1 X162.013 Y137.180 E3.56559
G1 X199.028 Y174.530 E1.27175
G1 X199.672 Y175.736 E0.03307
G1 X199.549 Y177.098 E0.03307
G1 X199.021 Y177.899 E0.02321
G1 X195.777 Y181.142 E0.11093
G1 X194.574 Y181.792 E0.03307
G1 X193.212 Y181.674 E0.03307
G1 X192.401 Y181.142 E0.02346
G1 X50.979 Y39.721 E4.83698
G1 X50.368 Y38.674 E0.02931
G1 X49.442 Y35.358 E0.08328
G1 X49.467 Y33.991 E0.03307
G1 X50.022 Y33.079 E0.02583
G1 F5760
G1 X50.776 Y32.304 E-0.37443
G1 F5760
G1 X50.776 Y32.304 E-0.00003
G1 F5760
G1 X50.906 Y32.174 E-0.06356
G1 F5760
G1 X51.724 Y31.733 E-0.32198
G1 E-0.04000 F2100.00000
G1 X54.716 Y36.830 F7200.000
G1 E0.80000 F2100.00000
G1 F1440
G1 X55.911 Y35.634 E0.04088
G1 X159.149 Y138.873 E3.53102
G1 X159.418 Y138.928 E0.00664
G1 X159.601 Y139.034 E0.00511
G1 X159.909 Y139.300 E0.00984
G1 X160.333 Y139.764 E0.01520
G1 X160.894 Y140.482 E0.02203
G1 X161.210 Y140.934 E0.01334
G1 X196.487 Y176.210 E1.20656
G1 X194.089 Y178.608 E0.08201
G1 X53.513 Y38.032 E4.80806
G1 X54.708 Y36.837 E0.04088
G1 X52.587 Y34.716 E0.07255
G1 X54.673 Y36.787 E0.07110
G1 X54.716 Y36.281 F7200.000
G1 F1080
G1 X55.911 Y35.086 E0.04088
G1 X159.341 Y138.516 E3.53759
G1 X159.558 Y138.561 E0.00534
G1 X159.827 Y138.716 E0.00752
G1 X160.180 Y139.022 E0.01130
G1 X160.629 Y139.514 E0.01611
G1 X161.205 Y140.251 E0.02263
G1 X161.508 Y140.683 E0.01276
G1 X197.035 Y176.210 E1.21512
G1 X194.089 Y179.157 E0.10077
G1 X52.965 Y38.032 E4.82682
G1 X54.160 Y36.837 E0.04088
G1 X52.039 Y34.716 E0.07255
G1 X52.594 Y34.160 E0.01901
G1 X54.673 Y36.239 E0.07110
G1 X54.999 Y36.564 F7200.000
G1 F5760
G1 X55.911 Y35.086 E-0.58579
G1 F5760
G1 X56.267 Y35.442 E-0.17421
G1 E-0.04000 F2100.00000
G1 X53.897 Y37.950 F7200.000
G1 E0.80000 F2100.00000
G1 F1440
G1 X194.171 Y178.224 E5.24279
G1 X194.471 Y177.925 E0.01120
G1 X54.197 Y37.650 E5.24279
G1 X54.496 Y37.351 E0.01120
G1 X194.771 Y177.625 E5.24279
G1 X195.070 Y177.325 E0.01120
G1 X54.796 Y37.051 E5.24279
G1 X55.096 Y36.751 E0.01120
G1 X195.370 Y177.026 E5.24279
G1 X195.670 Y176.726 E0.01120
G1 X55.395 Y36.452 E5.24279
G1 X55.695 Y36.152 E0.01120
G1 X195.969 Y176.426 E5.24279
G1 F5760
G1 X194.418 Y174.875 E-0.76000
G1 E-0.04000 F2100.00000
G1 X160.071 Y139.928 F7200.000
G1 E0.80000 F2100.00000
G1 F1440
G1 X159.400 Y139.258 E0.02506
M106 S216.75
G1 F5760
G1 X160.071 Y139.928 E-0.32840
G1 E-0.47160 F2100.00000
G1 Z0.350 F7200.000
G1 X54.934 Y36.660 F7200.000
G1 E0.80000 F2100.00000
M204 S800
G1 F2400
G1 X56.011 Y35.582 E0.05159
G1 X158.812 Y138.382 E4.92099
G1 X159.190 Y138.281 E0.01324
G1 X159.336 Y138.365 E0.00572
G1 X159.605 Y138.599 E0.01206
G1 X159.985 Y139.014 E0.01905
G1 X160.490 Y139.660 E0.02775
G1 X161.379 Y140.950 E0.05302
G1 X196.539 Y176.110 E1.68309
G1 X193.988 Y178.660 E0.12209
G1 X53.461 Y38.133 E6.72697
G1 X54.539 Y37.055 E0.05159
G1 X52.417 Y34.934 E0.10155
G1 X52.812 Y34.539 E0.01891
G1 X54.891 Y36.618 E0.09952
M204 S1000
G1 X54.934 Y36.084 F7200.000
M204 S800
G1 F1800
G1 X56.011 Y35.007 E0.05159
G1 X158.933 Y137.928 E4.92681
G1 X159.178 Y137.863 E0.00857
G1 X159.335 Y137.896 E0.00545
G1 X159.573 Y138.032 E0.00927
G1 X159.890 Y138.307 E0.01420
G1 X160.296 Y138.752 E0.02039
G1 X160.818 Y139.419 E0.02869
G1 X161.693 Y140.688 E0.05218
G1 X197.115 Y176.110 E1.69561
G1 X193.988 Y179.236 E0.14965
G1 X52.885 Y38.133 E6.75453
G1 X53.963 Y37.055 E0.05159
G1 X51.842 Y34.934 E0.10155
G1 X52.812 Y33.963 E0.04646
G1 X54.891 Y36.042 E0.09952
M204 S1000
G1 X55.217 Y36.367 F7200.000
G1 X54.880 Y37.001 F7200.000
G1 F2400
G1 X52.759 Y34.880 E0.02707
G1 F5760
G1 X54.310 Y36.432 E-0.76000
G1 E-0.04000 F2100.00000
G1 X54.152 Y38.507 F7200.000
G1 E0.80000 F2100.00000
M204 S2000
G1 F2400
G1 X56.400 Y36.259 E0.10772
G1 X56.688 Y36.547 E0.01381
G1 X54.440 Y38.795 E0.10772
G1 X54.728 Y39.083 E0.01381
G1 X56.976 Y36.835 E0.10772
G1 X57.264 Y37.124 E0.01381
G1 X55.016 Y39.372 E0.10772
G1 X55.304 Y39.660 E0.01381
G1 X57.553 Y37.412 E0.10772
G1 X57.841 Y37.700 E0.01381
G1 X55.593 Y39.948 E0.10772
G1 X55.881 Y40.236 E0.01381
G1 X58.129 Y37.988 E0.10772
G1 X58.417 Y38.276 E0.01381
G1 X56.169 Y40.524 E0.10772
G1 X56.457 Y40.812 E0.01381
G1 X58.705 Y38.564 E0.10772
G1 X58.993 Y38.852 E0.01381
G1 X56.745 Y41.100 E0.10772
G1 X57.033 Y41.389 E0.01381
G1 X59.281 Y39.141 E0.10772
G1 X59.570 Y39.429 E0.01381
G1 X57.321 Y41.677 E0.10772
G1 X57.610 Y41.965 E0.01381
G1 X59.858 Y39.717 E0.10772
G1 X60.146 Y40.005 E0.01381
G1 X57.898 Y42.253 E0.10772
G1 X58.186 Y42.541 E0.01381
G1 X60.434 Y40.293 E0.10772
G1 X60.722 Y40.581 E0.01381
G1 X58.474 Y42.829 E0.10772
G1 X58.762 Y43.117 E0.01381
G1 X61.010 Y40.869 E0.10772
G1 X61.298 Y41.158 E0.01381
G1 X59.050 Y43.406 E0.10772
G1 X59.339 Y43.694 E0.01381
G1 X61.587 Y41.446 E0.10772
G1 X61.875 Y41.734 E0.01381
G1 X59.627 Y43.982 E0.10772
G1 X59.915 Y44.270 E0.01381
G1 X62.163 Y42.022 E0.10772
G1 X62.451 Y42.310 E0.01381
G1 X60.203 Y44.558 E0.10772
G1 X60.491 Y44.846 E0.01381
G1 X62.739 Y42.598 E0.10772
G1 X63.027 Y42.886 E0.01381
G1 X60.779 Y45.134 E0.10772
G1 X61.067 Y45.423 E0.01381
G1 X63.315 Y43.175 E0.10772
G1 X63.604 Y43.463 E0.01381
G1 X61.356 Y45.711 E0.10772
G1 X61.644 Y45.999 E0.01381
G1 X63.892 Y43.751 E0.10772
G1 X64.180 Y44.039 E0.01381
G1 X61.932 Y46.287 E0.10772
G1 X62.220 Y46.575 E0.01381
G1 X64.468 Y44.327 E0.10772
G1 X64.756 Y44.615 E0.01381
G1 X62.508 Y46.863 E0.10772
G1 X62.796 Y47.151 E0.01381
G1 X65.044 Y44.903 E0.10772
G1 X65.332 Y45.192 E0.01381
G1 X63.084 Y47.440 E0.10772
G1 X63.373 Y47.728 E0.01381
G1 X65.621 Y45.480 E0.10772
G1 X65.909 Y45.768 E0.01381
G1 X63.661 Y48.016 E0.10772
G1 X63.949 Y48.304 E0.01381
G1 X66.197 Y46.056 E0.10772
G1 X66.485 Y46.344 E0.01381
G1 X64.237 Y48.592 E0.10772
G1 X64.525 Y48.880 E0.01381
G1 X66.773 Y46.632 E0.10772
G1 X67.061 Y46.920 E0.01381
G1 X64.813 Y49.168 E0.10772
G1 X65.101 Y49.457 E0.01381
G1 X67.349 Y47.209 E0.10772
G1 X67.638 Y47.497 E0.01381
G1 X65.390 Y49.745 E0.10772
G1 X65.678 Y50.033 E0.01381
G1 X67.926 Y47.785 E0.10772
G1 X68.214 Y48.073 E0.01381
G1 X65.966 Y50.321 E0.10772
G1 X66.254 Y50.609 E0.01381
G1 X68.502 Y48.361 E0.10772
G1 X68.790 Y48.649 E0.01381
G1 X66.542 Y50.897 E0.10772
G1 X66.830 Y51.185 E0.01381
G1 X69.078 Y48.937 E0.10772
G1 X69.366 Y49.226 E0.01381
G1 X67.118 Y51.474 E0.10772
G1 X67.407 Y51.762 E0.01381
G1 X69.655 Y49.514 E0.10772
G1 X69.943 Y49.802 E0.01381
G1 X67.695 Y52.050 E0.10772
G1 X67.983 Y52.338 E0.01381
G1 X70.231 Y50.090 E0.10772
G1 X70.519 Y50.378 E0.01381
G1 X68.271 Y52.626 E0.10772
G1 X68.559 Y52.914 E0.01381
G1 X70.807 Y50.666 E0.10772
G1 X71.095 Y50.954 E0.01381
G1 X68.847 Y53.202 E0.10772
G1 X69.135 Y53.491 E0.01381
G1 X71.383 Y51.243 E0.10772
G1 X71.672 Y51.531 E0.01381
G1 X69.424 Y53.779 E0.10772
G1 X69.712 Y54.067 E0.01381
G1 X71.960 Y51.819 E0.10772
G1 X72.248 Y52.107 E0.01381
G1 X70.000 Y54.355 E0.10772
G1 X70.288 Y54.643 E0.01381
G1 X72.536 Y52.395 E0.10772
G1 X72.824 Y52.683 E0.01381
G1 X70.576 Y54.931 E0.10772
G1 X70.864 Y55.220 E0.01381
G1 X73.112 Y52.971 E0.10772
G1 X73.400 Y53.260 E0.01381
G1 X71.152 Y55.508 E0.10772
G1 X71.441 Y55.796 E0.01381
G1 X73.689 Y53.548 E0.10772
G1 X73.977 Y53.836 E0.01381
G1 X71.729 Y56.084 E0.10772
G1 X72.017 Y56.372 E0.01381
G1 X74.265 Y54.124 E0.10772
G1 X74.553 Y54.412 E0.01381
G1 X72.305 Y56.660 E0.10772
G1 X72.593 Y56.948 E0.01381
G1 X74.841 Y54.700 E0.10772
G1 X75.129 Y54.989 E0.01381
G1 X72.881 Y57.237 E0.10772
G1 X73.169 Y57.525 E0.01381
G1 X75.417 Y55.277 E0.10772
G1 X75.706 Y55.565 E0.01381
G1 X73.458 Y57.813 E0.10772
G1 X73.746 Y58.101 E0.01381
G1 X75.994 Y55.853 E0.10772
G1 X76.282 Y56.141 E0.01381
G1 X74.034 Y58.389 E0.10772
G1 X74.322 Y58.677 E0.01381
G1 X76.570 Y56.429 E0.10772
G1 X76.858 Y56.717 E0.01381
G1 X74.610 Y58.965 E0.10772
G1 X74.898 Y59.254 E0.01381
G1 X77.146 Y57.006 E0.10772
G1 X77.434 Y57.294 E0.01381
G1 X75.186 Y59.542 E0.10772
G1 X75.475 Y59.830 E0.01381
G1 X77.723 Y57.582 E0.10772
G1 X78.011 Y57.870 E0.01381
G1 X75.763 Y60.118 E0.10772
G1 X76.051 Y60.406 E0.01381
G1 X78.299 Y58.158 E0.10772
G1 X78.587 Y58.446 E0.01381
G1 X76.339 Y60.694 E0.10772
G1 X76.627 Y60.982 E0.01381
G1 X78.875 Y58.734 E0.10772
G1 X79.163 Y59.023 E0.01381
G1 X76.915 Y61.271 E0.10772
G1 X77.203 Y61.559 E0.01381
G1 X79.452 Y59.311 E0.10772
G1 X79.740 Y59.599 E0.01381
G1 X77.492 Y61.847 E0.10772
G1 X77.780 Y62.135 E0.01381
G1 X80.028 Y59.887 E0.10772
G1 X80.316 Y60.175 E0.01381
G1 X78.068 Y62.423 E0.10772
G1 X78.356 Y62.711 E0.01381
G1 X80.604 Y60.463 E0.10772
G1 X80.892 Y60.751 E0.01381
G1 X78.644 Y62.999 E0.10772
G1 X78.932 Y63.288 E0.01381
G1 X81.180 Y61.040 E0.10772
G1 X81.469 Y61.328 E0.01381
G1 X79.221 Y63.576 E0.10772
G1 X79.509 Y63.864 E0.01381
G1 X81.757 Y61.616 E0.10772
G1 X82.045 Y61.904 E0.01381
G1 X79.797 Y64.152 E0.10772
G1 X80.085 Y64.440 E0.01381
G1 X82.333 Y62.192 E0.10772
G1 X82.621 Y62.480 E0.01381
G1 X80.373 Y64.728 E0.10772
G1 X80.661 Y65.016 E0.01381
G1 X82.909 Y62.768 E0.10772
G1 X83.197 Y63.057 E0.01381
G1 X80.949 Y65.305 E0.10772
G1 X81.238 Y65.593 E0.01381
G1 X83.486 Y63.345 E0.10772
G1 X83.774 Y63.633 E0.01381
G1 X81.526 Y65.881 E0.10772
G1 X81.814 Y66.169 E0.01381
G1 X84.062 Y63.921 E0.10772
G1 X84.350 Y64.209 E0.01381
G1 X82.102 Y66.457 E0.10772
G1 X82.390 Y66.745 E0.01381
G1 X84.638 Y64.497 E0.10772
G1 X84.926 Y64.785 E0.01381
G1 X82.678 Y67.033 E0.10772
G1 X82.966 Y67.322 E0.01381
G1 X85.214 Y65.074 E0.10772
G1 X85.503 Y65.362 E0.01381
G1 X83.255 Y67.610 E0.10772
G1 X83.543 Y67.898 E0.01381
G1 X85.791 Y65.650 E0.10772
G1 X86.079 Y65.938 E0.01381
G1 X83.831 Y68.186 E0.10772
G1 X84.119 Y68.474 E0.01381
G1 X86.367 Y66.226 E0.10772
G1 X86.655 Y66.514 E0.01381
G1 X84.407 Y68.762 E0.10772
G1 X84.695 Y69.050 E0.01381
G1 X86.943 Y66.802 E0.10772
G1 X87.231 Y67.091 E0.01381
G1 X84.983 Y69.339 E0.10772
G1 X85.272 Y69.627 E0.01381
G1 X87.520 Y67.379 E0.10772
G1 X87.808 Y67.667 E0.01381
G1 X85.560 Y69.915 E0.10772
G1 X85.848 Y70.203 E0.01381
G1 X88.096 Y67.955 E0.10772
G1 X88.384 Y68.243 E0.01381
G1 X86.136 Y70.491 E0.10772
G1 X86.424 Y70.779 E0.01381
G1 X88.672 Y68.531 E0.10772
G1 X88.960 Y68.819 E0.01381
G1 X86.712 Y71.067 E0.10772
G1 X87.000 Y71.356 E0.01381
G1 X89.248 Y69.108 E0.10772
G1 X89.537 Y69.396 E0.01381
G1 X87.289 Y71.644 E0.10772
G1 X87.577 Y71.932 E0.01381
G1 X89.825 Y69.684 E0.10772
G1 X90.113 Y69.972 E0.01381
G1 X87.865 Y72.220 E0.10772
G1 X88.153 Y72.508 E0.01381
G1 X90.401 Y70.260 E0.10772
G1 X90.689 Y70.548 E0.01381
G1 X88.441 Y72.796 E0.10772
G1 X88.729 Y73.084 E0.01381
G1 X90.977 Y70.836 E0.10772
G1 X91.265 Y71.125 E0.01381
G1 X89.017 Y73.373 E0.10772
G1 X89.306 Y73.661 E0.01381
G1 X91.554 Y71.413 E0.10772
G1 X91.842 Y71.701 E0.01381
G1 X89.594 Y73.949 E0.10772
G1 X89.882 Y74.237 E0.01381
G1 X92.130 Y71.989 E0.10772
G1 X92.418 Y72.277 E0.01381
G1 X90.170 Y74.525 E0.10772
G1 X90.458 Y74.813 E0.01381
G1 X92.706 Y72.565 E0.10772
G1 X92.994 Y72.853 E0.01381
G1 X90.746 Y75.102 E0.10772
G1 X91.034 Y75.390 E0.01381
G1 X93.282 Y73.142 E0.10772
G1 X93.571 Y73.430 E0.01381
G1 X91.323 Y75.678 E0.10772
G1 X91.611 Y75.966 E0.01381
G1 X93.859 Y73.718 E0.10772
G1 X94.147 Y74.006 E0.01381
G1 X91.899 Y76.254 E0.10772
G1 X92.187 Y76.542 E0.01381
G1 X94.435 Y74.294 E0.10772
G1 X94.723 Y74.582 E0.01381
G1 X92.475 Y76.830 E0.10772
G1 X92.763 Y77.119 E0.01381
G1 X95.011 Y74.870 E0.10772
G1 X95.299 Y75.159 E0.01381
G1 X93.051 Y77.407 E0.10772
G1 X93.340 Y77.695 E0.01381
G1 X95.588 Y75.447 E0.10772
G1 X95.876 Y75.735 E0.01381
G1 X93.628 Y77.983 E0.10772
G1 X93.916 Y78.271 E0.01381
G1 X96.164 Y76.023 E0.10772
G1 X96.452 Y76.311 E0.01381
G1 X94.204 Y78.559 E0.10772
G1 X94.492 Y78.847 E0.01381
G1 X96.740 Y76.599 E0.10772
G1 X97.028 Y76.888 E0.01381
G1 X94.780 Y79.136 E0.10772
G1 X95.068 Y79.424 E0.01381
G1 X97.316 Y77.176 E0.10772
G1 X97.605 Y77.464 E0.01381
G1 X95.357 Y79.712 E0.10772
G1 X95.645 Y80.000 E0.01381
G1 X97.893 Y77.752 E0.10772
G1 X98.181 Y78.040 E0.01381
G1 X95.933 Y80.288 E0.10772
G1 X96.221 Y80.576 E0.01381
G1 X98.469 Y78.328 E0.10772
G1 X98.757 Y78.616 E0.01381
G1 X96.509 Y80.864 E0.10772
G1 X96.797 Y81.153 E0.01381
G1 X99.045 Y78.905 E0.10772
G1 X99.334 Y79.193 E0.01381
G1 X97.085 Y81.441 E0.10772
G1 X97.374 Y81.729 E0.01381
G1 X99.622 Y79.481 E0.10772
G1 X99.910 Y79.769 E0.01381
G1 X97.662 Y82.017 E0.10772
G1 X97.950 Y82.305 E0.01381
G1 X100.198 Y80.057 E0.10772
G1 X100.486 Y80.345 E0.01381
G1 X98.238 Y82.593 E0.10772
G1 X98.526 Y82.881 E0.01381
G1 X100.774 Y80.633 E0.10772
G1 X101.062 Y80.922 E0.01381
G1 X98.814 Y83.170 E0.10772
G1 X99.102 Y83.458 E0.01381
G1 X101.351 Y81.210 E0.10772
G1 X101.639 Y81.498 E0.01381
G1 X99.391 Y83.746 E0.10772
G1 X99.679 Y84.034 E0.01381
G1 X101.927 Y81.786 E0.10772
G1 X102.215 Y82.074 E0.01381
G1 X99.967 Y84.322 E0.10772
G1 X100.255 Y84.610 E0.01381
G1 X102.503 Y82.362 E0.10772
G1 X102.791 Y82.650 E0.01381
G1 X100.543 Y84.898 E0.10772
G1 X100.831 Y85.187 E0.01381
G1 X103.079 Y82.939 E0.10772
G1 X103.368 Y83.227 E0.01381
G1 X101.120 Y85.475 E0.10772
G1 X101.408 Y85.763 E0.01381
G1 X103.656 Y83.515 E0.10772
G1 X103.944 Y83.803 E0.01381
G1 X101.696 Y86.051 E0.10772
G1 X101.984 Y86.339 E0.01381
G1 X104.232 Y84.091 E0.10772
G1 X104.520 Y84.379 E0.01381
G1 X102.272 Y86.627 E0.10772
G1 X102.560 Y86.915 E0.01381
G1 X104.808 Y84.667 E0.10772
G1 X105.096 Y84.956 E0.01381
G1 X102.848 Y87.204 E0.10772
G1 X103.137 Y87.492 E0.01381
G1 X105.385 Y85.244 E0.10772
G1 X105.673 Y85.532 E0.01381
G1 X103.425 Y87.780 E0.10772
G1 X103.713 Y88.068 E0.01381
G1 X105.961 Y85.820 E0.10772
G1 X106.249 Y86.108 E0.01381
G1 X104.001 Y88.356 E0.10772
G1 X104.289 Y88.644 E0.01381
G1 X106.537 Y86.396 E0.10772
G1 X106.825 Y86.684 E0.01381
G1 X104.577 Y88.932 E0.10772
G1 X104.865 Y89.221 E0.01381
G1 X107.113 Y86.973 E0.10772
G1 X107.402 Y87.261 E0.01381
G1 X105.154 Y89.509 E0.10772
G1 X105.442 Y89.797 E0.01381
G1 X107.690 Y87.549 E0.10772
G1 X107.978 Y87.837 E0.01381
G1 X105.730 Y90.085 E0.10772
G1 X106.018 Y90.373 E0.01381
G1 X108.266 Y88.125 E0.10772
G1 X108.554 Y88.413 E0.01381
G1 X106.306 Y90.661 E0.10772
G1 X106.594 Y90.949 E0.01381
G1 X108.842 Y88.701 E0.10772
G1 X109.130 Y88.990 E0.01381
G1 X106.882 Y91.238 E0.10772
G1 X107.171 Y91.526 E0.01381
G1 X109.419 Y89.278 E0.10772
G1 X109.707 Y89.566 E0.01381
G1 X107.459 Y91.814 E0.10772
G1 X107.747 Y92.102 E0.01381
G1 X109.995 Y89.854 E0.10772
G1 X110.283 Y90.142 E0.01381
G1 X108.035 Y92.390 E0.10772
G1 X108.323 Y92.678 E0.01381
G1 X110.571 Y90.430 E0.10772
G1 X110.859 Y90.718 E0.01381
G1 X108.611 Y92.966 E0.10772
G1 X108.899 Y93.255 E0.01381
G1 X111.147 Y91.007 E0.10772
G1 X111.436 Y91.295 E0.01381
G1 X109.188 Y93.543 E0.10772
