; generated by Slic3r 1.3.0-dev on 2016-10-30 at 08:17:33

; external perimeters extrusion width = 0.45mm
; perimeters extrusion width = 0.45mm
; infill extrusion width = 0.45mm
; solid infill extrusion width = 0.45mm
; top infill extrusion width = 0.40mm
; support material extrusion width = 0.35mm

M107
M115 U3.0.8 ; tell printer latest fw version
M83  ; extruder relative mode
M104 S210 ; set extruder temp
M140 S55 ; set bed temp
M190 S55 ; wait for bed temp
M109 S210 ; wait for extruder temp
G28 W ; home all without mesh bed level
G80 ; mesh bed leveling
G1 Y-3.0 F1000.0 ; go outside pritn area
G1 X60.0 E9.0  F1000.0 ; intro line
G1 X100.0 E12.5  F1000.0 ; intro line
G21 ; set units to millimeters
G90 ; use absolute coordinates
M83 ; use relative distances for extrusion
G1 E-0.80000 F2100.00000
G1 Z0.150 F7200.000
G1 X103.346 Y89.046 F7200.000
G1 E0.80000 F2100.00000
M204 S1000
G1 F1800
G1 X104.443 Y87.911 E0.03817
G1 X105.199 Y87.574 E0.02002
G1 X106.536 Y87.178 E0.03372
G1 X107.434 Y87.048 E0.02196
G1 X142.804 Y87.048 E0.85542
G1 X143.704 Y87.178 E0.02198
G1 X145.039 Y87.574 E0.03369
G1 X146.393 Y88.386 E0.03817
G1 X146.894 Y89.051 E0.02013
G1 X147.487 Y90.099 E0.02914
G1 X147.701 Y90.561 E0.01231
G1 X148.236 Y92.012 E0.03740
G1 X148.431 Y93.150 E0.02793
G1 X148.377 Y97.100 E0.09555
G1 X148.295 Y97.775 E0.01644
G1 X147.527 Y101.070 E0.08183
G1 X146.554 Y104.174 E0.07867
G1 X144.678 Y109.249 E0.13085
G1 X143.746 Y111.502 E0.05897
G1 X143.597 Y111.813 E0.00834
G1 X141.874 Y114.928 E0.08610
G1 X138.639 Y119.857 E0.14258
G1 X138.422 Y120.150 E0.00881
G1 X138.006 Y120.633 E0.01543
G1 X137.380 Y121.234 E0.02097
G1 X136.838 Y121.687 E0.01709
G1 X136.326 Y122.060 E0.01531
G1 X135.726 Y122.412 E0.01683
G1 X135.121 Y122.666 E0.01586
G1 X134.859 Y122.733 E0.00655
G1 X134.565 Y122.796 E0.00729
G1 X133.874 Y122.866 E0.01679
G1 X115.882 Y122.689 E0.43515
G1 X115.290 Y122.599 E0.01450
G1 X114.859 Y122.484 E0.01077
G1 X114.577 Y122.393 E0.00719
G1 X113.994 Y122.161 E0.01517
G1 X112.953 Y121.658 E0.02797
G1 X112.600 Y121.449 E0.00991
G1 X112.036 Y121.050 E0.01672
G1 X111.537 Y120.580 E0.01656
G1 X111.202 Y120.137 E0.01345
G1 X111.021 Y119.860 E0.00799
G1 X108.091 Y114.804 E0.14134
G1 X106.504 Y112.022 E0.07746
G1 X106.369 Y111.759 E0.00715
G1 X105.365 Y109.535 E0.05901
G1 X103.332 Y104.518 E0.13092
G1 X102.334 Y101.683 E0.07268
G1 X102.180 Y101.031 E0.01620
G1 X101.593 Y96.378 E0.11344
G1 X101.580 Y95.719 E0.01594
G1 X101.820 Y92.844 E0.06978
G1 X102.001 Y92.021 E0.02038
G1 X102.531 Y90.570 E0.03736
G1 X102.751 Y90.095 E0.01266
G1 X103.317 Y89.098 E0.02771
G1 X103.684 Y89.237 F7200.000
G1 F1800
G1 X105.309 Y87.946 E0.05021
G1 X106.646 Y87.550 E0.03372
G1 X107.434 Y87.436 E0.01926
G1 X142.804 Y87.436 E0.85542
G1 X143.593 Y87.550 E0.01928
G1 X144.929 Y87.946 E0.03369
G1 X146.556 Y89.241 E0.05030
G1 X147.149 Y90.290 E0.02914
G1 X147.337 Y90.695 E0.01080
G1 X147.872 Y92.146 E0.03740
G1 X148.043 Y93.145 E0.02450
G1 X147.989 Y97.095 E0.09555
G1 X147.917 Y97.687 E0.01443
G1 X147.093 Y101.187 E0.08696
G1 X146.190 Y104.040 E0.07237
G1 X144.315 Y109.115 E0.13085
G1 X143.388 Y111.353 E0.05860
G1 X143.257 Y111.626 E0.00732
G1 X141.550 Y114.716 E0.08537
G1 X138.314 Y119.644 E0.14258
G1 X138.123 Y119.902 E0.00775
G1 X137.729 Y120.362 E0.01467
G1 X137.131 Y120.936 E0.02004
G1 X136.592 Y121.387 E0.01699
G1 X136.105 Y121.742 E0.01459
G1 X135.546 Y122.069 E0.01566
G1 X135.009 Y122.294 E0.01407
G1 X134.778 Y122.354 E0.00578
G1 X134.484 Y122.417 E0.00729
G1 X133.878 Y122.478 E0.01473
G1 X115.904 Y122.302 E0.43471
G1 X115.384 Y122.223 E0.01272
G1 X114.960 Y122.109 E0.01061
G1 X114.711 Y122.029 E0.00634
G1 X114.138 Y121.801 E0.01491
G1 X113.150 Y121.324 E0.02654
G1 X112.799 Y121.117 E0.00984
G1 X112.270 Y120.740 E0.01571
G1 X111.831 Y120.328 E0.01456
G1 X111.515 Y119.908 E0.01270
G1 X111.357 Y119.666 E0.00701
G1 X108.428 Y114.611 E0.14127
G1 X106.723 Y111.599 E0.08373
G1 X105.725 Y109.389 E0.05864
G1 X103.692 Y104.372 E0.13092
G1 X102.700 Y101.555 E0.07223
G1 X102.565 Y100.983 E0.01421
G1 X101.978 Y96.329 E0.11344
G1 X101.966 Y95.751 E0.01398
G1 X102.206 Y92.876 E0.06978
G1 X102.365 Y92.154 E0.01788
G1 X102.896 Y90.703 E0.03736
G1 X103.088 Y90.286 E0.01111
G1 X103.654 Y89.289 E0.02771
G1 X104.021 Y89.429 F7200.000
G1 F1800
G1 X105.419 Y88.318 E0.04320
G1 X106.756 Y87.922 E0.03372
G1 X107.434 Y87.823 E0.01657
G1 X142.804 Y87.823 E0.85542
G1 X143.483 Y87.922 E0.01659
G1 X144.819 Y88.318 E0.03369
G1 X146.219 Y89.432 E0.04327
G1 X146.812 Y90.481 E0.02914
G1 X146.973 Y90.830 E0.00929
G1 X147.508 Y92.280 E0.03740
G1 X147.656 Y93.139 E0.02108
G1 X147.602 Y97.090 E0.09555
G1 X147.539 Y97.599 E0.01241
G1 X146.723 Y101.070 E0.08624
G1 X145.827 Y103.905 E0.07191
G1 X143.951 Y108.980 E0.13085
G1 X143.030 Y111.205 E0.05823
G1 X142.917 Y111.439 E0.00630
G1 X141.226 Y114.503 E0.08463
G1 X137.990 Y119.431 E0.14258
G1 X137.825 Y119.654 E0.00669
G1 X137.451 Y120.091 E0.01392
G1 X136.882 Y120.639 E0.01911
G1 X136.360 Y121.077 E0.01649
G1 X135.678 Y121.552 E0.02010
G1 X135.354 Y121.732 E0.00895
G1 X134.888 Y121.926 E0.01220
G1 X134.403 Y122.038 E0.01205
G1 X133.881 Y122.090 E0.01267
G1 X115.926 Y121.915 E0.43427
G1 X115.479 Y121.847 E0.01094
G1 X115.061 Y121.735 E0.01045
G1 X114.282 Y121.441 E0.02015
G1 X113.347 Y120.990 E0.02511
G1 X112.999 Y120.784 E0.00978
G1 X112.503 Y120.431 E0.01471
G1 X112.126 Y120.075 E0.01256
G1 X111.692 Y119.471 E0.01797
G1 X108.765 Y114.419 E0.14121
G1 X107.076 Y111.439 E0.08285
G1 X106.084 Y109.243 E0.05826
G1 X104.051 Y104.226 E0.13092
G1 X103.066 Y101.426 E0.07179
G1 X102.950 Y100.934 E0.01223
G1 X102.363 Y96.281 E0.11344
G1 X102.352 Y95.783 E0.01203
G1 X102.592 Y92.908 E0.06978
G1 X102.729 Y92.287 E0.01539
G1 X103.260 Y90.836 E0.03736
G1 X103.426 Y90.477 E0.00956
G1 X103.991 Y89.481 E0.02771
G1 F5760
G1 X105.419 Y88.318 E-0.63792
G1 F5760
G1 X105.757 Y88.218 E-0.12208
G1 E-0.04000 F2100.00000
G1 X133.995 Y119.071 F7200.000
G1 E0.80000 F2100.00000
G1 F720
G1 X133.913 Y119.089 E0.00203
G1 X133.867 Y119.078 E0.00115
G1 X133.289 Y118.655 E0.01732
G1 X133.188 Y118.338 E0.00804
G1 X133.585 Y118.059 E0.01175
G1 X135.292 Y116.488 E0.05611
G1 X138.773 Y112.773 E0.12311
G1 X138.730 Y112.857 E0.00229
G1 X135.259 Y116.945 E0.12968
G1 X135.407 Y117.367 E0.01083
G1 X135.405 Y117.886 E0.01256
G1 X135.300 Y118.020 E0.00413
G1 X134.948 Y118.365 E0.01191
G1 X134.467 Y118.767 E0.01516
G1 X134.047 Y119.042 E0.01214
G1 F5760
G1 X133.913 Y119.089 E-0.04934
G1 F5760
G1 X133.867 Y119.078 E-0.01648
G1 F5760
G1 X133.289 Y118.655 E-0.24799
G1 F5760
G1 X133.188 Y118.338 E-0.11510
G1 F5760
G1 X133.585 Y118.059 E-0.16824
G1 F5760
G1 X133.931 Y117.741 E-0.16285
G1 E-0.04000 F2100.00000
G1 X143.826 Y91.314 F7200.000
G1 E0.80000 F2100.00000
G1 F1080
G1 X142.166 Y90.976 E0.04096
G1 X138.858 Y90.989 E0.08001
G1 X138.611 Y91.203 E0.00790
G1 X137.585 Y90.879 E0.02602
G1 X136.840 Y91.148 E0.01916
G1 X136.912 Y90.785 E0.00896
G1 X137.872 Y90.438 E0.02470
G1 X142.774 Y90.421 E0.11855
G1 X143.999 Y90.784 E0.03089
G1 X144.542 Y91.745 E0.02667
G1 X145.057 Y93.143 E0.03605
G1 X145.004 Y97.032 E0.09406
G1 X144.243 Y100.297 E0.08109
G1 X143.388 Y103.009 E0.06877
G1 X142.489 Y105.398 E0.06173
G1 X141.515 Y108.076 E0.06893
G1 X140.642 Y110.180 E0.05509
G1 X140.389 Y110.489 E0.00966
G1 X139.054 Y113.075 E0.07037
G1 X135.699 Y117.026 E0.12537
G1 X135.795 Y117.302 E0.00706
G1 X135.793 Y118.022 E0.01742
G1 X135.588 Y118.280 E0.00797
G1 X135.208 Y118.652 E0.01287
G1 X134.704 Y119.074 E0.01590
G1 X134.404 Y119.287 E0.00890
G1 X134.133 Y119.438 E0.00751
G1 X133.907 Y119.487 E0.00559
G1 X133.700 Y119.436 E0.00517
G1 X132.935 Y118.876 E0.02292
G1 X132.929 Y118.800 E0.00183
G1 X132.737 Y118.203 E0.01518
G1 X132.879 Y118.081 E0.00453
G1 X133.342 Y117.757 E0.01366
G1 X135.019 Y116.212 E0.05515
G1 X138.658 Y112.329 E0.12870
G1 X140.997 Y107.900 E0.12115
G1 X141.714 Y106.221 E0.04415
G1 X143.061 Y102.239 E0.10167
G1 X143.750 Y100.110 E0.05410
G1 X144.466 Y97.532 E0.06471
G1 X144.772 Y94.328 E0.07786
G1 X144.334 Y93.158 E0.03020
G1 X143.842 Y91.372 E0.04482
G1 X143.839 Y90.914 F7200.000
G1 X144.050 Y91.313 F7200.000
G1 F1440
G1 X144.202 Y91.682 E0.00279
G1 F1440
G1 X144.405 Y92.262 E0.00743
G1 F1440
G1 X144.715 Y93.202 E0.01624
G1 X144.739 Y93.337 E0.00226
G1 F1440
G1 X144.786 Y93.608 E0.00283
G1 F1440
G1 X144.833 Y93.878 E0.00115
G1 F5760
G1 X144.786 Y93.608 E-0.09516
G1 E-0.70484 F2100.00000
G1 X144.795 Y96.382 F7200.000
G1 E0.80000 F2100.00000
G1 F1440
G1 X144.761 Y97.002 E0.00259
G1 X144.698 Y97.386 E0.00162
G1 X144.509 Y98.196 F7200.000
G1 F1440
G1 X143.989 Y100.227 E0.00796
G1 F1440
G1 X143.125 Y102.918 E0.02174
G1 X142.268 Y105.316 E0.01959
G1 F1440
G1 X141.923 Y106.300 E0.00323
G1 X141.592 Y107.140 E0.00280
G1 F1440
G1 X141.261 Y107.977 E0.00707
G1 X141.058 Y108.413 E0.00378
G1 F1440
G1 X140.688 Y109.200 E0.01122
G1 F1440
G1 X140.318 Y109.986 E0.01558
G1 X140.100 Y110.317 E0.00711
G1 X138.968 Y112.486 E0.04387
G1 X138.921 Y112.497 E0.00086
G1 F1440
G1 X138.758 Y112.526 E0.00207
G1 F5760
G1 X138.921 Y112.497 E-0.05715
G1 E-0.74285 F2100.00000
G1 X135.116 Y117.319 F7200.000
G1 E0.80000 F2100.00000
G1 F1440
G1 X134.904 Y117.108 E0.00881
G1 X134.556 Y117.428 E0.01395
G1 X135.073 Y117.945 E0.02155
G1 X134.739 Y118.279 E0.01394
G1 X134.208 Y117.749 E0.02212
G1 X133.860 Y118.069 E0.01395
G1 X134.379 Y118.588 E0.02164
G1 X133.759 Y118.637 E0.01832
G1 X133.502 Y118.380 E0.01072
G1 F5760
G1 X133.759 Y118.637 E-0.12597
G1 F5760
G1 X134.379 Y118.588 E-0.21525
G1 F5760
G1 X133.860 Y118.069 E-0.25422
G1 F5760
G1 X134.208 Y117.749 E-0.16389
G1 F5760
G1 X134.209 Y117.750 E-0.00067
G1 E-0.04000 F2100.00000
G1 X138.107 Y90.840 F7200.000
G1 E0.80000 F2100.00000
G1 F1440
G1 X138.785 Y90.712 E0.00577
G1 X142.202 Y90.700 E0.02853
G1 F1440
G1 X142.727 Y90.752 E0.00635
G1 X143.927 Y91.052 E0.01490
G1 F5760
G1 X142.727 Y90.752 E-0.42863
G1 F5760
G1 X142.202 Y90.700 E-0.18262
G1 E-0.18875 F2100.00000
G1 X138.745 Y90.830 F7200.000
G1 E0.80000 F2100.00000
G1 F1440
G1 X138.257 Y90.756 E0.00934
G1 F1440
G1 X137.768 Y90.682 E0.00643
G1 F5760
G1 X138.257 Y90.756 E-0.17118
G1 E-0.62882 F2100.00000
G1 X115.048 Y117.000 F7200.000
G1 E0.80000 F2100.00000
G1 F720
G1 X111.328 Y112.885 E0.13415
G1 X111.268 Y112.777 E0.00300
G1 X115.139 Y116.679 E0.13294
G1 X115.467 Y116.695 E0.00792
G1 X116.708 Y118.424 E0.05147
G1 X116.603 Y118.584 E0.00462
G1 X116.463 Y118.726 E0.00481
G1 X116.179 Y118.933 E0.00851
G1 X115.872 Y118.861 E0.00762
G1 X115.409 Y118.676 E0.01206
G1 X114.856 Y118.412 E0.01484
G1 X114.556 Y118.237 E0.00839
G1 X114.372 Y118.100 E0.00556
G1 X114.321 Y118.030 E0.00209
G1 X114.306 Y117.954 E0.00188
G1 X114.355 Y117.477 E0.01159
G1 X114.408 Y117.336 E0.00363
G1 X114.995 Y117.028 E0.01604
G1 X114.425 Y116.889 F7200.000
G1 F1080
G1 X111.011 Y113.113 E0.12313
G1 X109.600 Y110.579 E0.07013
G1 X109.434 Y110.348 E0.00688
G1 X108.490 Y108.265 E0.05532
G1 X107.435 Y105.617 E0.06893
G1 X106.461 Y103.255 E0.06180
G1 X105.524 Y100.587 E0.06837
G1 X104.943 Y95.978 E0.11237
G1 X105.179 Y93.152 E0.06856
G1 X105.694 Y91.744 E0.03625
G1 X106.238 Y90.784 E0.02670
G1 X107.465 Y90.421 E0.03093
G1 X112.368 Y90.438 E0.11858
G1 X113.327 Y90.785 E0.02467
G1 X113.399 Y91.149 E0.00897
G1 X112.654 Y90.879 E0.01916
G1 X111.628 Y91.203 E0.02603
G1 X111.381 Y90.989 E0.00790
G1 X108.073 Y90.976 E0.08000
G1 X106.422 Y91.307 E0.04071
G1 X105.911 Y93.158 E0.04645
G1 X105.477 Y94.315 E0.02988
G1 X105.408 Y96.607 E0.05547
G1 X105.998 Y100.340 E0.09139
G1 X106.760 Y102.462 E0.05454
G1 X108.233 Y106.400 E0.10168
G1 X108.979 Y108.011 E0.04295
G1 X109.918 Y109.773 E0.04828
G1 X111.383 Y112.343 E0.07153
G1 X115.307 Y116.297 E0.13473
G1 X115.588 Y116.308 E0.00681
G1 X115.737 Y116.411 E0.00439
G1 X115.988 Y116.738 E0.00996
G1 X117.160 Y118.392 E0.04903
G1 X117.091 Y118.547 E0.00411
G1 X116.906 Y118.829 E0.00816
G1 X116.717 Y119.021 E0.00651
G1 X116.306 Y119.321 E0.01231
G1 X116.088 Y119.321 E0.00526
G1 X115.749 Y119.230 E0.00849
G1 X115.254 Y119.032 E0.01291
G1 X114.674 Y118.755 E0.01554
G1 X114.342 Y118.561 E0.00930
G1 X114.094 Y118.376 E0.00749
G1 X113.956 Y118.188 E0.00563
G1 X113.915 Y117.970 E0.00536
G1 X113.974 Y117.388 E0.01417
G1 X114.096 Y117.062 E0.00842
G1 X114.372 Y116.917 E0.00752
G1 X114.712 Y116.611 F7200.000
G1 X114.544 Y117.791 F7200.000
G1 F1440
G1 X114.818 Y118.065 E0.01262
G1 F5760
G1 X114.544 Y117.791 E-0.13434
G1 E-0.66566 F2100.00000
G1 X115.580 Y117.352 F7200.000
G1 E0.80000 F2100.00000
G1 F1440
G1 X115.313 Y117.085 E0.01226
G1 X114.829 Y117.339 E0.01777
G1 X116.165 Y118.675 E0.06146
G1 F5760
G1 X114.829 Y117.339 E-0.65436
G1 F5760
G1 X115.100 Y117.197 E-0.10564
G1 E-0.04000 F2100.00000
G1 X111.142 Y112.629 F7200.000
G1 E0.80000 F2100.00000
G1 F1440
G1 X109.890 Y110.405 E0.04450
G1 X109.740 Y110.171 E0.00484
G1 X109.328 Y109.342 E0.01613
G1 F1440
G1 X108.744 Y108.157 E0.01784
G1 F1440
G1 X108.379 Y107.310 E0.00752
G1 F1440
G1 X108.024 Y106.486 E0.00446
G1 X107.188 Y104.342 E0.01143
G1 F1440
G1 X106.721 Y103.155 E0.01094
G1 X105.783 Y100.526 E0.02395
G1 X105.755 Y100.408 E0.00105
G1 F1440
G1 X105.465 Y98.371 E0.01059
G1 F5760
G1 X105.755 Y100.408 E-0.71257
G1 E-0.08743 F2100.00000
G1 X105.201 Y96.285 F7200.000
G1 E0.80000 F2100.00000
G1 F1440
G1 X105.186 Y95.972 E0.00123
G1 X105.235 Y95.110 E0.00339
G1 X105.313 Y94.138 F7200.000
G1 F1440
G1 X105.395 Y93.774 E0.00275
G1 F1440
G1 X105.477 Y93.409 E0.00508
G1 F1440
G1 X105.518 Y93.227 E0.00314
G1 X105.709 Y92.657 E0.01010
G1 F1440
G1 X105.962 Y91.869 E0.01045
G1 F1440
G1 X106.084 Y91.574 E0.00260
G1 F1440
G1 X106.206 Y91.280 E0.00111
G1 X106.311 Y91.049 F7200.000
G1 F1440
G1 X106.711 Y90.950 E0.00445
G1 F1440
G1 X107.512 Y90.752 E0.01235
G1 X107.676 Y90.735 E0.00248
G1 F1440
G1 X108.054 Y90.699 E0.00373
G1 X111.454 Y90.712 E0.03340
G1 X112.132 Y90.840 E0.00679
G1 X111.982 Y90.756 F7200.000
G1 F1440
G1 X111.493 Y90.830 E0.00789
G1 X111.982 Y90.756 F7200.000
G1 F1440
G1 X112.471 Y90.682 E0.00497
G1 F5760
G1 X111.982 Y90.756 E-0.17131
G1 E-0.62869 F2100.00000
G1 Z0.150 F7200.000
M106 S216.75
G1 Z0.350 F7200.000
G1 X133.225 Y118.327 F7200.000
G1 E0.80000 F2100.00000
M204 S800
G1 F1200
G1 X133.942 Y117.712 E0.03196
G1 X134.237 Y117.506 E0.01217
G1 X135.316 Y116.512 E0.04966
G1 X138.141 Y113.498 E0.13981
G1 X135.231 Y116.925 E0.15215
G1 X135.410 Y117.418 E0.01774
G1 X135.409 Y117.842 E0.01437
G1 X135.287 Y117.989 E0.00645
G1 X134.931 Y118.339 E0.01690
G1 X134.450 Y118.741 E0.02121
G1 X134.181 Y118.931 E0.01116
G1 X133.982 Y119.042 E0.00771
G1 X133.905 Y119.059 E0.00266
G1 X133.842 Y119.045 E0.00220
G1 X133.336 Y118.674 E0.02124
G1 X133.244 Y118.384 E0.01032
M204 S1000
G1 F5760
G1 X133.942 Y117.712 E-0.33566
G1 F5760
G1 X134.237 Y117.506 E-0.12453
G1 F5760
G1 X134.874 Y116.919 E-0.29981
G1 E-0.04000 F2100.00000
G1 X137.097 Y91.921 F7200.000
G1 E0.80000 F2100.00000
M204 S800
G1 F1200
G1 X137.257 Y91.109 E0.02803
G1 X137.947 Y90.860 E0.02482
G1 X138.267 Y90.859 E0.01083
G1 X137.142 Y91.881 E0.05145
M204 S1000
G1 F5760
G1 X137.257 Y91.109 E-0.27040
G1 F5760
G1 X137.947 Y90.860 E-0.25397
G1 F5760
G1 X138.267 Y90.859 E-0.11077
G1 F5760
G1 X138.000 Y91.101 E-0.12487
G1 E-0.04000 F2100.00000
G1 X143.838 Y91.301 F7200.000
G1 E0.80000 F2100.00000
M204 S800
G1 F1800
G1 X142.168 Y90.961 E0.05769
G1 X138.882 Y90.974 E0.11123
G1 X138.567 Y91.136 E0.01199
G1 X136.917 Y92.635 E0.07545
G1 X136.532 Y92.687 E0.01317
G1 X136.914 Y90.800 E0.06517
G1 X137.875 Y90.453 E0.03459
G1 X142.772 Y90.436 E0.16576
G1 X143.989 Y90.797 E0.04296
G1 X144.528 Y91.751 E0.03709
G1 X145.042 Y93.145 E0.05031
G1 X144.989 Y97.030 E0.13149
G1 X144.229 Y100.293 E0.11341
G1 X143.374 Y103.004 E0.09622
G1 X142.475 Y105.392 E0.08638
G1 X141.501 Y108.071 E0.09646
G1 X140.629 Y110.173 E0.07702
G1 X140.376 Y110.481 E0.01350
G1 X139.041 Y113.066 E0.09849
G1 X135.695 Y117.008 E0.17504
G1 X135.817 Y117.347 E0.01218
G1 X135.815 Y117.964 E0.02090
G1 X135.801 Y118.006 E0.00149
G1 X135.587 Y118.265 E0.01137
G1 X135.205 Y118.641 E0.01816
G1 X134.699 Y119.063 E0.02231
G1 X134.399 Y119.276 E0.01246
G1 X134.129 Y119.426 E0.01046
