; generated by Slic3r 1.3.0-dev on 2016-10-30 at 07:58:36

; external perimeters extrusion width = 0.45mm
; perimeters extrusion width = 0.45mm
; infill extrusion width = 0.45mm
; solid infill extrusion width = 0.45mm
; top infill extrusion width = 0.40mm
; support material extrusion width = 0.35mm

M107
M115 U3.0.8 ; tell printer latest fw version
M83  ; extruder relative mode
M104 S210 ; set extruder temp
M140 S55 ; set bed temp
M190 S55 ; wait for bed temp
M109 S210 ; wait for extruder temp
G28 W ; home all without mesh bed level
G80 ; mesh bed leveling
G1 Y-3.0 F1000.0 ; go outside pritn area
G1 X60.0 E9.0  F1000.0 ; intro line
G1 X100.0 E12.5  F1000.0 ; intro line
G21 ; set units to millimeters
G90 ; use absolute coordinates
M83 ; use relative distances for extrusion
G1 E-0.80000 F2100.00000
G1 Z0.150 F7200.000
G1 X91.082 Y79.642 F7200.000
G1 E0.80000 F2100.00000
M204 S1000
G1 F1800
G1 X92.708 Y78.351 E0.05021
G1 X94.936 Y77.691 E0.05620
G1 X95.724 Y77.576 E0.01926
G1 X154.674 Y77.576 E1.42570
G1 X155.463 Y77.691 E0.01928
G1 X157.689 Y78.351 E0.05615
G1 X159.316 Y79.646 E0.05030
G1 X160.304 Y81.394 E0.04856
G1 X160.492 Y81.799 E0.01080
G1 X161.384 Y84.217 E0.06233
G1 X161.555 Y85.216 E0.02450
G1 X161.465 Y91.800 E0.15925
G1 X161.393 Y92.392 E0.01443
G1 X160.057 Y98.089 E0.14151
G1 X158.581 Y102.758 E0.11844
G1 X155.455 Y111.216 E0.21808
G1 X153.938 Y114.880 E0.09591
G1 X153.807 Y115.153 E0.00732
G1 X151.036 Y120.178 E0.13878
G1 X145.642 Y128.393 E0.23769
G1 X145.452 Y128.648 E0.00768
G1 X144.890 Y129.310 E0.02102
G1 X144.029 Y130.142 E0.02894
G1 X143.179 Y130.854 E0.02683
G1 X142.455 Y131.380 E0.02164
G1 X142.210 Y131.534 E0.00699
G1 X141.679 Y131.829 E0.01470
G1 X141.148 Y132.052 E0.01393
G1 X140.420 Y132.218 E0.01806
G1 X139.814 Y132.279 E0.01473
G1 X109.942 Y131.988 E0.72248
G1 X109.424 Y131.909 E0.01266
G1 X108.747 Y131.727 E0.01696
G1 X108.429 Y131.621 E0.00812
G1 X107.419 Y131.210 E0.02635
G1 X106.190 Y130.611 E0.03308
G1 X105.617 Y130.273 E0.01609
G1 X104.898 Y129.757 E0.02141
G1 X104.462 Y129.346 E0.01448
G1 X104.022 Y128.757 E0.01778
G1 X103.864 Y128.515 E0.00700
G1 X98.997 Y120.118 E0.23472
G1 X96.223 Y115.235 E0.13582
G1 X94.590 Y111.620 E0.09593
G1 X91.202 Y103.258 E0.21820
G1 X89.579 Y98.645 E0.11826
G1 X89.444 Y98.073 E0.01421
G1 X88.466 Y90.317 E0.18906
G1 X88.454 Y89.739 E0.01398
G1 X88.854 Y84.947 E0.11630
G1 X89.013 Y84.225 E0.01788
G1 X89.897 Y81.807 E0.06226
G1 X90.090 Y81.390 E0.01111
G1 X91.052 Y79.694 E0.04716
G1 X91.419 Y79.833 F7200.000
G1 F1800
G1 X92.818 Y78.723 E0.04320
G1 X95.046 Y78.063 E0.05620
G1 X95.724 Y77.964 E0.01657
G1 X154.674 Y77.964 E1.42570
G1 X155.353 Y78.063 E0.01659
G1 X157.579 Y78.723 E0.05615
G1 X158.979 Y79.837 E0.04327
G1 X159.967 Y81.585 E0.04856
G1 X160.128 Y81.934 E0.00929
G1 X161.020 Y84.352 E0.06233
G1 X161.168 Y85.211 E0.02108
G1 X161.078 Y91.795 E0.15925
G1 X161.015 Y92.304 E0.01241
G1 X159.687 Y97.972 E0.14079
G1 X158.218 Y102.624 E0.11798
G1 X155.092 Y111.082 E0.21808
G1 X153.579 Y114.731 E0.09554
G1 X153.467 Y114.966 E0.00630
G1 X150.712 Y119.965 E0.13804
G1 X145.317 Y128.180 E0.23769
G1 X145.154 Y128.400 E0.00663
G1 X144.612 Y129.039 E0.02026
G1 X143.780 Y129.845 E0.02801
G1 X142.930 Y130.557 E0.02683
G1 X142.233 Y131.062 E0.02082
G1 X142.021 Y131.195 E0.00604
G1 X141.493 Y131.489 E0.01463
G1 X141.036 Y131.681 E0.01198
G1 X140.339 Y131.838 E0.01729
G1 X139.817 Y131.891 E0.01267
G1 X109.964 Y131.601 E0.72204
G1 X109.518 Y131.533 E0.01089
G1 X108.848 Y131.353 E0.01679
G1 X108.573 Y131.261 E0.00702
G1 X107.586 Y130.860 E0.02575
G1 X106.387 Y130.277 E0.03225
G1 X105.816 Y129.941 E0.01602
G1 X105.132 Y129.447 E0.02040
G1 X104.756 Y129.093 E0.01248
G1 X104.199 Y128.320 E0.02304
G1 X99.332 Y119.923 E0.23472
G1 X96.577 Y115.075 E0.13488
G1 X94.949 Y111.475 E0.09556
G1 X91.561 Y103.113 E0.21820
G1 X89.945 Y98.517 E0.11782
G1 X89.829 Y98.025 E0.01223
G1 X88.851 Y90.269 E0.18906
G1 X88.840 Y89.771 E0.01203
G1 X89.240 Y84.979 E0.11630
G1 X89.377 Y84.358 E0.01539
G1 X90.261 Y81.940 E0.06226
G1 X90.427 Y81.582 E0.00956
G1 X91.390 Y79.886 E0.04716
G1 F5760
G1 X92.818 Y78.723 E-0.63792
G1 F5760
G1 X93.156 Y78.622 E-0.12208
G1 E-0.04000 F2100.00000
G1 X142.020 Y125.173 F7200.000
G1 E0.80000 F2100.00000
G1 F1440
G1 X142.205 Y123.790 E0.03373
G1 X146.590 Y119.124 E0.15486
G1 X146.704 Y119.252 E0.00414
G1 X146.737 Y119.208 E0.00132
G1 X146.792 Y119.296 E0.00253
G1 X148.092 Y117.464 E0.05432
G1 X151.889 Y110.292 E0.19626
G1 X153.117 Y107.408 E0.07582
G1 X154.326 Y103.806 E0.09190
G1 X155.440 Y100.607 E0.08193
G1 X156.614 Y96.965 E0.09254
G1 X157.704 Y93.045 E0.09840
G1 X157.825 Y92.525 E0.01291
G1 X158.125 Y89.394 E0.07606
G1 X158.093 Y91.689 E0.05552
G1 X156.833 Y97.096 E0.13427
G1 X155.413 Y101.601 E0.11423
G1 X153.915 Y105.577 E0.10275
G1 X152.295 Y110.037 E0.11478
G1 X150.856 Y113.505 E0.09080
G1 X150.440 Y114.012 E0.01585
G1 X148.216 Y118.319 E0.11724
G1 X142.547 Y124.995 E0.21183
G1 X142.733 Y125.532 E0.01374
G1 X142.730 Y126.639 E0.02676
G1 X142.464 Y126.965 E0.01019
G1 X141.846 Y127.570 E0.02091
G1 X141.021 Y128.261 E0.02601
G1 X140.541 Y128.602 E0.01425
G1 X140.134 Y128.829 E0.01127
G1 X139.850 Y128.889 E0.00701
G1 X139.607 Y128.829 E0.00607
G1 X138.459 Y127.988 E0.03440
G1 X138.186 Y127.106 E0.02234
G1 X138.882 Y126.618 E0.02056
G1 X141.154 Y124.519 E0.07481
G1 X141.972 Y125.137 E0.02478
G1 F5760
G1 X142.205 Y123.790 E-0.47321
G1 F5760
G1 X142.772 Y123.187 E-0.28679
G1 E-0.04000 F2100.00000
G1 X158.162 Y86.615 F7200.000
G1 E0.80000 F2100.00000
G1 F720
G1 X157.544 Y84.964 E0.04264
G1 X156.806 Y82.283 E0.06726
G1 X156.566 Y81.859 E0.01177
G1 X156.120 Y81.727 E0.01127
G1 X153.729 Y81.239 E0.05901
G1 X148.162 Y81.262 E0.13463
G1 X147.253 Y80.975 E0.02306
G1 X154.588 Y80.950 E0.17741
G1 X156.498 Y81.516 E0.04819
G1 X157.344 Y83.012 E0.04155
G1 X158.181 Y85.281 E0.05848
G1 X158.163 Y86.555 E0.03083
G1 F5760
G1 X157.544 Y84.964 E-0.59128
G1 F5760
G1 X157.415 Y84.495 E-0.16872
G1 E-0.04000 F2100.00000
G1 X141.724 Y124.463 F7200.000
G1 E0.80000 F2100.00000
G1 F1080
G1 X141.837 Y123.615 E0.02068
G1 X146.597 Y118.550 E0.16811
G1 X146.675 Y118.638 E0.00283
G1 X146.761 Y118.521 E0.00350
G1 X146.811 Y118.600 E0.00225
G1 X147.761 Y117.261 E0.03972
G1 X151.538 Y110.125 E0.19525
G1 X152.754 Y107.270 E0.07505
G1 X153.959 Y103.681 E0.09158
G1 X155.072 Y100.483 E0.08187
G1 X156.243 Y96.853 E0.09225
G1 X157.328 Y92.949 E0.09802
G1 X157.442 Y92.462 E0.01209
G1 X157.901 Y87.656 E0.11676
G1 X157.909 Y87.046 E0.01476
G1 X157.175 Y85.084 E0.05065
G1 X156.445 Y82.432 E0.06653
G1 X156.306 Y82.187 E0.00682
G1 X156.026 Y82.104 E0.00707
G1 X153.691 Y81.627 E0.05764
G1 X148.103 Y81.650 E0.13513
G1 X146.142 Y81.031 E0.04974
G1 X144.659 Y81.567 E0.03813
G1 X144.731 Y81.203 E0.00896
G1 X146.429 Y80.590 E0.04367
G1 X154.644 Y80.562 E0.19867
G1 X156.759 Y81.189 E0.05335
G1 X157.697 Y82.849 E0.04610
G1 X158.569 Y85.214 E0.06098
G1 X158.480 Y91.736 E0.15776
G1 X157.207 Y97.199 E0.13564
G1 X155.779 Y101.727 E0.11484
G1 X154.279 Y105.711 E0.10295
G1 X152.656 Y110.178 E0.11494
G1 X151.192 Y113.707 E0.09240
G1 X150.766 Y114.226 E0.01625
G1 X148.540 Y118.536 E0.11732
G1 X142.986 Y125.078 E0.20754
G1 X143.121 Y125.467 E0.00998
G1 X143.117 Y126.777 E0.03168
G1 X142.750 Y127.227 E0.01404
G1 X142.106 Y127.858 E0.02180
G1 X141.258 Y128.568 E0.02675
G1 X140.748 Y128.930 E0.01514
G1 X140.272 Y129.196 E0.01319
G1 X139.844 Y129.287 E0.01058
G1 X139.439 Y129.187 E0.01009
G1 X138.088 Y128.197 E0.04051
G1 X138.072 Y128.018 E0.00436
G1 X137.733 Y126.963 E0.02679
G1 X138.636 Y126.316 E0.02687
G1 X139.330 Y125.659 E0.02311
G1 X141.131 Y124.015 E0.05897
G1 X141.676 Y124.427 E0.01651
G1 X142.123 Y124.437 F7200.000
G1 X142.349 Y124.582 F7200.000
G1 F1440
G1 X142.206 Y125.465 E0.00315
G1 X142.505 Y125.933 F7200.000
G1 F1440
G1 X142.296 Y125.724 E0.00731
G1 X142.503 Y126.493 E0.01972
G1 X140.966 Y124.956 E0.05384
G1 X140.674 Y125.226 E0.00985
G1 X142.288 Y126.839 E0.05653
G1 X142.007 Y127.120 E0.00984
G1 X140.382 Y125.495 E0.05692
G1 X140.090 Y125.765 E0.00985
G1 X141.726 Y127.401 E0.05731
G1 X141.430 Y127.666 E0.00985
G1 X139.798 Y126.035 E0.05715
G1 X139.506 Y126.304 E0.00985
G1 X141.124 Y127.922 E0.05667
G1 X140.811 Y128.171 E0.00990
G1 X139.214 Y126.574 E0.05594
G1 X138.913 Y126.834 E0.00986
G1 X140.483 Y128.404 E0.05500
G1 X140.124 Y128.608 E0.01021
G1 X138.583 Y127.066 E0.05401
G1 X138.629 Y127.674 E0.01511
G1 X138.917 Y127.962 E0.01007
G1 F5760
G1 X138.629 Y127.674 E-0.14078
G1 F5760
G1 X138.583 Y127.066 E-0.21132
G1 F5760
G1 X139.415 Y127.899 E-0.40790
G1 E-0.04000 F2100.00000
G1 X142.580 Y124.374 F7200.000
G1 E0.80000 F2100.00000
G1 F1440
G1 X142.373 Y124.168 E0.00736
G1 X142.518 Y123.740 E0.01139
G1 X142.972 Y124.195 E0.01623
G1 X143.235 Y123.886 E0.01023
G1 X142.795 Y123.445 E0.01571
G1 X143.072 Y123.150 E0.01020
G1 X143.498 Y123.576 E0.01519
G1 X143.760 Y123.267 E0.01023
G1 X143.349 Y122.855 E0.01468
G1 X143.626 Y122.561 E0.01020
G1 X144.023 Y122.958 E0.01416
G1 X144.286 Y122.649 E0.01023
G1 X143.903 Y122.266 E0.01365
G1 X144.180 Y121.971 E0.01020
G1 X144.548 Y122.339 E0.01313
G1 X144.811 Y122.030 E0.01023
G1 X144.457 Y121.676 E0.01262
G1 X144.734 Y121.381 E0.01020
G1 X145.073 Y121.721 E0.01210
G1 X145.336 Y121.411 E0.01023
G1 X145.011 Y121.087 E0.01159
G1 X145.288 Y120.792 E0.01020
G1 X145.599 Y121.102 E0.01107
G1 X145.861 Y120.793 E0.01023
G1 X145.565 Y120.497 E0.01055
G1 X145.843 Y120.202 E0.01020
G1 X146.124 Y120.484 E0.01004
G1 X146.387 Y120.174 E0.01023
G1 X146.125 Y119.913 E0.00933
G1 X146.411 Y119.627 E0.01020
G1 X146.649 Y119.865 E0.00849
G1 X146.855 Y119.586 F7200.000
G1 F1440
G1 X147.411 Y118.869 E0.00543
G1 F1440
G1 X147.968 Y118.153 E0.00984
G1 X148.136 Y117.876 E0.00351
G1 F1440
G1 X148.308 Y117.593 E0.00171
G1 X150.245 Y113.888 E0.02154
G1 X150.366 Y113.705 E0.00113
G1 F1440
G1 X150.601 Y113.352 E0.00443
G1 X150.832 Y112.863 E0.00565
G1 F1440
G1 X151.292 Y111.885 E0.00459
G1 F5760
G1 X150.832 Y112.863 E-0.37458
G1 E-0.42542 F2100.00000
G1 X158.135 Y89.200 F7200.000
G1 E0.80000 F2100.00000
G1 F1440
G1 X158.190 Y88.185 E0.01829
G1 F1440
G1 X158.227 Y87.014 E0.01715
G1 X158.196 Y86.807 E0.00306
G1 F5760
G1 X158.227 Y87.014 E-0.07252
G1 F5760
G1 X158.190 Y88.185 E-0.40611
G1 E-0.32137 F2100.00000
G1 X157.964 Y85.473 F7200.000
G1 E0.80000 F2100.00000
G1 F1440
G1 X157.938 Y85.323 E0.00062
G1 X157.591 Y84.311 E0.00435
G1 F5760
G1 X157.938 Y85.323 E-0.37044
G1 F5760
G1 X157.964 Y85.473 E-0.05278
G1 E-0.37678 F2100.00000
G1 X154.746 Y81.224 F7200.000
G1 E0.80000 F2100.00000
G1 F1440
G1 X154.458 Y81.167 E0.00061
G1 F5760
G1 X154.746 Y81.224 E-0.10168
G1 E-0.69832 F2100.00000
G1 X147.061 Y80.946 F7200.000
G1 E0.80000 F2100.00000
G1 F1440
G1 X146.570 Y80.871 E0.00781
G1 F1440
G1 X146.325 Y80.834 E0.00248
G1 F5760
G1 X146.570 Y80.871 E-0.08597
G1 E-0.71403 F2100.00000
G1 X107.771 Y124.884 F7200.000
G1 E0.80000 F2100.00000
G1 F1440
G1 X101.887 Y118.376 E0.21218
G1 X99.543 Y114.165 E0.11656
G1 X99.272 Y113.789 E0.01121
G1 X97.712 Y110.344 E0.09145
G1 X95.954 Y105.935 E0.11479
G1 X94.333 Y102.003 E0.10287
G1 X92.783 Y97.588 E0.11316
G1 X91.821 Y89.957 E0.18601
G1 X92.209 Y85.308 E0.11284
G1 X93.048 Y83.012 E0.05912
G1 X93.897 Y81.517 E0.04158
G1 X95.810 Y80.950 E0.04825
G1 X103.146 Y80.975 E0.17743
G1 X102.236 Y81.262 E0.02307
G1 X96.669 Y81.239 E0.13464
G1 X94.289 Y81.727 E0.05875
G1 X93.843 Y81.859 E0.01125
G1 X93.603 Y82.282 E0.01177
G1 X92.862 Y84.964 E0.06729
G1 X92.120 Y86.950 E0.05128
G1 X92.077 Y87.457 E0.01231
G1 X91.973 Y90.932 E0.08406
G1 X92.063 Y91.649 E0.01749
G1 X92.963 Y97.344 E0.13944
G1 X94.269 Y100.991 E0.09370
G1 X95.481 Y104.153 E0.08190
G1 X96.651 Y107.324 E0.08173
G1 X96.810 Y107.723 E0.01040
G1 X98.123 Y110.557 E0.07554
G1 X99.525 Y113.186 E0.07206
G1 X101.986 Y117.501 E0.12013
G1 X102.815 Y118.578 E0.03287
G1 X103.027 Y118.618 E0.00523
G1 X103.972 Y119.542 E0.03195
G1 X108.527 Y124.141 E0.15655
G1 X108.893 Y124.073 E0.00901
G1 X109.233 Y124.087 E0.00823
G1 X109.397 Y124.201 E0.00484
G1 X109.730 Y124.635 E0.01323
G1 X111.651 Y127.347 E0.08036
G1 X111.597 Y127.467 E0.00317
G1 X111.318 Y127.883 E0.01214
G1 X111.036 Y128.167 E0.00966
G1 X110.424 Y128.617 E0.01838
G1 X110.176 Y128.619 E0.00598
G1 X109.659 Y128.479 E0.01296
G1 X108.855 Y128.157 E0.02095
G1 X107.893 Y127.698 E0.02579
G1 X107.374 Y127.393 E0.01454
G1 X107.001 Y127.116 E0.01124
G1 X106.828 Y126.880 E0.00709
G1 X106.777 Y126.605 E0.00675
G1 X106.867 Y125.700 E0.02200
G1 X107.028 Y125.274 E0.01103
G1 X107.717 Y124.912 E0.01882
G1 X107.148 Y124.773 F7200.000
G1 F1080
G1 X101.570 Y118.603 E0.20116
G1 X99.215 Y114.373 E0.11708
G1 X98.935 Y113.984 E0.01160
G1 X97.355 Y110.496 E0.09261
G1 X95.595 Y106.081 E0.11495
G1 X93.970 Y102.141 E0.10307
G1 X92.404 Y97.678 E0.11441
G1 X91.431 Y89.966 E0.18799
G1 X91.827 Y85.224 E0.11508
G1 X92.695 Y82.848 E0.06116
G1 X93.637 Y81.189 E0.04614
G1 X95.754 Y80.562 E0.05341
G1 X103.971 Y80.590 E0.19872
G1 X105.667 Y81.203 E0.04362
G1 X105.739 Y81.567 E0.00897
G1 X104.257 Y81.031 E0.03811
G1 X102.295 Y81.650 E0.04976
G1 X96.707 Y81.627 E0.13514
G1 X94.383 Y82.104 E0.05737
G1 X94.103 Y82.187 E0.00706
G1 X93.964 Y82.432 E0.00683
G1 X93.231 Y85.084 E0.06654
G1 X92.502 Y87.036 E0.05040
G1 X92.465 Y87.479 E0.01076
G1 X92.361 Y90.913 E0.08308
G1 X92.447 Y91.595 E0.01661
G1 X93.340 Y97.248 E0.13842
G1 X94.633 Y100.857 E0.09271
G1 X95.844 Y104.017 E0.08185
G1 X97.013 Y107.185 E0.08167
G1 X97.167 Y107.570 E0.01002
G1 X98.471 Y110.384 E0.07502
G1 X99.865 Y112.999 E0.07166
G1 X102.309 Y117.286 E0.11935
G1 X103.032 Y118.225 E0.02865
G1 X103.243 Y118.265 E0.00521
G1 X103.319 Y118.362 E0.00298
G1 X104.245 Y119.267 E0.03131
G1 X108.658 Y123.722 E0.15167
G1 X108.865 Y123.684 E0.00510
G1 X109.361 Y123.704 E0.01201
G1 X109.668 Y123.917 E0.00903
G1 X110.043 Y124.405 E0.01487
G1 X112.095 Y127.303 E0.08588
G1 X111.938 Y127.655 E0.00932
G1 X111.619 Y128.131 E0.01385
G1 X111.286 Y128.466 E0.01143
G1 X110.557 Y129.004 E0.02190
G1 X110.126 Y129.007 E0.01043
G1 X109.536 Y128.848 E0.01478
G1 X108.699 Y128.513 E0.02180
G1 X107.710 Y128.041 E0.02649
G1 X107.160 Y127.717 E0.01545
G1 X106.723 Y127.393 E0.01317
G1 X106.463 Y127.037 E0.01065
G1 X106.386 Y126.622 E0.01022
G1 X106.486 Y125.611 E0.02457
G1 X106.718 Y124.999 E0.01583
G1 X107.094 Y124.801 E0.01029
G1 X107.429 Y124.489 F7200.000
G1 X107.486 Y125.258 F7200.000
G1 F1440
G1 X110.527 Y128.299 E0.11837
G1 X110.877 Y128.024 E0.01223
G1 X107.895 Y125.043 E0.11604
G1 X107.145 Y125.541 F7200.000
G1 F1440
G1 X109.883 Y128.279 E0.10657
G1 F5760
G1 X108.332 Y126.727 E-0.76000
G1 E-0.04000 F2100.00000
G1 X108.822 Y127.842 F7200.000
G1 E0.80000 F2100.00000
G1 F1440
G1 X107.051 Y126.071 E0.06891
G1 X107.064 Y126.708 E0.01752
G1 X107.416 Y127.060 E0.01373
G1 F5760
G1 X107.064 Y126.708 E-0.17273
G1 F5760
G1 X107.051 Y126.071 E-0.22054
G1 F5760
G1 X107.800 Y126.820 E-0.36673
G1 E-0.04000 F2100.00000
G1 X109.358 Y124.633 F7200.000
G1 E0.80000 F2100.00000
G1 F1440
G1 X109.035 Y124.310 E0.01259
G1 X108.469 Y124.369 E0.01564
G1 X110.926 Y126.826 E0.09563
G1 X111.189 Y127.712 F7200.000
G1 F1440
G1 X106.482 Y123.005 E0.18320
G1 F5760
G1 X108.033 Y124.557 E-0.76000
G1 E-0.04000 F2100.00000
G1 X103.728 Y119.840 F7200.000
G1 E0.80000 F2100.00000
G1 F1440
G1 X102.860 Y118.938 E0.02622
G1 X102.690 Y118.842 F7200.000
G1 F1440
G1 X102.137 Y118.197 E0.00768
G1 X101.775 Y117.647 E0.00595
G1 F1440
G1 X99.743 Y114.040 E0.02380
G1 X99.497 Y113.658 E0.00261
G1 X99.017 Y112.697 E0.00618
G1 F5760
G1 X99.497 Y113.658 E-0.37222
G1 F5760
G1 X99.743 Y114.040 E-0.15739
G1 F5760
G1 X100.069 Y114.620 E-0.23040
G1 E-0.04000 F2100.00000
G1 X92.403 Y85.577 F7200.000
G1 E0.80000 F2100.00000
G1 F1440
G1 X92.451 Y85.361 E0.00065
G1 X92.626 Y84.888 E0.00147
G1 X92.850 Y84.190 E0.00214
G1 F5760
G1 X92.626 Y84.888 E-0.25367
G1 F5760
G1 X92.451 Y85.361 E-0.17479
G1 F5760
G1 X92.403 Y85.577 E-0.07648
G1 E-0.29506 F2100.00000
G1 X95.642 Y81.227 F7200.000
G1 E0.80000 F2100.00000
G1 F1440
G1 X95.943 Y81.167 E0.00065
G1 F5760
G1 X95.642 Y81.227 E-0.10642
G1 E-0.69358 F2100.00000
G1 X103.338 Y80.946 F7200.000
