; generated by Slic3r 1.3.0-dev on 2016-10-30 at 08:57:56

; external perimeters extrusion width = 0.45mm
; perimeters extrusion width = 0.45mm
; infill extrusion width = 0.45mm
; solid infill extrusion width = 0.45mm
; top infill extrusion width = 0.40mm
; support material extrusion width = 0.35mm

M107
M115 U3.0.8 ; tell printer latest fw version
M83  ; extruder relative mode
M104 S210 ; set extruder temp
M140 S55 ; set bed temp
M190 S55 ; wait for bed temp
M109 S210 ; wait for extruder temp
G28 W ; home all without mesh bed level
G80 ; mesh bed leveling
G1 Y-3.0 F1000.0 ; go outside pritn area
G1 X60.0 E9.0  F1000.0 ; intro line
G1 X100.0 E12.5  F1000.0 ; intro line
G21 ; set units to millimeters
G90 ; use absolute coordinates
M83 ; use relative distances for extrusion
G1 E-0.80000 F2100.00000
G1 Z0.150 F7200.000
G1 X94.232 Y82.041 F7200.000
G1 E0.80000 F2100.00000
M204 S1000
G1 F1800
G1 X95.858 Y80.749 E0.05021
G1 X97.863 Y80.155 E0.05058
G1 X98.652 Y80.041 E0.01926
G1 X151.707 Y80.041 E1.28313
G1 X152.496 Y80.156 E0.01928
G1 X154.499 Y80.750 E0.05054
G1 X156.126 Y82.045 E0.05030
G1 X157.016 Y83.618 E0.04371
G1 X157.203 Y84.023 E0.01080
G1 X158.006 Y86.200 E0.05610
G1 X158.177 Y87.198 E0.02450
G1 X158.096 Y93.124 E0.14332
G1 X158.024 Y93.716 E0.01443
G1 X156.816 Y98.863 E0.12787
G1 X155.484 Y103.079 E0.10692
G1 X152.670 Y110.691 E0.19627
G1 X151.300 Y113.998 E0.08658
G1 X151.169 Y114.271 E0.00732
G1 X148.665 Y118.812 E0.12543
G1 X143.810 Y126.206 E0.21392
G1 X143.620 Y126.461 E0.00770
G1 X143.099 Y127.074 E0.01944
G1 X142.305 Y127.841 E0.02671
G1 X141.518 Y128.499 E0.02481
G1 X140.868 Y128.970 E0.01943
G1 X140.624 Y129.123 E0.00696
G1 X140.144 Y129.390 E0.01329
G1 X139.614 Y129.612 E0.01390
G1 X138.936 Y129.767 E0.01683
G1 X138.330 Y129.828 E0.01473
G1 X111.432 Y129.567 E0.65054
G1 X110.914 Y129.488 E0.01269
G1 X110.300 Y129.323 E0.01536
G1 X109.981 Y129.216 E0.00814
G1 X109.058 Y128.840 E0.02411
G1 X107.930 Y128.289 E0.03036
G1 X107.412 Y127.984 E0.01453
G1 X106.742 Y127.503 E0.01996
G1 X106.304 Y127.091 E0.01454
G1 X105.895 Y126.545 E0.01650
G1 X105.737 Y126.302 E0.00700
G1 X101.357 Y118.745 E0.21125
G1 X98.848 Y114.326 E0.12290
G1 X97.373 Y111.062 E0.08661
G1 X94.324 Y103.537 E0.19638
G1 X92.859 Y99.373 E0.10676
G1 X92.724 Y98.801 E0.01421
G1 X91.844 Y91.820 E0.17016
G1 X91.832 Y91.242 E0.01398
G1 X92.192 Y86.929 E0.10467
G1 X92.351 Y86.207 E0.01788
G1 X93.147 Y84.031 E0.05604
G1 X93.340 Y83.614 E0.01111
G1 X94.203 Y82.093 E0.04230
G1 X94.570 Y82.232 F7200.000
G1 F1800
G1 X95.968 Y81.121 E0.04320
G1 X97.973 Y80.527 E0.05058
G1 X98.652 Y80.429 E0.01657
G1 X151.707 Y80.429 E1.28313
G1 X152.385 Y80.527 E0.01659
G1 X154.389 Y81.121 E0.05054
G1 X155.789 Y82.236 E0.04327
G1 X156.678 Y83.809 E0.04371
G1 X156.839 Y84.158 E0.00929
G1 X157.642 Y86.334 E0.05610
G1 X157.790 Y87.193 E0.02108
G1 X157.709 Y93.118 E0.14332
G1 X157.646 Y93.628 E0.01241
G1 X156.446 Y98.747 E0.12715
G1 X155.120 Y102.944 E0.10647
G1 X152.307 Y110.556 E0.19627
G1 X150.942 Y113.850 E0.08621
G1 X150.829 Y114.084 E0.00630
G1 X148.340 Y118.599 E0.12469
G1 X143.486 Y125.993 E0.21392
G1 X143.322 Y126.213 E0.00664
G1 X142.822 Y126.802 E0.01868
G1 X142.056 Y127.543 E0.02578
G1 X141.292 Y128.183 E0.02410
G1 X140.646 Y128.652 E0.01931
G1 X140.436 Y128.784 E0.00601
G1 X139.958 Y129.050 E0.01322
G1 X139.502 Y129.241 E0.01196
G1 X138.855 Y129.388 E0.01605
G1 X138.333 Y129.441 E0.01267
G1 X111.454 Y129.179 E0.65009
G1 X111.008 Y129.111 E0.01092
G1 X110.401 Y128.948 E0.01520
G1 X110.125 Y128.856 E0.00704
G1 X109.225 Y128.490 E0.02351
G1 X108.127 Y127.955 E0.02954
G1 X107.612 Y127.651 E0.01446
G1 X106.975 Y127.194 E0.01896
G1 X106.598 Y126.838 E0.01254
G1 X106.073 Y126.108 E0.02176
G1 X101.692 Y118.551 E0.21125
G1 X99.202 Y114.166 E0.12197
G1 X97.733 Y110.917 E0.08623
G1 X94.684 Y103.391 E0.19638
G1 X93.225 Y99.244 E0.10631
G1 X93.109 Y98.752 E0.01223
G1 X92.229 Y91.772 E0.17016
G1 X92.218 Y91.274 E0.01203
G1 X92.578 Y86.962 E0.10467
G1 X92.715 Y86.340 E0.01539
G1 X93.511 Y84.164 E0.05604
G1 X93.677 Y83.806 E0.00956
G1 X94.540 Y82.284 E0.04230
G1 F5760
G1 X95.968 Y81.121 E-0.63792
G1 F5760
G1 X96.306 Y81.021 E-0.12208
G1 E-0.04000 F2100.00000
G1 X136.937 Y124.914 F7200.000
G1 E0.80000 F2100.00000
G1 F1440
G1 X137.555 Y124.480 E0.01827
G1 X140.228 Y122.019 E0.08786
G1 X145.720 Y116.159 E0.19423
G1 X149.251 Y109.471 E0.18292
G1 X150.336 Y106.931 E0.06680
G1 X151.391 Y103.761 E0.08080
G1 X152.360 Y100.949 E0.07194
G1 X153.395 Y97.747 E0.08137
G1 X154.478 Y93.850 E0.09781
G1 X154.752 Y90.989 E0.06951
G1 X154.724 Y93.013 E0.04895
G1 X153.592 Y97.871 E0.12063
G1 X152.315 Y101.921 E0.10271
G1 X150.968 Y105.498 E0.09245
G1 X149.510 Y109.512 E0.10328
G1 X148.218 Y112.623 E0.08147
G1 X147.846 Y113.077 E0.01420
G1 X145.845 Y116.954 E0.10550
G1 X140.725 Y122.983 E0.19129
G1 X140.902 Y123.491 E0.01301
G1 X140.899 Y124.450 E0.02320
G1 X140.673 Y124.729 E0.00868
G1 X140.121 Y125.269 E0.01867
G1 X139.383 Y125.887 E0.02330
G1 X138.955 Y126.191 E0.01269
G1 X138.599 Y126.389 E0.00985
G1 X138.366 Y126.439 E0.00576
G1 X138.172 Y126.391 E0.00484
G1 X137.171 Y125.658 E0.03000
G1 X136.955 Y124.971 E0.01742
G1 F5760
G1 X137.555 Y124.480 E-0.26856
G1 F5760
G1 X138.599 Y123.519 E-0.49144
G1 E-0.04000 F2100.00000
G1 X154.785 Y88.524 F7200.000
G1 E0.80000 F2100.00000
G1 F720
G1 X154.270 Y87.150 E0.03549
G1 X153.465 Y84.229 E0.07329
G1 X150.777 Y83.680 E0.06636
G1 X145.982 Y83.711 E0.11595
G1 X145.114 Y83.437 E0.02203
G1 X151.621 Y83.415 E0.15738
G1 X153.308 Y83.915 E0.04257
G1 X154.055 Y85.236 E0.03670
G1 X154.803 Y87.263 E0.05225
G1 X154.786 Y88.464 E0.02905
G1 F5760
G1 X154.270 Y87.150 E-0.48900
G1 F5760
G1 X154.062 Y86.396 E-0.27100
G1 E-0.04000 F2100.00000
G1 X153.155 Y84.561 F7200.000
G1 E0.80000 F2100.00000
G1 F1080
G1 X150.739 Y84.068 E0.05963
G1 X145.924 Y84.099 E0.11645
G1 X144.003 Y83.493 E0.04872
G1 X142.704 Y83.962 E0.03339
G1 X142.776 Y83.599 E0.00896
G1 X144.290 Y83.052 E0.03892
G1 X151.676 Y83.027 E0.17864
G1 X153.569 Y83.588 E0.04774
G1 X154.408 Y85.073 E0.04124
G1 X155.191 Y87.196 E0.05475
G1 X155.111 Y93.060 E0.14183
G1 X153.966 Y97.973 E0.12200
G1 X152.682 Y102.048 E0.10333
G1 X151.331 Y105.633 E0.09265
G1 X149.871 Y109.652 E0.10343
G1 X148.555 Y112.825 E0.08307
G1 X148.171 Y113.292 E0.01460
G1 X146.169 Y117.171 E0.10558
G1 X141.164 Y123.065 E0.18700
G1 X141.290 Y123.426 E0.00925
G1 X141.286 Y124.588 E0.02811
G1 X140.960 Y124.990 E0.01252
G1 X140.382 Y125.557 E0.01957
G1 X139.620 Y126.194 E0.02403
G1 X139.162 Y126.520 E0.01358
G1 X138.737 Y126.756 E0.01177
G1 X138.360 Y126.837 E0.00933
G1 X138.004 Y126.749 E0.00886
G1 X136.800 Y125.867 E0.03611
G1 X136.786 Y125.713 E0.00372
G1 X136.484 Y124.773 E0.02389
G1 X137.311 Y124.177 E0.02466
G1 X139.955 Y121.743 E0.08690
G1 X145.401 Y115.932 E0.19262
G1 X148.901 Y109.304 E0.18127
G1 X149.974 Y106.794 E0.06603
G1 X151.024 Y103.636 E0.08047
G1 X151.992 Y100.826 E0.07190
G1 X153.024 Y97.635 E0.08109
G1 X154.095 Y93.779 E0.09679
G1 X154.552 Y89.006 E0.11598
G1 X153.901 Y87.270 E0.04483
G1 X153.171 Y84.619 E0.06650
G1 X153.168 Y84.161 F7200.000
G1 F5760
G1 X151.030 Y84.134 E-0.76000
G1 E-0.04000 F2100.00000
G1 X154.401 Y86.804 F7200.000
G1 E0.80000 F2100.00000
G1 F1440
G1 X154.587 Y87.383 E0.00149
G1 F5760
G1 X154.401 Y86.804 E-0.21066
G1 E-0.58934 F2100.00000
G1 X154.819 Y88.715 F7200.000
G1 E0.80000 F2100.00000
G1 F1440
G1 X154.861 Y88.990 E0.00407
G1 X154.795 Y90.194 E0.01763
G1 F1440
G1 X154.762 Y90.796 E0.01222
G1 F5760
G1 X154.795 Y90.194 E-0.20877
G1 E-0.59123 F2100.00000
G1 X144.922 Y83.408 F7200.000
G1 E0.80000 F2100.00000
G1 F1440
G1 X144.431 Y83.333 E0.00781
G1 F1440
G1 X144.186 Y83.296 E0.00248
G1 F5760
G1 X144.431 Y83.333 E-0.08597
G1 E-0.71403 F2100.00000
G1 X148.529 Y111.305 F7200.000
G1 E0.80000 F2100.00000
G1 F1440
G1 X148.161 Y112.088 E0.00310
G1 F1440
G1 X147.977 Y112.479 E0.00366
G1 X147.767 Y112.795 E0.00322
G1 F1440
G1 X147.659 Y112.958 E0.00072
G1 X145.918 Y116.293 E0.01395
G1 X145.828 Y116.421 E0.00058
G1 F1440
G1 X145.662 Y116.657 E0.00247
G1 F1440
G1 X145.578 Y116.775 E0.00195
G1 X144.991 Y117.433 E0.01191
G1 F1440
G1 X143.817 Y118.749 E0.03266
G1 X143.740 Y119.132 F7200.000
G1 F1440
G1 X143.460 Y118.853 E0.01001
G1 X143.183 Y119.148 E0.01025
G1 X143.477 Y119.442 E0.01051
G1 X143.214 Y119.752 E0.01028
G1 X142.906 Y119.444 E0.01101
G1 X142.628 Y119.740 E0.01025
G1 X142.951 Y120.062 E0.01152
G1 X142.687 Y120.372 E0.01028
G1 X142.351 Y120.036 E0.01202
G1 X142.074 Y120.332 E0.01025
G1 X142.424 Y120.682 E0.01252
G1 X142.161 Y120.992 E0.01028
G1 X141.797 Y120.628 E0.01303
G1 X141.519 Y120.924 E0.01025
G1 X141.898 Y121.302 E0.01353
G1 X141.634 Y121.612 E0.01028
G1 X141.242 Y121.220 E0.01403
G1 X140.965 Y121.516 E0.01025
G1 X141.371 Y121.922 E0.01454
G1 X141.108 Y122.232 E0.01028
G1 X140.687 Y121.812 E0.01504
G1 X140.410 Y122.108 E0.01025
G1 X140.845 Y122.542 E0.01554
G1 X140.581 Y122.852 E0.01028
G1 X140.115 Y122.386 E0.01667
G1 X139.817 Y122.661 E0.01025
G1 X140.617 Y123.461 E0.02861
G1 X140.673 Y124.090 E0.01596
G1 X139.518 Y122.935 E0.04127
G1 X139.220 Y123.210 E0.01025
G1 X140.555 Y124.545 E0.04772
G1 X140.268 Y124.832 E0.01025
G1 X138.921 Y123.485 E0.04815
G1 X138.623 Y123.760 E0.01025
G1 X139.981 Y125.118 E0.04857
G1 X139.678 Y125.388 E0.01026
G1 X138.324 Y124.035 E0.04838
G1 X138.026 Y124.309 E0.01025
G1 X139.366 Y125.649 E0.04789
G1 X139.037 Y125.894 E0.01035
G1 X137.727 Y124.584 E0.04682
G1 X137.398 Y124.828 E0.01036
G1 X138.685 Y126.115 E0.04600
G1 F5760
G1 X137.398 Y124.828 E-0.63035
G1 F5760
G1 X137.699 Y124.605 E-0.12965
G1 E-0.04000 F2100.00000
G1 X137.628 Y125.631 F7200.000
G1 E0.80000 F2100.00000
G1 F1440
G1 X137.340 Y125.343 E0.01028
G1 F5760
G1 X137.628 Y125.631 E-0.14089
G1 E-0.65911 F2100.00000
G1 X109.590 Y122.913 F7200.000
G1 E0.80000 F2100.00000
G1 F1440
G1 X104.247 Y117.003 E0.19267
G1 X102.139 Y113.216 E0.10482
G1 X101.897 Y112.880 E0.01003
G1 X100.496 Y109.786 E0.08213
G1 X98.914 Y105.819 E0.10328
G1 X97.455 Y102.281 E0.09255
G1 X96.063 Y98.315 E0.10165
G1 X95.199 Y91.460 E0.16710
G1 X95.547 Y87.290 E0.10121
G1 X96.298 Y85.236 E0.05289
G1 X97.047 Y83.916 E0.03672
G1 X98.737 Y83.415 E0.04263
G1 X105.245 Y83.437 E0.15739
G1 X104.376 Y83.711 E0.02205
G1 X99.581 Y83.680 E0.11596
G1 X96.904 Y84.229 E0.06609
G1 X96.097 Y87.150 E0.07329
G1 X95.434 Y88.917 E0.04564
G1 X95.329 Y92.429 E0.08498
G1 X96.221 Y98.080 E0.13837
G1 X97.374 Y101.292 E0.08253
G1 X98.430 Y104.072 E0.07192
G1 X99.588 Y107.208 E0.08085
G1 X100.750 Y109.709 E0.06670
G1 X102.129 Y112.296 E0.07091
G1 X104.347 Y116.186 E0.10830
G1 X110.340 Y122.226 E0.20577
G1 X110.792 Y122.240 E0.01094
G1 X110.915 Y122.325 E0.00360
G1 X111.217 Y122.718 E0.01200
G1 X112.917 Y125.119 E0.07115
G1 X112.639 Y125.558 E0.01257
G1 X112.387 Y125.812 E0.00865
G1 X111.870 Y126.195 E0.01557
G1 X111.666 Y126.197 E0.00492
G1 X111.212 Y126.075 E0.01137
G1 X110.493 Y125.787 E0.01873
G1 X109.633 Y125.377 E0.02305
G1 X109.170 Y125.104 E0.01300
G1 X108.844 Y124.862 E0.00982
G1 X108.701 Y124.668 E0.00583
G1 X108.660 Y124.443 E0.00553
G1 X108.739 Y123.644 E0.01940
G1 X108.873 Y123.289 E0.00918
G1 X109.537 Y122.941 E0.01813
G1 X108.967 Y122.802 F7200.000
G1 F1080
G1 X103.930 Y117.230 E0.18165
G1 X101.812 Y113.424 E0.10534
G1 X101.559 Y113.075 E0.01042
G1 X100.139 Y109.938 E0.08329
G1 X98.555 Y105.965 E0.10344
G1 X97.093 Y102.420 E0.09275
G1 X95.684 Y98.405 E0.10290
G1 X94.809 Y91.469 E0.16908
G1 X95.165 Y87.206 E0.10345
G1 X95.945 Y85.072 E0.05493
G1 X96.787 Y83.588 E0.04128
G1 X98.682 Y83.027 E0.04779
G1 X106.070 Y83.052 E0.17869
G1 X107.582 Y83.599 E0.03889
G1 X107.654 Y83.962 E0.00897
G1 X106.357 Y83.493 E0.03337
G1 X104.434 Y84.099 E0.04875
G1 X99.619 Y84.068 E0.11645
G1 X97.214 Y84.561 E0.05937
G1 X96.466 Y87.270 E0.06796
G1 X95.820 Y88.993 E0.04450
G1 X95.718 Y92.404 E0.08254
G1 X96.599 Y97.984 E0.13661
G1 X97.738 Y101.158 E0.08156
G1 X98.793 Y103.936 E0.07187
G1 X99.946 Y107.059 E0.08051
G1 X101.097 Y109.536 E0.06606
G1 X102.469 Y112.109 E0.07052
G1 X104.659 Y115.950 E0.10693
G1 X110.506 Y121.843 E0.20078
G1 X110.919 Y121.855 E0.00999
G1 X111.185 Y122.041 E0.00784
G1 X111.529 Y122.488 E0.01364
G1 X113.361 Y125.075 E0.07667
G1 X113.226 Y125.378 E0.00802
G1 X112.941 Y125.805 E0.01243
G1 X112.641 Y126.106 E0.01027
G1 X111.999 Y126.582 E0.01934
G1 X111.617 Y126.585 E0.00925
G1 X111.089 Y126.443 E0.01320
G1 X110.338 Y126.143 E0.01958
G1 X109.451 Y125.719 E0.02376
G1 X108.956 Y125.428 E0.01391
G1 X108.565 Y125.139 E0.01175
G1 X108.336 Y124.825 E0.00939
G1 X108.268 Y124.459 E0.00900
G1 X108.358 Y123.555 E0.02197
G1 X108.562 Y123.015 E0.01397
G1 X108.914 Y122.830 E0.00960
G1 X109.249 Y122.519 F7200.000
G1 X109.881 Y122.984 F7200.000
G1 F1440
G1 X112.397 Y125.500 E0.09586
G1 X112.082 Y125.796 E0.01164
G1 X109.480 Y123.195 E0.09911
G1 X109.080 Y123.405 E0.01219
G1 X111.591 Y125.916 E0.09567
G1 F5760
G1 X110.039 Y124.365 E-0.76000
G1 E-0.04000 F2100.00000
G1 X110.603 Y125.540 F7200.000
G1 E0.80000 F2100.00000
G1 F1440
G1 X108.937 Y123.873 E0.06349
G1 X108.910 Y124.457 E0.01576
G1 X109.259 Y124.806 E0.01328
G1 F5760
G1 X108.910 Y124.457 E-0.17077
G1 F5760
G1 X108.937 Y123.873 E-0.20256
G1 F5760
G1 X109.726 Y124.663 E-0.38667
G1 E-0.04000 F2100.00000
G1 X110.876 Y122.757 F7200.000
G1 E0.80000 F2100.00000
G1 F1440
G1 X110.582 Y122.463 E0.01120
G1 F5760
G1 X110.876 Y122.757 E-0.14396
G1 E-0.65604 F2100.00000
G1 X112.404 Y124.897 F7200.000
G1 E0.80000 F2100.00000
G1 F1440
G1 X106.367 Y118.859 E0.23003
G1 X106.264 Y118.662 F7200.000
G1 F1440
G1 X105.096 Y117.430 E0.03579
G1 F1440
G1 X104.513 Y116.813 E0.01402
G1 X104.424 Y116.695 E0.00245
G1 F1440
G1 X104.246 Y116.458 E0.00347
G1 F1440
G1 X104.149 Y116.329 E0.00107
G1 X102.329 Y113.097 E0.02474
G1 F1440
G1 X102.110 Y112.756 E0.00068
G1 X101.816 Y112.171 E0.00110
G1 F5760
G1 X102.110 Y112.756 E-0.22672
G1 F5760
G1 X102.329 Y113.097 E-0.14047
G1 E-0.43282 F2100.00000
G1 X95.749 Y87.464 F7200.000
G1 E0.80000 F2100.00000
G1 F1440
G1 X95.996 Y86.698 E0.00243
G1 F5760
G1 X95.749 Y87.464 E-0.27863
G1 E-0.52137 F2100.00000
G1 X105.437 Y83.408 F7200.000
G1 E0.80000 F2100.00000
G1 F1440
G1 X105.683 Y83.370 E0.00391
G1 F1440
G1 X106.174 Y83.296 E0.00496
G1 F5760
G1 X105.683 Y83.370 E-0.17214
G1 E-0.62786 F2100.00000
G1 Z0.150 F7200.000
M106 S216.75
G1 Z0.350 F7200.000
G1 X136.973 Y124.896 F7200.000
G1 E0.80000 F2100.00000
M204 S800
G1 F2400
G1 X137.645 Y124.320 E0.02997
G1 X138.207 Y123.926 E0.02321
G1 X140.252 Y122.043 E0.09410
G1 X145.748 Y116.179 E0.27204
G1 X149.282 Y109.486 E0.25621
G1 X150.369 Y106.943 E0.09359
G1 X151.423 Y103.772 E0.11313
G1 X152.393 Y100.959 E0.10069
G1 X153.428 Y97.757 E0.11393
G1 X154.390 Y94.297 E0.12154
G1 X153.559 Y97.862 E0.12388
G1 X152.283 Y101.910 E0.14368
G1 X150.936 Y105.486 E0.12936
G1 X149.478 Y109.499 E0.14453
G1 X148.189 Y112.606 E0.11383
G1 X147.817 Y113.058 E0.01983
G1 X145.816 Y116.935 E0.14765
G1 X140.698 Y122.962 E0.26766
G1 X140.904 Y123.541 E0.02079
G1 X140.902 Y124.406 E0.02929
G1 X140.658 Y124.700 E0.01293
G1 X140.104 Y125.243 E0.02625
G1 X139.365 Y125.861 E0.03261
G1 X138.939 Y126.164 E0.01771
G1 X138.587 Y126.360 E0.01364
G1 X138.362 Y126.409 E0.00781
G1 X138.150 Y126.359 E0.00737
G1 X137.217 Y125.676 E0.03914
G1 X136.991 Y124.953 E0.02563
M204 S1000
G1 F5760
G1 X137.645 Y124.320 E-0.31531
G1 F5760
G1 X138.207 Y123.926 E-0.23748
G1 F5760
G1 X138.647 Y123.521 E-0.20721
G1 E-0.04000 F2100.00000
G1 X154.526 Y93.713 F7200.000
G1 E0.80000 F2100.00000
M204 S800
G1 F1200
G1 X154.706 Y91.828 E0.06409
G1 X154.690 Y93.009 E0.03998
G1 X154.539 Y93.654 E0.02243
M204 S1000
G1 F5760
G1 X154.706 Y91.828 E-0.63520
G1 F5760
G1 X154.701 Y92.188 E-0.12480
G1 E-0.04000 F2100.00000
G1 X154.754 Y88.342 F7200.000
G1 E0.80000 F2100.00000
M204 S800
G1 F1200
G1 X154.303 Y87.139 E0.04347
G1 X153.553 Y84.417 E0.09557
G1 X154.024 Y85.251 E0.03240
G1 X154.768 Y87.269 E0.07282
G1 X154.755 Y88.282 E0.03429
M204 S1000
G1 F5760
G1 X154.303 Y87.139 E-0.42548
G1 F5760
G1 X154.046 Y86.208 E-0.33452
G1 E-0.04000 F2100.00000
G1 X153.421 Y84.185 F7200.000
G1 E0.80000 F2100.00000
M204 S800
G1 F1200
