; generated by Slic3r 1.3.0-dev on 2016-10-30 at 08:33:11

; external perimeters extrusion width = 0.45mm
; perimeters extrusion width = 0.45mm
; infill extrusion width = 0.45mm
; solid infill extrusion width = 0.45mm
; top infill extrusion width = 0.40mm
; support material extrusion width = 0.35mm

M107
M115 U3.0.8 ; tell printer latest fw version
M83  ; extruder relative mode
M104 S210 ; set extruder temp
M140 S55 ; set bed temp
M190 S55 ; wait for bed temp
M109 S210 ; wait for extruder temp
G28 W ; home all without mesh bed level
G80 ; mesh bed leveling
G1 Y-3.0 F1000.0 ; go outside pritn area
G1 X60.0 E9.0  F1000.0 ; intro line
G1 X100.0 E12.5  F1000.0 ; intro line
G21 ; set units to millimeters
G90 ; use absolute coordinates
M83 ; use relative distances for extrusion
G1 E-0.80000 F2100.00000
G1 Z0.150 F7200.000
G1 X98.958 Y85.639 F7200.000
G1 E0.80000 F2100.00000
M204 S1000
G1 F1800
G1 X100.584 Y84.348 E0.05021
G1 X102.255 Y83.853 E0.04215
G1 X103.043 Y83.738 E0.01926
G1 X147.256 Y83.738 E1.06927
G1 X148.044 Y83.853 E0.01928
G1 X149.714 Y84.348 E0.04212
G1 X151.341 Y85.643 E0.05030
G1 X152.082 Y86.954 E0.03642
G1 X152.270 Y87.359 E0.01080
G1 X152.939 Y89.173 E0.04675
G1 X153.110 Y90.171 E0.02450
G1 X153.043 Y95.109 E0.11944
G1 X152.971 Y95.702 E0.01443
G1 X151.955 Y100.025 E0.10741
G1 X150.837 Y103.559 E0.08964
G1 X148.492 Y109.903 E0.16356
G1 X147.344 Y112.676 E0.07259
G1 X147.213 Y112.949 E0.00732
G1 X145.107 Y116.764 E0.10540
G1 X141.062 Y122.925 E0.17825
G1 X140.872 Y123.181 E0.00773
G1 X140.414 Y123.718 E0.01705
G1 X139.718 Y124.389 E0.02338
G1 X139.062 Y124.938 E0.02069
G1 X138.484 Y125.357 E0.01726
G1 X138.245 Y125.507 E0.00683
G1 X137.842 Y125.731 E0.01115
G1 X137.311 Y125.954 E0.01393
G1 X136.710 Y126.092 E0.01492
G1 X136.104 Y126.153 E0.01473
G1 X113.669 Y125.934 E0.54261
G1 X113.149 Y125.855 E0.01271
G1 X112.630 Y125.716 E0.01299
G1 X112.382 Y125.636 E0.00630
G1 X111.680 Y125.356 E0.01829
G1 X110.540 Y124.807 E0.03061
G1 X110.105 Y124.550 E0.01221
G1 X109.505 Y124.122 E0.01782
G1 X109.068 Y123.709 E0.01454
G1 X108.705 Y123.227 E0.01460
G1 X108.547 Y122.984 E0.00700
G1 X104.888 Y116.670 E0.17649
G1 X102.785 Y112.962 E0.10309
G1 X101.549 Y110.226 E0.07262
G1 X99.008 Y103.954 E0.16365
G1 X97.780 Y100.464 E0.08949
G1 X97.645 Y99.892 E0.01421
G1 X96.911 Y94.075 E0.14180
G1 X96.899 Y93.497 E0.01398
G1 X97.199 Y89.903 E0.08722
G1 X97.358 Y89.181 E0.01788
G1 X98.021 Y87.367 E0.04670
G1 X98.214 Y86.950 E0.01111
G1 X98.928 Y85.691 E0.03501
G1 X99.295 Y85.830 F7200.000
G1 F1800
G1 X100.694 Y84.720 E0.04320
G1 X102.365 Y84.225 E0.04215
G1 X103.043 Y84.126 E0.01657
G1 X147.256 Y84.126 E1.06927
G1 X147.934 Y84.225 E0.01659
G1 X149.604 Y84.720 E0.04211
G1 X151.004 Y85.834 E0.04327
G1 X151.745 Y87.145 E0.03642
G1 X151.906 Y87.494 E0.00929
G1 X152.575 Y89.307 E0.04675
G1 X152.723 Y90.166 E0.02108
G1 X152.655 Y95.104 E0.11944
G1 X152.593 Y95.613 E0.01241
G1 X151.585 Y99.908 E0.10670
G1 X150.473 Y103.425 E0.08919
G1 X148.129 Y109.768 E0.16356
G1 X146.986 Y112.527 E0.07222
G1 X146.873 Y112.762 E0.00630
G1 X144.783 Y116.551 E0.10466
G1 X140.738 Y122.712 E0.17825
G1 X140.574 Y122.933 E0.00667
G1 X140.137 Y123.446 E0.01629
G1 X139.469 Y124.091 E0.02245
G1 X138.816 Y124.638 E0.02059
G1 X138.057 Y125.168 E0.02240
G1 X137.656 Y125.391 E0.01108
G1 X137.199 Y125.582 E0.01199
G1 X136.629 Y125.713 E0.01415
G1 X136.107 Y125.765 E0.01267
G1 X113.691 Y125.547 E0.54217
G1 X113.244 Y125.479 E0.01094
G1 X112.731 Y125.342 E0.01283
G1 X112.454 Y125.249 E0.00707
G1 X111.683 Y124.934 E0.02014
G1 X110.737 Y124.473 E0.02546
G1 X110.305 Y124.217 E0.01214
G1 X109.739 Y123.812 E0.01682
G1 X109.362 Y123.457 E0.01254
G1 X108.883 Y122.790 E0.01987
G1 X105.233 Y116.492 E0.17604
G1 X103.139 Y112.802 E0.10260
G1 X101.908 Y110.080 E0.07225
G1 X99.367 Y103.809 E0.16365
G1 X98.145 Y100.335 E0.08905
G1 X98.029 Y99.843 E0.01223
G1 X97.296 Y94.026 E0.14180
G1 X97.285 Y93.529 E0.01203
G1 X97.585 Y89.935 E0.08722
G1 X97.722 Y89.314 E0.01538
G1 X98.385 Y87.500 E0.04670
G1 X98.551 Y87.141 E0.00956
G1 X99.266 Y85.883 E0.03501
G1 F5760
G1 X100.694 Y84.720 E-0.63792
G1 F5760
G1 X101.032 Y84.619 E-0.12208
G1 E-0.04000 F2100.00000
G1 X136.019 Y122.734 F7200.000
G1 E0.80000 F2100.00000
G1 F720
G1 X135.233 Y122.159 E0.02356
G1 X135.062 Y121.626 E0.01353
G1 X135.570 Y121.270 E0.01501
G1 X137.760 Y119.253 E0.07199
G1 X142.348 Y114.358 E0.16227
G1 X145.300 Y108.769 E0.15285
G1 X145.405 Y108.523 E0.00647
G1 X144.262 Y111.301 E0.07265
G1 X143.954 Y111.676 E0.01173
G1 X142.287 Y114.906 E0.08790
G1 X137.992 Y119.964 E0.16048
G1 X138.154 Y120.429 E0.01192
G1 X138.152 Y121.168 E0.01787
G1 X137.986 Y121.374 E0.00640
G1 X137.535 Y121.817 E0.01529
G1 X136.925 Y122.327 E0.01923
G1 X136.576 Y122.575 E0.01035
G1 X136.297 Y122.730 E0.00772
G1 X136.140 Y122.764 E0.00389
G1 X136.078 Y122.749 E0.00155
G1 F5760
G1 X135.233 Y122.159 E-0.35674
G1 F5760
G1 X135.062 Y121.626 E-0.19383
G1 F5760
G1 X135.557 Y121.279 E-0.20943
G1 E-0.04000 F2100.00000
G1 X147.304 Y103.369 F7200.000
G1 E0.80000 F2100.00000
G1 F720
G1 X147.895 Y101.655 E0.04383
G1 X148.256 Y100.539 E0.02838
G1 X147.668 Y102.402 E0.04724
G1 X147.325 Y103.313 E0.02354
G1 F5760
G1 X147.895 Y101.655 E-0.60690
G1 F5760
G1 X148.031 Y101.235 E-0.15310
G1 E-0.04000 F2100.00000
G1 X149.729 Y90.740 F7200.000
G1 E0.80000 F2100.00000
G1 F720
G1 X149.487 Y90.094 E0.01668
G1 X149.016 Y88.384 E0.04290
G1 X149.122 Y88.572 E0.00523
G1 X149.736 Y90.236 E0.04290
G1 X149.730 Y90.680 E0.01073
G1 F5760
G1 X149.487 Y90.094 E-0.21964
G1 F5760
G1 X149.072 Y88.590 E-0.54036
G1 E-0.04000 F2100.00000
G1 X148.523 Y87.513 F7200.000
G1 E0.80000 F2100.00000
G1 F720
G1 X148.546 Y87.553 E0.00110
G1 X146.491 Y87.134 E0.05072
G1 X142.182 Y87.152 E0.10422
G1 X142.128 Y87.200 E0.00175
G1 X141.905 Y87.130 E0.00567
G1 X147.170 Y87.112 E0.12733
G1 X148.466 Y87.496 E0.03270
G1 X148.490 Y87.937 F7200.000
G1 F1080
G1 X146.453 Y87.522 E0.05029
G1 X142.332 Y87.539 E0.09965
G1 X142.224 Y87.637 E0.00354
G1 X140.794 Y87.186 E0.03627
G1 X139.772 Y87.555 E0.02627
G1 X139.844 Y87.192 E0.00896
G1 X141.081 Y86.745 E0.03181
G1 X147.225 Y86.724 E0.14860
G1 X148.784 Y87.186 E0.03932
G1 X149.475 Y88.409 E0.03396
G1 X150.124 Y90.170 E0.04540
G1 X150.058 Y95.046 E0.11794
G1 X149.105 Y99.135 E0.10154
G1 X148.035 Y102.528 E0.08605
G1 X146.910 Y105.515 E0.07719
G1 X145.693 Y108.864 E0.08618
G1 X144.598 Y111.503 E0.06908
G1 X144.280 Y111.890 E0.01213
G1 X142.611 Y115.123 E0.08798
G1 X138.431 Y120.045 E0.15619
G1 X138.542 Y120.364 E0.00815
G1 X138.540 Y121.305 E0.02276
G1 X138.274 Y121.635 E0.01024
G1 X137.795 Y122.105 E0.01622
G1 X137.162 Y122.634 E0.01997
G1 X136.783 Y122.904 E0.01124
G1 X136.435 Y123.097 E0.00964
G1 X136.134 Y123.162 E0.00746
G1 X135.852 Y123.092 E0.00702
G1 X134.867 Y122.371 E0.02952
G1 X134.858 Y122.257 E0.00278
G1 X134.611 Y121.488 E0.01954
G1 X134.731 Y121.385 E0.00382
G1 X135.327 Y120.967 E0.01760
G1 X137.487 Y118.978 E0.07102
G1 X142.030 Y114.131 E0.16066
G1 X144.949 Y108.602 E0.15121
G1 X145.844 Y106.507 E0.05509
G1 X146.719 Y103.875 E0.06709
G1 X147.527 Y101.533 E0.05992
G1 X148.387 Y98.873 E0.06760
G1 X149.281 Y95.656 E0.08075
G1 X149.662 Y91.667 E0.09692
G1 X149.117 Y90.214 E0.03752
G1 X148.506 Y87.995 E0.05566
G1 X148.503 Y87.538 F7200.000
G1 F5760
G1 X146.453 Y87.522 E-0.72986
G1 F5760
G1 X146.366 Y87.522 E-0.03014
G1 E-0.04000 F2100.00000
G1 X149.762 Y90.931 F7200.000
G1 E0.80000 F2100.00000
G1 F1440
G1 X149.811 Y91.211 E0.00416
G1 F1440
G1 X149.860 Y91.491 E0.00264
G1 F1440
G1 X149.885 Y91.643 E0.00061
G1 X149.824 Y92.763 E0.00443
G1 F1440
G1 X149.763 Y93.883 E0.01093
G1 F1440
G1 X149.702 Y95.003 E0.01733
G1 X149.587 Y95.702 E0.01096
G1 X149.029 Y97.893 E0.03493
G1 F1440
G1 X148.736 Y99.034 E0.02493
G1 X148.315 Y100.354 E0.02933
G1 F5760
G1 X148.736 Y99.034 E-0.47989
G1 F5760
G1 X148.937 Y98.251 E-0.28011
G1 E-0.04000 F2100.00000
G1 X147.238 Y103.551 F7200.000
G1 E0.80000 F2100.00000
G1 F1440
G1 X146.583 Y105.393 E0.04204
G1 F1440
G1 X146.156 Y106.619 E0.02257
G1 X145.814 Y107.486 E0.01620
G1 F1440
G1 X145.476 Y108.343 E0.01922
G1 F5760
G1 X145.814 Y107.486 E-0.31890
G1 E-0.48110 F2100.00000
G1 X140.711 Y116.424 F7200.000
G1 E0.80000 F2100.00000
G1 F1440
G1 X139.349 Y117.950 E0.00867
G1 F1440
G1 X137.988 Y119.476 E0.02136
G1 F1440
G1 X137.716 Y119.760 E0.00534
G1 X137.854 Y120.354 F7200.000
G1 F1440
G1 X137.373 Y119.873 E0.01690
G1 X137.079 Y120.143 E0.00989
G1 X137.926 Y120.989 E0.02971
G1 X137.716 Y121.343 E0.01020
G1 X136.786 Y120.413 E0.03265
G1 X136.493 Y120.683 E0.00989
G1 X137.435 Y121.624 E0.03306
G1 X137.141 Y121.894 E0.00989
G1 X136.200 Y120.953 E0.03304
G1 X135.907 Y121.222 E0.00989
G1 X136.835 Y122.150 E0.03257
G1 X136.507 Y122.385 E0.01002
G1 X135.605 Y121.484 E0.03166
G1 X135.401 Y121.843 E0.01026
G1 X135.689 Y122.131 E0.01011
G1 F5760
G1 X135.401 Y121.843 E-0.14110
G1 F5760
G1 X135.605 Y121.484 E-0.14307
G1 F5760
G1 X136.507 Y122.385 E-0.44172
G1 F5760
G1 X136.587 Y122.328 E-0.03410
G1 E-0.04000 F2100.00000
G1 X140.977 Y86.989 F7200.000
G1 E0.80000 F2100.00000
G1 F1440
G1 X141.222 Y87.026 E0.00248
G1 F1440
G1 X141.713 Y87.101 E0.00781
G1 F5760
G1 X141.222 Y87.026 E-0.17193
G1 E-0.62807 F2100.00000
G1 X112.319 Y119.957 F7200.000
G1 E0.80000 F2100.00000
G1 F720
G1 X107.788 Y114.944 E0.16341
G1 X106.034 Y111.793 E0.08722
G1 X105.834 Y111.516 E0.00826
G1 X104.672 Y108.949 E0.06814
G1 X104.541 Y108.622 E0.00853
G1 X104.702 Y108.969 E0.00925
G1 X105.854 Y111.128 E0.05919
G1 X107.709 Y114.383 E0.09060
G1 X112.740 Y119.453 E0.17273
G1 X113.127 Y119.465 E0.00936
G1 X113.191 Y119.510 E0.00189
G1 X113.447 Y119.843 E0.01016
G1 X114.816 Y121.777 E0.05732
G1 X114.621 Y122.071 E0.00853
G1 X114.424 Y122.270 E0.00677
G1 X114.028 Y122.563 E0.01193
G1 X113.901 Y122.565 E0.00306
G1 X113.542 Y122.468 E0.00899
G1 X112.951 Y122.232 E0.01539
G1 X112.245 Y121.894 E0.01894
G1 X111.863 Y121.670 E0.01070
G1 X111.608 Y121.481 E0.00769
G1 X111.511 Y121.349 E0.00396
G1 X111.483 Y121.198 E0.00371
G1 X111.547 Y120.561 E0.01550
G1 X111.640 Y120.313 E0.00640
G1 X112.266 Y119.984 E0.01709
G1 F5760
G1 X110.808 Y118.344 E-0.76000
G1 E-0.04000 F2100.00000
G1 X102.444 Y103.438 F7200.000
G1 E0.80000 F2100.00000
G1 F720
G1 X102.139 Y102.699 E0.01934
G1 X101.407 Y100.612 E0.05348
G1 X102.423 Y103.382 E0.07134
G1 F5760
G1 X102.139 Y102.699 E-0.25613
G1 F5760
G1 X101.657 Y101.326 E-0.50387
G1 E-0.04000 F2100.00000
G1 X100.496 Y90.956 F7200.000
G1 E0.80000 F2100.00000
G1 F720
G1 X100.554 Y90.263 E0.01681
G1 X101.172 Y88.572 E0.04355
G1 X101.304 Y88.341 E0.00643
G1 X100.819 Y90.094 E0.04400
G1 X100.517 Y90.900 E0.02081
G1 F5760
G1 X100.554 Y90.263 E-0.22075
G1 F5760
G1 X101.089 Y88.801 E-0.53925
G1 E-0.04000 F2100.00000
G1 X101.749 Y87.556 F7200.000
G1 E0.80000 F2100.00000
G1 F720
G1 X101.773 Y87.514 E0.00117
G1 X103.129 Y87.112 E0.03420
G1 X108.394 Y87.130 E0.12734
G1 X108.170 Y87.200 E0.00567
G1 X108.117 Y87.152 E0.00175
G1 X103.807 Y87.134 E0.10423
G1 X101.808 Y87.544 E0.04936
G1 X101.817 Y87.938 F7200.000
G1 F1080
G1 X101.189 Y90.214 E0.05712
G1 X100.649 Y91.654 E0.03719
G1 X100.563 Y94.506 E0.06901
G1 X101.298 Y99.162 E0.11400
G1 X102.249 Y101.810 E0.06804
G1 X104.090 Y106.730 E0.12704
G1 X105.049 Y108.796 E0.05510
G1 X106.194 Y110.941 E0.05880
G1 X108.021 Y114.146 E0.08923
G1 X112.907 Y119.070 E0.16776
G1 X113.254 Y119.082 E0.00840
G1 X113.461 Y119.226 E0.00611
G1 X113.759 Y119.613 E0.01180
G1 X115.260 Y121.733 E0.06285
G1 X115.159 Y121.962 E0.00606
G1 X114.924 Y122.317 E0.01029
G1 X114.679 Y122.564 E0.00840
G1 X114.158 Y122.950 E0.01569
G1 X113.852 Y122.953 E0.00740
G1 X113.419 Y122.836 E0.01083
G1 X112.796 Y122.587 E0.01625
G1 X112.063 Y122.237 E0.01965
G1 X111.649 Y121.994 E0.01160
G1 X111.329 Y121.757 E0.00962
G1 X111.146 Y121.507 E0.00751
G1 X111.091 Y121.215 E0.00718
G1 X111.166 Y120.471 E0.01807
G1 X111.329 Y120.038 E0.01120
G1 X111.696 Y119.846 E0.01001
G1 X107.470 Y115.171 E0.15239
G1 X105.706 Y112.002 E0.08774
G1 X105.497 Y111.712 E0.00865
G1 X104.315 Y109.101 E0.06930
G1 X102.995 Y105.791 E0.08619
G1 X101.777 Y102.837 E0.07727
G1 X100.604 Y99.496 E0.08564
G1 X99.876 Y93.723 E0.14072
G1 X100.172 Y90.179 E0.08601
G1 X100.819 Y88.408 E0.04559
G1 X101.513 Y87.186 E0.03399
G1 X103.073 Y86.724 E0.03936
G1 X109.219 Y86.745 E0.14864
G1 X110.455 Y87.192 E0.03178
G1 X110.527 Y87.555 E0.00897
G1 X109.505 Y87.186 E0.02627
G1 X108.074 Y87.637 E0.03629
G1 X107.966 Y87.539 E0.00354
G1 X103.846 Y87.522 E0.09965
G1 X101.876 Y87.926 E0.04862
G1 X101.422 Y87.875 F7200.000
G1 F5760
G1 X101.245 Y90.027 E-0.76000
G1 E-0.04000 F2100.00000
G1 X100.454 Y91.145 F7200.000
G1 E0.80000 F2100.00000
G1 F1440
G1 X100.356 Y91.579 E0.00726
G1 F1440
G1 X100.312 Y92.314 E0.00828
G1 F1440
G1 X100.232 Y93.716 E0.02200
G1 X100.270 Y94.515 E0.01254
G1 F1440
G1 X100.495 Y96.101 E0.01641
G1 F1440
G1 X100.940 Y99.237 E0.05172
G1 F1440
G1 X100.979 Y99.408 E0.00344
G1 X101.342 Y100.430 E0.02133
G1 F5760
G1 X100.979 Y99.408 E-0.37565
G1 F5760
G1 X100.940 Y99.237 E-0.06068
G1 E-0.36368 F2100.00000
G1 X102.515 Y103.619 F7200.000
G1 E0.80000 F2100.00000
G1 F1440
G1 X103.317 Y105.659 E0.04238
G1 F1440
G1 X103.783 Y106.864 E0.02010
G1 F1440
G1 X104.464 Y108.444 E0.03592
G1 F5760
G1 X103.783 Y106.864 E-0.59595
G1 E-0.20405 F2100.00000
G1 X109.349 Y116.346 F7200.000
G1 E0.80000 F2100.00000
G1 F1440
G1 X109.973 Y117.004 E0.00331
G1 F1440
G1 X111.220 Y118.321 E0.01572
G1 F1440
G1 X112.467 Y119.638 E0.02483
G1 X113.182 Y119.982 F7200.000
G1 F1440
G1 X112.888 Y119.688 E0.01194
G1 X112.589 Y120.039 E0.01323
G1 X114.471 Y121.921 E0.07635
G1 X114.139 Y122.239 E0.01320
G1 X112.162 Y120.263 E0.08017
G1 X111.777 Y120.528 E0.01342
G1 X113.359 Y122.111 E0.06420
G1 F5760
G1 X111.808 Y120.559 E-0.76000
G1 E-0.04000 F2100.00000
G1 X112.023 Y121.425 F7200.000
G1 E0.80000 F2100.00000
G1 F1440
G1 X111.716 Y121.118 E0.01245
G1 F5760
G1 X112.023 Y121.425 E-0.15033
G1 E-0.64967 F2100.00000
G1 X108.586 Y87.101 F7200.000
G1 E0.80000 F2100.00000
G1 F1440
G1 X108.831 Y87.063 E0.00391
G1 F1440
G1 X109.323 Y86.989 E0.00496
G1 F5760
G1 X108.831 Y87.063 E-0.17214
G1 E-0.62786 F2100.00000
G1 Z0.150 F7200.000
M106 S216.75
G1 Z0.350 F7200.000
G1 X135.099 Y121.611 F7200.000
G1 E0.80000 F2100.00000
M204 S800
G1 F1200
G1 X135.794 Y121.016 E0.03096
G1 X136.222 Y120.716 E0.01769
G1 X137.784 Y119.278 E0.07188
G1 X142.376 Y114.378 E0.22731
G1 X145.047 Y109.321 E0.19356
G1 X144.233 Y111.283 E0.07190
G1 X143.926 Y111.657 E0.01637
G1 X142.258 Y114.886 E0.12302
G1 X137.965 Y119.943 E0.22455
G1 X138.157 Y120.479 E0.01926
G1 X138.155 Y121.124 E0.02183
G1 X137.972 Y121.344 E0.00969
G1 X137.518 Y121.791 E0.02158
G1 X136.908 Y122.301 E0.02691
G1 X136.560 Y122.548 E0.01443
G1 X136.285 Y122.701 E0.01067
G1 X136.134 Y122.734 E0.00522
G1 X135.996 Y122.702 E0.00479
G1 X135.280 Y122.178 E0.03006
G1 X135.117 Y121.668 E0.01809
M204 S1000
G1 F5760
G1 X135.794 Y121.016 E-0.32545
G1 F5760
G1 X136.222 Y120.716 E-0.18101
G1 F5760
G1 X136.760 Y120.220 E-0.25354
G1 E-0.04000 F2100.00000
G1 X149.697 Y90.558 F7200.000
G1 E0.80000 F2100.00000
M204 S800
G1 F1200
G1 X149.519 Y90.084 E0.01713
G1 X149.155 Y88.760 E0.04646
G1 X149.701 Y90.242 E0.05346
G1 X149.698 Y90.498 E0.00865
M204 S1000
G1 F5760
G1 X149.519 Y90.084 E-0.15615
G1 F5760
G1 X149.155 Y88.760 E-0.47541
G1 F5760
G1 X149.283 Y89.108 E-0.12843
G1 E-0.04000 F2100.00000
G1 X148.137 Y87.435 F7200.000
G1 E0.80000 F2100.00000
M204 S800
G1 F1200
G1 X146.731 Y87.148 E0.04859
G1 X147.165 Y87.146 E0.01469
G1 X148.080 Y87.418 E0.03231
M204 S1000
G1 F5760
G1 X146.731 Y87.148 E-0.47652
G1 F5760
G1 X147.165 Y87.146 E-0.15032
G1 F5760
G1 X147.294 Y87.185 E-0.04675
G1 F5760
G1 X147.533 Y87.256 E-0.08641
G1 E-0.04000 F2100.00000
G1 X142.177 Y87.163 F7200.000
G1 E0.80000 F2100.00000
M204 S800
G1 F1200
G1 X141.832 Y87.341 E0.01314
G1 X140.241 Y88.786 E0.07277
G1 X140.212 Y88.777 E0.00103
G1 X139.927 Y88.880 E0.01026
G1 X140.190 Y87.516 E0.04705
G1 X141.156 Y87.167 E0.03476
G1 X142.117 Y87.163 E0.03254
M204 S1000
G1 F5760
G1 X141.832 Y87.341 E-0.11627
G1 F5760
G1 X140.456 Y88.591 E-0.64373
G1 E-0.04000 F2100.00000
